sinayanaik/E2NN/E2NN/pinn_8/run_20250730_024602_lr0.001_bs128_hs1280/predictions_lr0.001_bs128.csv
timestamp,target_x,target_z,actual_x,actual_z,joint1_angle,joint2_angle,joint3_angle,joint1_velocity,joint2_velocity,joint3_velocity,joint1_acceleration,joint2_acceleration,joint3_acceleration,joint1_torque,joint2_torque,joint3_torque,kp,kd,amplitude_A,center_x,center_z,predicted_joint1_torque,predicted_joint2_torque,predicted_joint3_torque
1753800508.2120616,0.2,0.4,0.2167314429258742,0.3862370980335294,-0.105379844172365,1.437717962441215,0.8977960351146055,-0.9154442083531084,0.6935034189049117,0.2689164173252099,0.0,0.0,0.0,-3.970383893403677,-4.628157987062157,-0.9477719474997576,0.02,0.3,-0.1,0.2,0.3,-3.942903,-4.6308703,-0.96021247
1753800508.2197323,0.1993716980058323,0.3999980260856137,0.21611621186901,0.3862958733521013,-0.1091764894604584,1.4405745412395186,0.8989875095417083,-0.9111948691424212,0.6855789115928158,0.2859538625046683,0.0,0.0,0.0,-3.951561661110157,-4.62249858937553,-0.9477908329842764,0.02,0.3,-0.1,0.2,0.3,-3.9112475,-4.6373715,-0.9605126
1753800508.2273085,0.1987434952278331,0.3999921044203816,0.2154993749789257,0.3863501777299914,-0.1129583034417366,1.443404084769457,0.900240702050261,-0.9076353555067638,0.679090447185197,0.300766202052645,0.0854283272557783,-0.1557231457828525,0.3554961491514401,-3.932906851057707,-4.617578379728015,-0.947853682599114,0.02,0.3,-0.1,0.2,0.3,-3.8981297,-4.633499,-0.9603009
1753800508.2350123,0.1981154908665032,0.3999822352380809,0.2148810310771911,0.3864000723079914,-0.1167286560209462,1.446213281513763,0.9015452697814024,-0.9048846190103202,0.6742072186334593,0.3130962554739339,0.2197886649750483,-0.39749914765084,0.935814350583526,-3.916170749578677,-4.612641906672687,-0.9479473451161012,0.02,0.3,-0.1,0.2,0.3,-3.884253,-4.627626,-0.9595932
1753800508.3370976,0.1974877840910115,0.39996841892833,0.2142612737603609,0.3864456471609251,-0.1204908529251642,1.449009064907557,0.902890166350294,-0.9029272570123252,0.6709880145106204,0.3227751765339909,0.3677834059886298,-0.6553389612463136,1.6125047281570586,-3.897854526361266,-4.606810455977333,-0.94809964440521,0.02,0.3,-0.1,0.2,0.3,-3.8726273,-4.619553,-0.9588349
1753800508.3449483,0.1968604740235343,0.3999506560365731,0.2136402471396181,0.3864869750081738,-0.1242529102753896,1.4518063855316454,0.9042531165081764,-0.902893764054098,0.6713569497811956,0.3271080378918101,0.474227427258712,-0.8263671290585759,2.2161029699620145,-3.892576781014617,-4.596919095931143,-0.9479832657841822,0.02,0.3,-0.1,0.2,0.3,-3.8613465,-4.61066,-0.9581251
1753800508.353389,0.1962336597236033,0.3999289472640589,0.2130180594059013,0.3865242337498458,-0.1280254250438298,1.4546251415621403,0.9056046820386,-0.9054035444256292,0.6765014473188196,0.3243757273016597,0.4003384852956032,-0.6602037341721639,2.2435446771843277,-3.891871733767777,-4.582837651745439,-0.9476077417314892,0.02,0.3,-0.1,0.2,0.3,-3.8460727,-4.6037564,-0.95766014
1753800508.3618426,0.1956074401724628,0.3999032934678124,0.2123948570520673,0.3865576012980454,-0.1318092058609595,1.4574672953965429,0.9069410089623304,-0.9081073961111388,0.6821169202565842,0.3207184616953101,0.1893184293825238,-0.2379657284571812,1.8288339112580048,-3.8682451573069514,-4.580087470263911,-0.9477986954775562,0.02,0.3,-0.1,0.2,0.3,-3.8229265,-4.6005774,-0.95764774
1753800508.3698435,0.1949819142574392,0.3998736956606017,0.2117707614764761,0.3865871100964807,-0.1355982625444157,1.4603225512935425,0.9082761898872852,-0.9093736040294824,0.6852614152798391,0.3204434219891375,-0.0361057206305957,0.2151474877017776,1.3112234963598968,-3.828058582442452,-4.584378561829611,-0.94805911786286,0.02,0.3,-0.1,0.2,0.3,-3.792214,-4.6012535,-0.95812696
1753800508.4741423,0.1943571807563259,0.3998401550108975,0.211145850471019,0.3866126496280421,-0.1393960515748644,1.4631977064134143,0.90959954286642,-0.9114693673077076,0.6900372287693088,0.3176047149922823,-0.2197761851528586,0.5964446557037142,0.8503862981069865,-3.8105739433327135,-4.578503027849483,-0.9480515771371656,0.02,0.3,-0.1,0.2,0.3,-3.7670133,-4.6008673,-0.95825857
1753800508.4822495,0.1937333383217847,0.3998026728428271,0.2105202486236227,0.3866342862869073,-0.1432044203205941,1.4660965555240153,0.910904782418357,-0.9140084989751144,0.6957237865442429,0.3132574924649124,-0.375042796422522,0.9284159525935912,0.4232941057175861,-3.789397671580107,-4.574484260000164,-0.9480735691861322,0.02,0.3,-0.1,0.2,0.3,-3.7475016,-4.5988455,-0.9581394
1753800508.490286,0.1931104854657681,0.3997612506361225,0.2098940657525039,0.3866520571954726,-0.147022789285686,1.4690185099891553,0.9121919727670704,-0.916408551622068,0.7012690716335788,0.3089256836912357,-0.514537054389075,1.2328891481428956,0.0067424186219172,-3.7623537230330544,-4.57311529998142,-0.9481777156353254,0.02,0.3,-0.1,0.2,0.3,-3.72987,-4.5964446,-0.9580014
1753800508.4983912,0.1924887205439621,0.3997158900260614,0.2092674001684982,0.3866659556442084,-0.1508432563935883,1.4719499554802198,0.9134803279803674,-0.9169121058965412,0.7035469178555038,0.3092052511912353,-0.5962051607454077,1.4343970395286658,-0.2822393855739791,-3.717175780760396,-4.579133016867693,-0.948320810904112,0.02,0.3,-0.1,0.2,0.3,-3.6983829,-4.6005154,-0.95835245
1753800508.506514,0.1918681417402558,0.399666592803403,0.2086403008658643,0.3866758159742214,-0.1546519052204327,1.4748668467341035,0.9148040255746246,-0.9140757184426572,0.7000539009320838,0.3176874226217199,-0.5150896271199139,1.3470132248934168,-0.1682850450242483,-3.656799601174235,-4.591360443381976,-0.948743790811154,0.02,0.3,-0.1,0.2,0.3,-3.6324515,-4.619719,-0.9597541
1753800508.6044714,0.1912488470512362,0.3996133609143172,0.2080128116740772,0.386681367043743,-0.1583945502834818,1.4776737534589244,0.9163004388624326,-0.8982348151317819,0.6736576139569836,0.3591391890739375,0.0293339917540929,0.4395628136674436,1.1203004450471368,-3.4986178502739445,-4.647491266515647,-0.9507702969181636,0.02,0.3,-0.1,0.2,0.3,-3.4711561,-4.6619444,-0.9638394
1753800508.612976,0.1906309342707138,0.399556196460308,0.2073848081715982,0.3866816614924777,-0.1623071177657183,1.480790792748936,0.9173566981960102,-0.939016195736756,0.748089429602756,0.253502240058609,-0.3229827743250478,1.1312492438299036,0.0601440962812864,-4.049358174512351,-4.394713787859796,-0.9448191604531428,0.02,0.3,-0.1,0.2,0.3,-4.0124545,-4.420324,-0.95292693
1753800508.6214485,0.1900145009742796,0.39949510169813,0.2067577236775258,0.3866811097148175,-0.1663630202072339,1.4841696160703206,0.918041807401418,-0.9734165859637636,0.8109175971323228,0.1644262092978987,-2.1379069577796708,4.416993688537884,-4.796011173764808,-3.957823762533321,-4.420452790668638,-0.945674417241067,0.02,0.3,-0.1,0.2,0.3,-3.9880438,-4.424244,-0.95007545
1753800508.6298215,0.1893996445038972,0.3994300790396999,0.2061315446092569,0.3866791787290652,-0.1705609619674697,1.4878077330692612,0.9183573834455792,-1.0075060224565888,0.873148079745738,0.0757382505986824,-4.555548385012689,8.758548696414007,-11.209922634119884,-3.925132232451892,-4.417882295871375,-0.9462019071338188,0.02,0.3,-0.1,0.2,0.3,-3.905846,-4.4462614,-0.9523239
1753800508.6382408,0.1887864619525309,0.3993611310520008,0.2055064771854991,0.3866757913388715,-0.1748800692394752,1.4916674949150857,0.91835660703011,-1.036585745281319,0.9263428429978812,-0.0001863397126048,-6.884557702253256,12.92486845772446,-17.388362914379577,-3.846453104079764,-4.438152015534996,-0.9474146789793046,0.02,0.3,-0.1,0.2,0.3,-3.7915058,-4.479084,-0.95702714
1753800508.741716,0.1881750501488137,0.3992882604569813,0.204882538495872,0.3866705614204798,-0.1792932368704577,1.495700394020326,0.918109153181449,-1.059160231435794,0.9678957852576936,-0.0593889236786604,-8.32725500975219,15.499646450568983,-20.0,-3.752524552449348,-4.465323079056266,-0.948641642423296,0.02,0.3,-0.1,0.2,0.3,-3.7238238,-4.495398,-0.95498914
1753800508.7500122,0.1875655056417572,0.3992114701314477,0.2042596528057829,0.3866629730947146,-0.1838065887623879,1.4999176127493377,0.917596226959995,-1.0832044540632415,1.012132494962792,-0.1231022931489777,-9.15853343812903,16.980744224143216,-20.0,-3.7371340617367927,-4.456186756932314,-0.949794354217242,0.02,0.3,-0.1,0.2,0.3,-3.6690335,-4.505377,-0.9511509
1753800508.759066,0.1869579246855051,0.3991307631069506,0.2036380828739942,0.3866531480600913,-0.1883751931375778,1.5042393750521117,0.916934181130337,-1.0964650500455786,1.0372229526657917,-0.1588909991179201,-9.401417410271582,17.414895686831315,-20.0,-3.599749173742197,-4.503403117305642,-0.951384273117138,0.02,0.3,-0.1,0.2,0.3,-3.5615435,-4.536407,-0.952405
1753800508.7675848,0.1863524032241337,0.3990461425696651,0.203017567918391,0.3866402344160988,-0.1929566204622822,1.5085912014600946,0.9162317878666256,-1.099542557929054,1.0444383379159028,-0.1685743832906956,-8.92033074969725,16.56865861281581,-19.76034650990882,-3.467104883953032,-4.547756200399734,-0.9530829603120262,0.02,0.3,-0.1,0.2,0.3,-3.453257,-4.568212,-0.9553284
1753800508.776012,0.1857490368765012,0.398957611860265,0.2023979062642469,0.386623415883823,-0.1975458773952917,1.5129647327068108,0.9155005877875064,-1.101421663922301,1.049647499211885,-0.175488018988612,-7.898938402506302,14.772712131693392,-17.946295671795394,-3.4266427632158614,-4.552756097403013,-0.954256012868717,0.02,0.3,-0.1,0.2,0.3,-3.3152647,-4.61164,-0.9617071
1753800508.8721683,0.1851479209211482,0.3988651744737914,0.2017791618210082,0.3866026064928666,-0.2020484779854193,1.517194075928276,0.914984609961206,-1.0806241416306133,1.015042373151688,-0.1238346783121281,-6.12064534375287,11.649431225004015,-14.028112938099612,-3.169849258616519,-4.657702299931585,-0.9575557757164436,0.02,0.3,-0.1,0.2,0.3,-3.165641,-4.662099,-0.9664118
1753800508.8811023,0.1845491502812526,0.3987688340595137,0.2011607348088711,0.3865761324086379,-0.2064601332286474,1.5212738945048476,0.9146919584447678,-1.058797258374754,0.9791564583771972,-0.0702363639451815,-3.705988912800544,7.424102981353252,-8.35873840814285,-3.12835876165904,-4.659674883044476,-0.95823585551193,0.02,0.3,-0.1,0.2,0.3,-3.1528387,-4.6501737,-0.97105867
1753800508.889595,0.1839528195096395,0.3986685944207868,0.2005427389498756,0.3865438184944867,-0.2108103064949486,1.5252569686005388,0.9145439631931938,-1.044041583912287,0.955937782965907,-0.0355188603777841,-1.3482958828487597,3.322128153437029,-2.76751477582605,-3.174123864064801,-4.628707975148767,-0.9589739729422128,0.02,0.3,-0.1,0.2,0.3,-3.249186,-4.602476,-0.97098136
1753800508.8987443,0.1833590227738506,0.3985644595148998,0.1999255095441802,0.386506285624488,-0.2151737836123174,1.5292749106829353,0.9143454512648228,-1.0472345081685055,0.9643060997751332,-0.0476428628089889,0.1493528578614216,0.7461463440544698,0.6510418823410755,-3.3306047708139617,-4.546379132197344,-0.9582633368014948,0.02,0.3,-0.1,0.2,0.3,-3.3601122,-4.5504403,-0.9693454
1753800508.9073188,0.1827678538412741,0.3984564334529205,0.1993096788077286,0.3864649343956807,-0.2196090568566876,1.5334302652563152,0.913943041082108,-1.0644655786488335,0.9972850976111904,-0.0965784438515774,0.2070501077069154,0.7017932412762345,0.3863153313482613,-3.4463268937818263,-4.48116586131894,-0.9581999076529832,0.02,0.3,-0.1,0.2,0.3,-3.4044585,-4.5231037,-0.9678577
1753800509.010753,0.1821794060643374,0.3983445204995329,0.19869582552805,0.3864208782824906,-0.2242226863202328,1.5379098013905266,0.913055938833103,-1.107271071250866,1.0750886722107107,-0.2129045397612151,-1.3815723621746931,3.538179803993478,-4.118820969826029,-3.6756444714035457,-4.360446108215208,-0.9581092664761156,0.02,0.3,-0.1,0.2,0.3,-3.6943998,-4.3830695,-0.9651152
1753800509.0190234,0.1815937723657661,0.3982287250728689,0.1980850973503565,0.3863761360672075,-0.2288055323806961,1.5423464523459622,0.9122311050625124,-1.09988305451118,1.0647962293045363,-0.1979601049417642,-2.9208040042629597,6.276369648805417,-8.444071767137542,-3.141795532169163,-4.594416146152288,-0.9616798144427078,0.02,0.3,-0.1,0.2,0.3,-3.4364152,-4.4708977,-0.96984696
1753800509.0272048,0.1810110452239099,0.3981090517443334,0.1974756116005415,0.3863268151923225,-0.2333422516374201,1.5467145518315706,0.9115060845553596,-1.088812621613762,1.0483438765460131,-0.1740049217166239,-3.0390888794563504,6.518745072638671,-9.0213866371488,-3.075965304251291,-4.611472554989622,-0.9632198262337536,0.02,0.3,-0.1,0.2,0.3,-3.1252563,-4.585228,-0.97681093
1753800509.0355966,0.1804313166581398,0.3979855052384247,0.196867380860291,0.3862726486814716,-0.2378715870273338,1.551082741068587,0.910777358184398,-1.0870404935793023,1.0483654168839551,-0.1748943290308062,-2.3265579559029312,5.309852592360777,-7.413315204403196,-3.1420379793688444,-4.567778299951718,-0.9640006744106324,0.02,0.3,-0.1,0.2,0.3,-3.1295424,-4.5732436,-0.97873867
1753800509.043783,0.1798546782143168,0.3978580904325472,0.1962608987534276,0.3862143836968546,-0.2423749975611092,1.555419317825084,0.9100918647884212,-1.0808185281060898,1.0407784215592872,-0.1645184150344559,-1.2937759937104234,3.54820385718386,-4.959391275683934,-3.0697257399616054,-4.588775890653327,-0.9652915052403428,0.02,0.3,-0.1,0.2,0.3,-3.136038,-4.5657125,-0.9777634
1753800509.1488376,0.1792812209503357,0.3977268123568193,0.1956560857225365,0.3861516875260616,-0.246796378802711,1.559628456153447,0.9095924007870284,-1.0611314979844286,1.01019319880712,-0.1198713603342092,-0.1631650474167678,1.6344746430153574,-2.256334380711305,-2.903308426527448,-4.650639401222241,-0.96721004736889,0.02,0.3,-0.1,0.2,0.3,-3.0581093,-4.596858,-0.9751131
1753800509.157671,0.1787110354217463,0.3975916761938747,0.195052619244536,0.3860834916179747,-0.2512221142503425,1.5638598681528797,0.9090548657929216,-1.062176507431556,1.0155388798638063,-0.1290083985856313,0.7237135274859439,0.1529786369580088,-0.1787134052520724,-3.0912692677384297,-4.555546214375226,-0.9667658000403496,0.02,0.3,-0.1,0.2,0.3,-3.1090772,-4.569465,-0.97535825
1753800509.1659734,0.1781442116674533,0.3974526872786577,0.1944512360158961,0.3860114728128583,-0.2557030834551548,1.5682019278161905,0.9083456866274614,-1.0754326091549529,1.0420943191945893,-0.1702029997104728,0.7703563491290674,0.1270686815978718,-0.2645342474869239,-3.1887941679037723,-4.497412800069345,-0.9670129772475046,0.02,0.3,-0.1,0.2,0.3,-3.1958656,-4.522011,-0.9779103
1753800509.1745727,0.1775808391954983,0.3973098510982126,0.1938524866347085,0.3859365972306208,-0.2602143081216989,1.57261151018933,0.9075286714417752,-1.0826939199705763,1.058299769553514,-0.1960836445647006,0.1759580924148778,1.2078552421351454,-1.9992927766164703,-3.1006738404503214,-4.525306092694029,-0.968348492429053,0.02,0.3,-0.1,0.2,0.3,-3.1617708,-4.5211306,-0.9801964
1753800509.182887,0.1770210069689256,0.3971631732914674,0.1932562352459125,0.3858584109580502,-0.2647701468015985,1.5771136522555458,0.9065649623320918,-1.0934012831759048,1.0805140958918442,-0.2312901863240135,-0.7083039870854743,2.784302955368357,-4.474409324282147,-3.108543035099624,-4.508596663007573,-0.9693409860296508,0.02,0.3,-0.1,0.2,0.3,-3.1183524,-4.523487,-0.980923
1753800509.2904763,0.1764648033917333,0.3970126596490105,0.192662724207016,0.3857772086943548,-0.2693172466000221,1.5816171942260029,0.905590860526074,-1.0913039516216765,1.080850072909626,-0.2337844334442625,-1.2351169880144572,3.742817641484924,-6.022295583646525,-2.9490004200453743,-4.568064250217571,-0.971147862873084,0.02,0.3,-0.1,0.2,0.3,-3.0197551,-4.5509605,-0.9811454
1753800509.2992992,0.1759123162949142,0.3968583161128631,0.1920716069020955,0.3856919715457954,-0.2738720858045643,1.5861508106223907,0.90456278132089,-1.0931614090901225,1.0880679351331484,-0.2467390092442024,-1.3012810804174109,3.907187215619629,-6.374063922918988,-2.96301735493075,-4.549480896457022,-0.9718956253375064,0.02,0.3,-0.1,0.2,0.3,-2.9881475,-4.5532637,-0.98090005
1753800509.3080225,0.1753636329225854,0.3967001487762435,0.1914830891630368,0.3856030162346247,-0.2784168098274274,1.5906843522226344,0.903525084996382,-1.090733765487138,1.088049984058484,-0.2490471178818903,-1.127782287888811,3.659797351237282,-6.103350906435269,-2.892494117197065,-4.570732512288258,-0.9736229390619354,0.02,0.3,-0.1,0.2,0.3,-2.9494932,-4.560065,-0.9808978
1753800509.3166308,0.1748188399182119,0.3965381638833274,0.1908971331151056,0.3855100632522859,-0.2829482990138882,1.5952134882630662,0.9024847024778488,-1.087557404750578,1.0869926497036415,-0.2496918044479809,-0.7580090035181284,3.079076035363608,-5.3220858983327,-2.8560982573773743,-4.571898680094877,-0.9740050200902424,0.02,0.3,-0.1,0.2,0.3,-2.9219685,-4.5646763,-0.9809121
1753800509.324901,0.1742780233109246,0.396372367829001,0.1903137667942898,0.3854129440219858,-0.2873267961746434,1.5995012067625876,0.9017974481722244,-1.0508393185812628,1.0290524398851275,-0.1649410333498372,0.4251498086154931,1.120815276762544,-2.457708445593761,-2.48367620809486,-4.73445360052753,-0.9786370705119862,0.02,0.3,-0.1,0.2,0.3,-2.449017,-4.7618923,-0.9877956
1753800509.436341,0.1737412685019352,0.3962027671586086,0.1897320737965915,0.3853091745018337,-0.2914221636321132,1.6033321820305368,0.9017851886662238,-0.9828881897927442,0.9194340643078068,-0.0029422814401307,3.3981624208254417,-3.845627783324358,4.929661267652692,-2.124155362000828,-4.8789574392406525,-0.9836458754914034,0.02,0.3,-0.1,0.2,0.3,-2.3715632,-4.7987194,-0.97876155
1753800509.4449997,0.1732086602510501,0.3960293685676943,0.1891516319002161,0.3851963162605889,-0.2951639920174572,1.6065946039250836,0.9026134032759218,-0.8980388124825511,0.7829812546912309,0.1987715063275104,8.12050602539394,-11.700884226143309,16.643097256857338,-1.9127868655525035,-4.954284539971087,-0.9876157019896296,0.02,0.3,-0.1,0.2,0.3,-1.9350328,-4.9516807,-0.995477
1753800509.4534256,0.1726802826632865,0.3958521789017376,0.1885725297751854,0.3850730920130044,-0.2985472841843412,1.6092867435002942,0.9042828835214154,-0.8119901200521535,0.6461134980505625,0.4006752589184806,13.687595146767874,-20.0,20.0,-1.8706742906309903,-4.956217299038746,-0.9891493843103776,0.02,0.3,-0.1,0.2,0.3,-1.8995184,-4.957481,-0.99022937
1753800509.4618275,0.1721562191755906,0.395671205155883,0.1879950722750633,0.3849394996489598,-0.3015895492737317,1.6114436325752652,0.9067400211299372,-0.7301436214537245,0.5176533779930204,0.5897130260452723,18.863943612177767,-20.0,20.0,-1.890531149166172,-4.933240375302246,-0.9890055290129168,0.02,0.3,-0.1,0.2,0.3,-1.9561036,-4.9171405,-1.0059848
1753800509.4700203,0.1716365525436621,0.3954864544746643,0.1874194738245203,0.3847959919072599,-0.304338533919062,1.6131496153178655,0.9098576978773432,-0.6597563148792791,0.4094358582241101,0.7482424193774252,20.0,-20.0,20.0,-1.9914515394712813,-4.876624023441339,-0.98712454032007,0.02,0.3,-0.1,0.2,0.3,-2.0562458,-4.8543067,-1.0073886
1753800509.568079,0.1711213648288866,0.3952979341517219,0.1868459652217143,0.384643603431167,-0.3068455562587729,1.6144931036197232,0.9135036613959416,-0.6016853615306033,0.3224371924457741,0.8750312444635854,20.0,-20.0,20.0,-2.106151192109624,-4.817119234681819,-0.984162170010136,0.02,0.3,-0.1,0.2,0.3,-2.1740797,-4.786435,-1.0040221
1753800509.576403,0.1706107373853763,0.3951056516295153,0.1862746337197052,0.3844834303986894,-0.3091456226006624,1.615534902415252,0.9175865063139732,-0.5520159220534855,0.25003171092686,0.9798827803275798,20.0,-20.0,20.0,-2.179614064352602,-4.775176824350487,-0.9815497295736828,0.02,0.3,-0.1,0.2,0.3,-2.2511182,-4.7542496,-1.0009519
1753800509.5843172,0.170104750847124,0.3949096144990294,0.1857055316699286,0.3843162688665623,-0.3112659816108484,1.616322694288568,0.9220341318588234,-0.5088861624446329,0.1890700495958784,1.0674301307640703,20.0,-20.0,20.0,-2.2332373139550605,-4.741076728398955,-0.9790280855814968,0.02,0.3,-0.1,0.2,0.3,-2.3387318,-4.7112966,-0.99620426
1753800509.5921493,0.1696034851152697,0.3947098304994744,0.1851387241629424,0.3841427590875287,-0.3132451960885276,1.616921444233099,0.9267495396257472,-0.4750114746430184,0.1436999866874179,1.1316978640617013,20.0,-20.0,20.0,-2.318936446583292,-4.695600949835115,-0.9755075197326032,0.02,0.3,-0.1,0.2,0.3,-2.418706,-4.663958,-0.9915991
1753800509.6002305,0.1691070193454832,0.3945063075179804,0.1845742513147947,0.3839637169723768,-0.31511371969272,1.617382009273578,0.9316572690966646,-0.448445665006181,0.1105356097149709,1.1778550730201518,19.488215696480097,-20.0,20.0,-2.3846015803307257,-4.659032086564917,-0.9718582325571729,0.02,0.3,-0.1,0.2,0.3,-2.4546177,-4.6364164,-0.9860047
1753800509.697101,0.1686154319354649,0.3942990535892864,0.1840121074079972,0.383779768932868,-0.3169019161092249,1.6177548949828782,0.9366823097540148,-0.429167139961175,0.0894925702320149,1.2060097577640732,18.34017592773535,-19.519371964373867,20.0,-2.449206209288235,-4.621720143145214,-0.9681049204708444,0.02,0.3,-0.1,0.2,0.3,-2.475831,-4.617832,-0.9800862
1753800509.705055,0.1681288005125655,0.3940880768954225,0.1834523628039566,0.3835914880610813,-0.3186217098308984,1.6180607319615423,0.941793469055418,-0.412750493201615,0.0734008748794023,1.2266782323367411,16.804242850941407,-18.099633483588462,19.388597855099576,-2.464647191759917,-4.603706181813508,-0.9652897514006628,0.02,0.3,-0.1,0.2,0.3,-2.5763192,-4.577729,-0.9740217
1753800509.7129855,0.1676472019215278,0.3938733857653874,0.1828951035217708,0.3833991214295338,-0.320293161755122,1.6183325219151827,0.9469416655019028,-0.4011484618136893,0.0652295888737195,1.2355671471563856,15.094316634129694,-16.15812415496152,17.697876265722698,-2.503155349154924,-4.578137868481911,-0.9619621908091146,0.02,0.3,-0.1,0.2,0.3,-2.5919733,-4.5638084,-0.970322
1753800509.7209718,0.1671707122123522,0.3936549886748192,0.1823404167109095,0.3832030500397103,-0.3219359530362143,1.6186024546428006,0.9520790283816796,-0.394269907462136,0.0647838546282887,1.2329670911463908,13.283553564475872,-13.87008040432231,15.24980020851658,-2.5402676988005943,-4.552701087796639,-0.9586216358706076,0.02,0.3,-0.1,0.2,0.3,-2.5546813,-4.5640016,-0.966729
1753800509.7288976,0.1666994066282874,0.3934328942456612,0.1817884340028025,0.3830036153272702,-0.3235682320924108,1.6188994913214068,0.9571623641560432,-0.3917469734871609,0.0712888028654638,1.2200005858473109,11.410469738060955,-11.345203206968892,12.256397673819023,-2.5750328162878926,-4.530715349232497,-0.9555876471109233,0.02,0.3,-0.1,0.2,0.3,-2.5914888,-4.5440526,-0.963391
1753800509.8289423,0.1662333595939487,0.3932071112458211,0.1812392875345541,0.3828011714403632,-0.3252001977823012,1.6192407374328872,0.9621656538448566,-0.3916717655737007,0.0818990667553343,1.200789525315204,9.5253160845633,-8.696091149638455,8.921524129113632,-2.5851507654895065,-4.514152469872521,-0.9528582661513908,0.02,0.3,-0.1,0.2,0.3,-2.623219,-4.524498,-0.96060514
1753800509.837427,0.1657726447035655,0.3929776485888251,0.1806931979728817,0.3825958494613986,-0.3268328489871048,1.619628139973377,0.9670855714564344,-0.391836289152865,0.0929766097175318,1.1807802267786895,7.762104854253305,-6.158272441835656,5.623001159960854,-2.572356332236885,-4.508219056938747,-0.9504443554409164,0.02,0.3,-0.1,0.2,0.3,-2.625267,-4.5148044,-0.9563236
1753800509.8458617,0.1653173347093597,0.3927445153334661,0.1801502933268166,0.382387647967075,-0.3284660085806167,1.620062291214899,0.9719204177771686,-0.3919583024428437,0.1041962979652992,1.1603631169761912,6.232912913215987,-3.925848176680005,2.671392029034683,-2.5548267453372118,-4.502351248362681,-0.948215307825054,0.02,0.3,-0.1,0.2,0.3,-2.6087942,-4.510338,-0.95319176
1753800509.853863,0.1648675015100575,0.3925077206834458,0.1796107607419474,0.3821765235617331,-0.3301028829927998,1.620548767431354,0.9766614210415946,-0.3928498589239422,0.1167542919492304,1.1378407834622335,4.957494425648775,-2.042193711038841,0.1508057747411961,-2.547417153382693,-4.493825473347208,-0.9457703352344002,0.02,0.3,-0.1,0.2,0.3,-2.5908027,-4.5056934,-0.9510087
1753800509.8621128,0.1644232161395357,0.3922672739870114,0.1790747647321507,0.3819624940758264,-0.3317473789106338,1.6210940508948597,0.9812980864206474,-0.394679020280178,0.1308680312413346,1.1127996909726714,3.8850970327403567,-0.440734408906261,-2.021267824157152,-2.542559168780948,-4.485651623841045,-0.9436424908669766,0.02,0.3,-0.1,0.2,0.3,-2.5771494,-4.499889,-0.9492044
1753800509.9591372,0.1639845487556046,0.392023184736587,0.1785424964874805,0.3817456306423049,-0.3334015092747753,1.621701481383349,0.985825251048994,-0.3969912873939586,0.1457833172374204,1.086519510803182,2.9638718916109514,0.9495020658843586,-3.934759234982668,-2.532863848708256,-4.478963458758433,-0.9411600863276512,0.02,0.3,-0.1,0.2,0.3,-2.568108,-4.4931984,-0.9476322
1753800509.9679554,0.1635515686289294,0.3917754625683981,0.1780140795267326,0.381525926873718,-0.3350662886347727,1.6223730398038554,0.9902392417533652,-0.399547046399385,0.1611740209215542,1.0593577690490945,2.171919130739583,2.155354507803462,-5.617029898102846,-2.5199512985114296,-4.473299022477359,-0.939052499897876,0.02,0.3,-0.1,0.2,0.3,-2.5598116,-4.4869194,-0.946399
1753800509.976563,0.1631243441320913,0.3915241172620917,0.177489685705524,0.3813033785520089,-0.3367421481848694,1.6231097687009022,0.994537768238447,-0.4022062920232189,0.1768149352912494,1.031646356419618,1.504261738418739,3.181062619155581,-7.067737958679351,-2.5055920367561217,-4.468355421026845,-0.9370055384341296,0.02,0.3,-0.1,0.2,0.3,-2.5417795,-4.4837055,-0.9457687
1753800509.9852707,0.1627029427287908,0.3912691587403503,0.1769694815261419,0.3810779732038878,-0.3384290209229736,1.6239119161907527,0.9987197120373784,-0.4048494571450009,0.1925153975641498,1.0036665117435422,0.955155163858604,4.033094427555342,-8.290561457962433,-2.4900161273112187,-4.464041440303394,-0.9350146407640266,0.02,0.3,-0.1,0.2,0.3,-2.5138814,-4.4827046,-0.9450942
1753800509.9940054,0.1622874309631948,0.3910105970684995,0.1764536275831883,0.3808496918643243,-0.3401265525384706,1.6247793490601183,1.0027844326344022,-0.4074075877192527,0.2081838886477536,0.9755329432857338,0.5130840498835586,4.727806358957469,-9.30594402185256,-2.473547424049019,-4.460002631851658,-0.9331123260705736,0.02,0.3,-0.1,0.2,0.3,-2.4887493,-4.4810257,-0.94399035
1753800510.095054,0.1618778744494275,0.3907484424541116,0.1759422915774947,0.3806185114157615,-0.3418338370630554,1.625710858453781,1.0067328529103428,-0.4097482859003675,0.2235622544790294,0.9476208662257518,0.1668508724782533,5.279893613112284,-10.131506755182258,-2.4564953794654367,-4.457371586100303,-0.931337497202408,0.02,0.3,-0.1,0.2,0.3,-2.4791913,-4.4749475,-0.9418136
1753800510.1033144,0.1614743378612105,0.3904827052466019,0.175435618578186,0.3803844268935888,-0.3435498424756909,1.626705238103426,1.0105660309591298,-0.4118412990325212,0.2386511159148244,0.9199627317088646,-0.0941298669526482,5.704118068156133,-10.784799185810764,-2.438488561581801,-4.4541680594262445,-0.9294555318197716,0.02,0.3,-0.1,0.2,0.3,-2.4736855,-4.4668355,-0.938972
1753800510.1114492,0.1610768849216488,0.3902133959368202,0.1749337539477621,0.3801474012300828,-0.3452733538659545,1.6277608885601924,1.0142856855433904,-0.4136427336632589,0.2533561096239534,0.89271710022256,-0.2807611206951323,6.016515988186487,-11.284920017861127,-2.4205001422837187,-4.451538179326723,-0.9275864238431692,0.02,0.3,-0.1,0.2,0.3,-2.4634252,-4.4589953,-0.9358222
1753800510.119185,0.160685578393169,0.3899405251566371,0.1744368228569603,0.379907402161114,-0.3470028877470771,1.6288762047799432,1.0178939833087082,-0.4150881314694271,0.2676758927401823,0.8659914636762721,-0.4024707839557672,6.232940423301718,-11.648934178031851,-2.4003791908848453,-4.447427097761339,-0.9253540585649968,0.02,0.3,-0.1,0.2,0.3,-2.4456513,-4.4528294,-0.93256515
1753800510.127178,0.1603004800676082,0.3896641036785235,0.1739449426461971,0.3796643181018979,-0.3487388788678993,1.6300514354153142,1.0213895133280717,-0.4166378689973204,0.2820553524890405,0.8389272046471917,-0.4795552375796585,6.38095775104685,-11.916605244663735,-2.3896046946453704,-4.446172781878691,-0.9239442215238438,0.02,0.3,-0.1,0.2,0.3,-2.4201288,-4.450308,-0.9293655
1753800510.2261896,0.1599216507564561,0.3893841424151263,0.1734582234897967,0.3794182466432756,-0.3504800540297446,1.6312850170582305,1.0247739628896382,-0.4178820388428751,0.2960595942998707,0.8122678947759839,-0.525601580278086,6.478663274555344,-12.115783812633431,-2.371432478983105,-4.443541687630384,-0.9221355764691272,0.02,0.3,-0.1,0.2,0.3,-2.3927498,-4.450581,-0.92657435
1753800510.2341712,0.1595491502812526,0.3891006524188368,0.1729767876798593,0.3791691448738488,-0.3522243133293267,1.6325740752481663,1.0280508458217896,-0.4186222318997069,0.3093739655846513,0.7864519037163682,-0.5375744863698562,6.523572667036238,-12.24219584615438,-2.351449552998866,-4.442176072177675,-0.9204801627064114,0.02,0.3,-0.1,0.2,0.3,-2.3703642,-4.4501743,-0.92450243
1753800510.2418883,0.1591830374641408,0.3888136448813544,0.1725007485594753,0.3789169767573184,-0.3539675588268191,1.6339127725562097,1.0312278667705856,-0.4183789193981813,0.321287353930352,0.7624850277110353,-0.4993239657332502,6.492752140624131,-12.262931924455607,-2.3261783353298404,-4.442947134669418,-0.91904181979726,0.02,0.3,-0.1,0.2,0.3,-2.354802,-4.447386,-0.9229566
1753800510.2495124,0.1588233701185786,0.3885231311332455,0.1720302113686543,0.3786616941282015,-0.3557054337525484,1.635295194537618,1.0343127379591124,-0.4170899821750169,0.3317812755380238,0.7403690852464423,-0.3924601006863513,6.362533624093351,-12.14343119879197,-2.299480610590098,-4.443337123576302,-0.9176566076420796,0.02,0.3,-0.1,0.2,0.3,-2.3395245,-4.4421897,-0.92142624
1753800510.2570317,0.1584702050402093,0.3882291226434953,0.1715653021772679,0.3784032299764168,-0.357436228250672,1.636719026790721,1.0373083583124942,-0.4153906795496808,0.3417197407447518,0.7189488848116621,-0.229825894152463,6.152025017826522,-11.910000615037022,-2.28142884461578,-4.442060210337373,-0.9159523111561112,0.02,0.3,-0.1,0.2,0.3,-2.3123968,-4.438637,-0.9191871
1753800510.3576932,0.1581235979978929,0.3879316310190556,0.1711060986118472,0.3781415591237637,-0.3591593562063562,1.6381842234509,1.0402136962716275,-0.413550709364193,0.3516471984429011,0.6972811101919911,-0.0446722929839109,5.91247852519154,-11.637539429768031,-2.264767683353674,-4.438704141212498,-0.9145261412128464,0.02,0.3,-0.1,0.2,0.3,-2.2787876,-4.4389997,-0.9160164
1753800510.3655653,0.1577836037248992,0.3876306680043863,0.1706527764771967,0.3778766581486122,-0.3608766554411007,1.6396930794174325,1.043025828050582,-0.4121518163386959,0.3621254319678121,0.6749116269490946,0.1203250345883996,5.703299126138003,-11.406415147961935,-2.258823965325628,-4.435337610136905,-0.9122127746804374,0.02,0.3,-0.1,0.2,0.3,-2.273762,-4.436135,-0.9125647
1753800510.3738976,0.1574502759102654,0.387326245480992,0.170205316470544,0.3776085443762628,-0.3625871662993296,1.641244225045288,1.0457461758348283,-0.4105226059749201,0.3722749506853748,0.6528834682191812,0.2502721412749744,5.540964724265019,-11.236178320721212,-2.24394182661474,-4.434313883215374,-0.9106485622257156,0.02,0.3,-0.1,0.2,0.3,-2.2786984,-4.4348135,-0.9098342
1753800510.3824744,0.1571236671903174,0.3870183754669525,0.1697637905060554,0.377337228777633,-0.3650356254277704,1.6439225654937195,1.0467733022265604,-0.5876301908257994,0.6428017076235407,0.2465103340156499,-3.936059675467409,11.661403716735908,-20.0,-4.320177562482302,-3.804461605681666,-0.8901999926494224,0.02,0.3,-0.1,0.2,0.3,-4.3014107,-3.8229825,-0.9087283
1753800510.390978,0.1568038291403582,0.386707070116449,0.1693347400723535,0.3770738566862974,-0.3676095546833312,1.646826903500962,1.0474394494366377,-0.6177430213345809,0.6970411217381981,0.1598753304185153,-10.191540962179754,20.0,-20.0,-2.599202432483556,-4.328114498804975,-0.9031788331026032,0.02,0.3,-0.1,0.2,0.3,-2.488223,-4.3484573,-0.9272666
1753800510.4942417,0.1564908122665237,0.3863923417192835,0.1689125228624753,0.3768091709241949,-0.3700634539125747,1.6496033314064136,1.0482634321000042,-0.5889358150184532,0.666342697308407,0.1977558392080089,-12.77695322852867,20.0,-20.0,-1.8851615473489025,-4.528269128690217,-0.9103954524232098,0.02,0.3,-0.1,0.2,0.3,-1.879556,-4.5493894,-0.9211004
1753800510.5024302,0.1561846659978068,0.3860742027003943,0.168495560929678,0.3765394162827957,-0.3722907459046795,1.652101503293294,1.0494641321385174,-0.5345500781051397,0.5995612528512917,0.2881680092431984,-10.72724441994412,17.840169075566518,-19.422127299507288,-1.563502458602018,-4.613287327759425,-0.9141631759455536,0.02,0.3,-0.1,0.2,0.3,-1.5010173,-4.6165214,-0.93029654
1753800510.5106988,0.1558854386782523,0.3857526656193652,0.1680833830707328,0.3762630361635072,-0.3742634398590474,1.6542854580880837,1.051093346462362,-0.4734465490483111,0.5241491507495282,0.3910114377227188,-4.82740532423044,9.972223592615642,-9.945109267048288,-1.464312865829582,-4.630802515729628,-0.9145632373887111,0.02,0.3,-0.1,0.2,0.3,-1.3680589,-4.6487336,-0.91627485
1753800510.5188718,0.1555931775593227,0.3854277431699295,0.1676760080879024,0.3759795812048706,-0.3760117267193225,1.6562013957411428,1.0530822180566304,-0.4195888464660329,0.4598250367341752,0.477329182624434,1.2813318103492115,1.748028701932295,0.4423600755837391,-1.5360906403639167,-4.603997080197481,-0.9129740870830216,0.02,0.3,-0.1,0.2,0.3,-1.5236518,-4.6099987,-0.9139302
1753800510.5272532,0.1553079287924368,0.3850994481794692,0.1672737353740277,0.3756896131612153,-0.3775858944119649,1.6579227004072403,1.0553229796507275,-0.3778002462341698,0.41311311986339,0.5377827825833725,6.085982687129745,-4.649598931833428,8.465401599874028,-1.6692486342655504,-4.562167989478587,-0.9098352875656864,0.02,0.3,-0.1,0.2,0.3,-1.6292074,-4.5752883,-0.9148141
1753800510.6341023,0.1550297374216814,0.3847677936085083,0.1668768441972216,0.3753939983291058,-0.3790054843008462,1.6594790769255665,1.057771458303551,-0.3407015733315282,0.3735303643982495,0.5876348766775646,9.289371118370887,-8.800018245568015,13.450848156077027,-1.713331454400419,-4.54366491813209,-0.9076874162636956,0.02,0.3,-0.1,0.2,0.3,-1.6833708,-4.549388,-0.9183152
1753800510.6427083,0.154758647376699,0.3844327925502015,0.1664855005952004,0.375093096848627,-0.3803002537114773,1.6609138704269233,1.0603636487288752,-0.3107446585514662,0.3443504403256697,0.6221257020778638,11.135233910465343,-11.058287344024464,15.869833059694823,-1.7890615935944096,-4.518140962929728,-0.9049638951893608,0.02,0.3,-0.1,0.2,0.3,-1.7168798,-4.5353284,-0.9190236
1753800510.650949,0.1544947014657502,0.3840944582298169,0.1660998921584257,0.3747874455033793,-0.3814191358677971,1.6621576165340122,1.0632006023557985,-0.2685317175167523,0.2984990657013535,0.6808688704615538,12.391577997733393,-12.508069266428825,17.26926566114306,-1.6286396990368444,-4.553173814602816,-0.9048539182837226,0.02,0.3,-0.1,0.2,0.3,-1.5131998,-4.6206546,-0.912462
1753800510.659572,0.1542379413689541,0.3837528040042142,0.1657197980099977,0.3744762666050195,-0.3823098208137076,1.6631397121392786,1.0663843638057573,-0.2137643870185211,0.2357029452639116,0.7641027479901541,13.91149423694715,-14.339523033440646,19.35378459015118,-1.4655862018517996,-4.5896113966271965,-0.9050787197442776,0.02,0.3,-0.1,0.2,0.3,-1.4931846,-4.6055818,-0.9100777
1753800510.6679473,0.1539884076317065,0.3834078433613171,0.1653450047069577,0.3741588664152032,-0.3829243953270361,1.663796616309971,1.0700062794817762,-0.1474978831988379,0.1576570009661924,0.8692597622445377,16.06380894136032,-17.055973505500234,20.0,-1.3151861998276668,-4.621334519614171,-0.9050282880589292,0.02,0.3,-0.1,0.2,0.3,-1.3765156,-4.6224833,-0.9084744
1753800510.7626033,0.1537461396582771,0.3830595899195812,0.1649753197173437,0.3738346524874273,-0.3832982906006137,1.6641801404146532,1.0739902388298488,-0.0897348656586348,0.0920457851237127,0.9561502435374164,18.443924935935843,-20.0,20.0,-1.410726045008722,-4.589303499560714,-0.9008225710382344,0.02,0.3,-0.1,0.2,0.3,-1.6711843,-4.547272,-0.89918107
1753800510.770805,0.1535111757055874,0.3827080574274561,0.1646108504383987,0.3735042891101642,-0.3835807473542974,1.664496517138648,1.0780365591655643,-0.067789620884085,0.0759304137587196,0.9711168805716968,19.608898512436355,-20.0,20.0,-1.8465957927642809,-4.475646432190447,-0.8910972233746047,0.02,0.3,-0.1,0.2,0.3,-1.8509635,-4.480848,-0.89689434
1753800510.7795756,0.1532835528771694,0.3823532597628427,0.1642520944532293,0.3731701591440957,-0.3838984503387996,1.6649199948612283,1.0818908784001768,-0.0762487162805301,0.1016346534193068,0.925036616307,18.455639799119265,-18.474472129077803,18.78012831296307,-2.2142102921744278,-4.378827667524348,-0.883079526967686,0.02,0.3,-0.1,0.2,0.3,-1.69298,-4.5112123,-0.89705366
1753800510.7880757,0.1530633071173063,0.3819952109325452,0.1638997506291186,0.3728341927276717,-0.3843560059874551,1.6655936224352028,1.0853439122460142,-0.1098133556773158,0.1616706177538953,0.8287281230009836,14.874275144572168,-13.587465434320569,12.455694361834254,-2.515214687588332,-4.298239196471387,-0.8763169589642327,0.02,0.3,-0.1,0.2,0.3,-2.2129025,-4.356916,-0.89212024
1753800510.796199,0.1528504732053567,0.3816339250717184,0.1635545954856937,0.3724978573587425,-0.3848122229964456,1.6663236188592787,1.0886781028863974,-0.1094920821577078,0.1751991417782236,0.800205753691954,10.759128309623955,-7.960475759353214,4.886586169092753,-2.093198469055998,-4.398682187432554,-0.8787644499434516,0.02,0.3,-0.1,0.2,0.3,-2.2143803,-4.3679423,-0.88487387
1753800510.895608,0.1526450847502627,0.3812694164433093,0.1632159473503682,0.3721589698207639,-0.385268214875518,1.6671118419537572,1.0918895366018837,-0.1094380509773816,0.1891735426748206,0.7707440917167163,7.713104752452685,-3.796654101131253,-0.6889832577773198,-2.0895530975634964,-4.394872871048404,-0.8764881438254077,0.02,0.3,-0.1,0.2,0.3,-2.1036487,-4.407754,-0.88063586
1753800510.904105,0.1524471741852423,0.3809016994374947,0.1628839842102057,0.3718175491393858,-0.3857243864297981,1.6679591324265834,1.0949767813928253,-0.1094811730272265,0.2033497134783094,0.7409387498260014,5.776328886966777,-1.1489006007448397,-4.167373425796479,-2.08389216946464,-4.390597354939826,-0.873566682869625,0.02,0.3,-0.1,0.2,0.3,-2.044751,-4.4212375,-0.87789845
1753800510.9128008,0.1522567727626678,0.3805307885711121,0.162558790953061,0.3714735279187296,-0.3861786468841571,1.668862661399748,1.0979429563404304,-0.1090225090461565,0.2168469535594584,0.7118819874252281,4.635670681887811,0.4128833400875672,-6.153601665435543,-2.0721509392146644,-4.390140258482663,-0.8714017825061453,0.02,0.3,-0.1,0.2,0.3,-2.027358,-4.4164686,-0.8753013
1753800510.921172,0.1520739105491312,0.3801566984870876,0.1622404841321052,0.3711269009007458,-0.3866294269160286,1.6698202830869049,1.1007901843886962,-0.1081872076491657,0.2298292049176302,0.6833347315838108,3.744709127324186,1.635702257630436,-7.722927068050302,-2.0622399493543293,-4.389530593605156,-0.869252306208182,0.02,0.3,-0.1,0.2,0.3,-2.0225267,-4.4067564,-0.8724153
1753800510.929592,0.1518986164206957,0.3797794439538571,0.1619291726198604,0.3707776725511285,-0.3870752617107631,1.6708300667810805,1.1035206663083694,-0.1070003507362722,0.2423480866022103,0.6553156607215634,3.064813189008003,2.570423827017896,-8.933526965732339,-2.052522170626056,-4.388278365652391,-0.8668433941031722,0.02,0.3,-0.1,0.2,0.3,-2.0180373,-4.399532,-0.86946964
1753800511.0305722,0.1517309180583363,0.3793990398647835,0.1616249360398046,0.370425813788528,-0.3875144066418045,1.6718897014866203,1.106137193063273,-0.1053947834499322,0.2543123293295807,0.6279664211768979,2.558662216243347,3.267701541286001,-9.845705161702044,-2.042201121313816,-4.387339486830855,-0.8644544352896112,0.02,0.3,-0.1,0.2,0.3,-2.0109873,-4.396027,-0.8666053
1753800511.0395606,0.1515708419435684,0.379015501237569,0.1613278446132831,0.3700712919606667,-0.3879464364439474,1.6729984753504614,1.108640545058708,-0.1036871525142977,0.2661057273218933,0.6008044789043687,2.1842215204314788,3.784155699757621,-10.52804813830124,-2.036522157372742,-4.385772263961931,-0.8618486882149157,0.02,0.3,-0.1,0.2,0.3,-2.0030227,-4.3943396,-0.8639333
1753800511.047974,0.1514184133542663,0.3786288432136618,0.1610379335735645,0.369714090078299,-0.3883705986173208,1.6741556059536618,1.1110312076567157,-0.1017989216096294,0.2777113447680711,0.5737590235218205,1.9069453695669465,4.167790111909468,-11.041969961052146,-2.028904186770768,-4.383839154813422,-0.8595097458117356,0.02,0.3,-0.1,0.2,0.3,-1.9934022,-4.394149,-0.8613843
1753800511.056286,0.1512736563606711,0.3782390810576588,0.160755294768888,0.3693541763790321,-0.3887855946317373,1.6753593857695668,1.11331097519675,-0.0995990434599651,0.2889071558172092,0.5471442096082381,1.706579633704866,4.447346247313238,-11.42604538561612,-2.020534898797684,-4.383090504418843,-0.8572829776290034,0.02,0.3,-0.1,0.2,0.3,-1.9793584,-4.3958864,-0.8588757
1753800511.0647404,0.1511365938215903,0.3778462301567023,0.1604800009333695,0.3689915372788124,-0.3891912234206739,1.6766093515049392,1.1154796753548712,-0.0973509093447774,0.299991776489351,0.5204880379490994,1.5642236520559638,4.647012686366985,-11.713751965652705,-2.0163838978901976,-4.382576828487739,-0.8551886945347573,0.02,0.3,-0.1,0.2,0.3,-1.951827,-4.401543,-0.8566024
1753800511.1637435,0.1510072473807876,0.3774503060198734,0.160212124591337,0.3686262105082273,-0.3895794206268131,1.6778949057210124,1.1175519257964586,-0.0931673294734077,0.3085330118575771,0.4973401059809343,1.5081735131523628,4.729613016661566,-11.849475118003674,-1.9880917081841056,-4.386691182231758,-0.8533656816480719,0.02,0.3,-0.1,0.2,0.3,-1.8908995,-4.416172,-0.8549269
1753800511.1724403,0.1508856374635655,0.3770513242775789,0.1599517021564414,0.3682580964246092,-0.3900795426526517,1.6793883021686224,1.1192756849584915,-0.1200292862012818,0.3584151474264084,0.4137021988879091,0.7928144809826974,5.688726768958403,-13.2793413022718,-2.364899526247952,-4.292052849906934,-0.8462744103901464,0.02,0.3,-0.1,0.2,0.3,-1.8569232,-4.4243927,-0.85453904
1753800511.18101,0.1507717832735397,0.3766493006809349,0.1596998377523132,0.367888791696672,-0.3905908736014985,1.6809547332424415,1.1208471023084778,-0.1227194277232236,0.375943457716626,0.3771401639967306,-0.2699587276487871,7.105422839512997,-15.387350961700257,-2.065051389521488,-4.364218530172412,-0.8479920976169341,0.02,0.3,-0.1,0.2,0.3,-2.0014362,-4.3883753,-0.85632074
1753800511.1897397,0.1506657027896066,0.3762442511011448,0.1594558119627422,0.3675170271749414,-0.3910323939859025,1.6824868088174538,1.1224227238442424,-0.1059648922569623,0.3676981380029316,0.3781491685834881,-0.5051872287312047,7.41713584700023,-15.886982869211035,-1.822017814996624,-4.420637741645726,-0.8487408764254857,0.02,0.3,-0.1,0.2,0.3,-1.9216775,-4.4109173,-0.8550109
1753800511.1985612,0.1505674127631043,0.3758361915288721,0.1592190009175046,0.3671417664947233,-0.3913464565466515,1.6839089335411648,1.1241125390871414,-0.0753750145797462,0.3413099336906049,0.4055556582957407,0.5462636807925372,6.022825338202543,-13.896650099656084,-1.6477263994321525,-4.459970303962554,-0.8487183700705635,0.02,0.3,-0.1,0.2,0.3,-1.6771626,-4.474833,-0.85089433
1753800511.296567,0.1504769287151674,0.3754251380736104,0.1589889671709873,0.3667623079541788,-0.3915089453364017,1.685190383847307,1.125961309441291,-0.0389973095400577,0.3075480734741305,0.4437048849959363,2.781138614893302,3.0704523204768366,-9.629633317891042,-1.5723601180336269,-4.474398152527622,-0.847121081047031,0.02,0.3,-0.1,0.2,0.3,-1.6887677,-4.4639254,-0.8477433
1753800511.3051865,0.1503942649342761,0.3750111069630459,0.1587655070173582,0.3663783532824707,-0.3915720998303381,1.686400331793032,1.127867435674704,-0.0151570785447419,0.2903875069739948,0.4574702960191308,5.04188530707933,0.0968205525249601,-5.330100820413971,-1.725630962598345,-4.437339583799336,-0.8429618652414467,0.02,0.3,-0.1,0.2,0.3,-1.7975665,-4.425524,-0.8464283
1753800511.3137186,0.1503194344739996,0.3745941145424182,0.1585490309550968,0.3659906594619784,-0.3915745244597938,1.6875897928272507,1.129755478175304,-0.0005819110693513,0.2854706482124818,0.4531302001439701,6.481704033983325,-1.7852716592045332,-2.628228843148308,-1.8384463782154752,-4.409610867296089,-0.8394027111736221,0.02,0.3,-0.1,0.2,0.3,-1.8644282,-4.400888,-0.84465945
1753800511.3216865,0.150252449150935,0.3741741772738739,0.1583399017960993,0.3655997791263753,-0.3915654910174316,1.688823295291079,1.131530240837108,0.0021680261669269,0.2960405913188438,0.4259430388329698,6.784765754335243,-2.1685415268263544,-2.123157812529422,-1.983550519649521,-4.374794606562525,-0.8354165546994686,0.02,0.3,-0.1,0.2,0.3,-1.8866785,-4.3914685,-0.8427775
1753800511.3299046,0.1501933195428413,0.3737513117358174,0.158138585498081,0.3652063744246531,-0.3915838004745949,1.6901512178882612,1.1331177953860188,-0.0043942697191976,0.3187014233236225,0.3810130917385708,6.005202034060389,-1.1343867097953029,-3.694560156210648,-2.0979832389406456,-4.346963811595312,-0.8314092913491171,0.02,0.3,-0.1,0.2,0.3,-2.1235695,-4.3272295,-0.84355986
1753800511.4305751,0.1501420549869693,0.373325534622256,0.1579454268528257,0.3648109104529491,-0.3916518589050317,1.6916024706657995,1.1344751466034595,-0.0163340233048304,0.3483006666091735,0.3257642921858245,4.522265392668006,0.813338752603545,-6.6036704315987285,-2.163313786733252,-4.3306275267442045,-0.828350732046376,0.02,0.3,-0.1,0.2,0.3,-2.1921685,-4.308853,-0.8413452
1753800511.438386,0.1500986635785864,0.3728968627421411,0.1577606967497573,0.3644136397224026,-0.3917771142798801,1.6931866408316705,1.1355871002343862,-0.0300612899636289,0.380200839808984,0.2668688714223602,2.7340309308088084,3.1525472025491577,-10.089947893498572,-2.18339960263085,-4.324471684568278,-0.8262130011297746,0.02,0.3,-0.1,0.2,0.3,-2.1359146,-4.327152,-0.8382627
1753800511.447045,0.1500631521696991,0.3724653130187046,0.1575846006597611,0.3640146232799356,-0.3919502439430665,1.6948912724596246,1.1364712717453824,-0.0415511191647216,0.4091115907090139,0.2122011626390695,1.0519856074153922,5.34661384174379,-13.369349027481244,-2.1544190652372275,-4.330237123047002,-0.8244237176578174,0.02,0.3,-0.1,0.2,0.3,-2.05455,-4.353101,-0.83402646
1753800511.455153,0.1500355263679705,0.3720309024887906,0.1574171264067273,0.3636137086602246,-0.3921446521184735,1.6966812165318064,1.1371784309401656,-0.0466579620976962,0.4295865773236328,0.1697182067479425,-0.1673410385371732,6.930272860769028,-15.75958337252661,-2.0755238023395948,-4.349522753440995,-0.8234650982274734,0.02,0.3,-0.1,0.2,0.3,-1.9772545,-4.376816,-0.82983506
1753800511.46291,0.150015790535835,0.3715936483021831,0.1572580730706303,0.363210598129209,-0.3922539195358694,1.6984184553804906,1.1379100244874076,-0.0262241801750029,0.4169373236842034,0.175582451338084,-0.2677915110039915,7.054395819393639,-16.015081299899013,-1.7594366024821992,-4.423746210260319,-0.8253805689028499,0.02,0.3,-0.1,0.2,0.3,-1.8890083,-4.40057,-0.8258645
1753800511.563672,0.1500039477898092,0.3711535677209285,0.1571065203961256,0.3628040562117705,-0.3923380770564835,1.7001805100884906,1.1385530195158748,-0.0201978049473783,0.4228931299200012,0.1543188068321396,0.4055737650722549,6.169411563705815,-14.78688314960332,-1.93760717836492,-4.381775061639259,-0.8206718923867985,0.02,0.3,-0.1,0.2,0.3,-1.8442359,-4.409616,-0.8232327
1753800511.572949,0.15,0.3707106781186547,0.1569629192415104,0.3623947778495313,-0.3923641985850252,1.7019248052766964,1.139169138886814,-0.0062691668500076,0.4186308451693881,0.1478686490253931,1.3048244855381297,4.989761193467778,-13.118855109788695,-1.8400311350522336,-4.405088586718587,-0.8200021556204532,0.02,0.3,-0.1,0.2,0.3,-1.7953441,-4.4202704,-0.82112527
1753800511.58163,0.1500039477898092,0.3702649969798849,0.1568269968863873,0.3619824119499814,-0.3923130078816943,1.7036263368143192,1.1397944158393525,0.012285768799403,0.4083675690294677,0.1500664686092775,2.3804474040570147,3.583196382380056,-11.114498631921574,-1.7839352137220126,-4.419627710141082,-0.8188578269452714,0.02,0.3,-0.1,0.2,0.3,-1.758285,-4.430069,-0.8198225
1753800511.5900104,0.150015790535835,0.3698165418993472,0.1566985769158286,0.3615668034457208,-0.392169893187645,1.705266858950028,1.1404552293563124,0.0343475265718244,0.3937253125701082,0.1585952440703934,3.508421610230904,2.1148398506571384,-9.017754310883888,-1.7399193521777474,-4.428565803443733,-0.817265380566388,0.02,0.3,-0.1,0.2,0.3,-1.7321647,-4.439235,-0.8191414
1753800511.5982697,0.1500355263679705,0.3693653305812804,0.1565775504501346,0.3611477705987161,-0.3919310434808384,1.706841255766861,1.1411586189475982,0.0573239296335869,0.3778552360399426,0.168813501908575,4.764856354228499,0.4864027668993484,-6.686583567658312,-1.7309889431965897,-4.432651886025415,-0.8153998199904401,0.02,0.3,-0.1,0.2,0.3,-1.720125,-4.444379,-0.81887573
1753800511.6991775,0.1500631521696991,0.3689113808387348,0.1564638495831131,0.360725359236824,-0.391586567120575,1.7083370107105842,1.14192240926657,0.0826743264632247,0.358981186493543,0.1833096765532738,5.999586531848598,-1.1097511993837446,-4.402436934405947,-1.7032530412778553,-4.439742722367815,-0.8136756668547618,0.02,0.3,-0.1,0.2,0.3,-1.7138228,-4.4469852,-0.8186431
1753800511.7077022,0.1500986635785864,0.3684547105928689,0.1563573831523153,0.360299509818652,-0.3911271706625748,1.709742566443355,1.142762871979787,0.1102551499200661,0.3373333758649785,0.2017110511721652,7.190398041061391,-2.643403112499213,-2.2108707758124573,-1.6772942004140845,-4.446010296429895,-0.811932958332198,0.02,0.3,-0.1,0.2,0.3,-1.7098583,-4.4479885,-0.8182969
1753800511.7162256,0.1501420549869693,0.3679953378722418,0.1562580864123683,0.3598701675037663,-0.3905499559272236,1.711054924730281,1.1436846700065808,0.1385315364842722,0.3149659888623025,0.2212315264304113,8.307987715488805,-4.074279068167495,-0.1672284426410186,-1.6695378280263091,-4.445470216364239,-0.8091455375874759,0.02,0.3,-0.1,0.2,0.3,-1.7060083,-4.448497,-0.81766236
1753800511.7250953,0.1501933195428413,0.3675332808121024,0.1561658924668808,0.3594372451962286,-0.3898406351794371,1.7122555194872195,1.144714252833104,0.1702369794687572,0.2881427416651712,0.2470998783655799,9.391415245249949,-5.454443169003829,1.8053818882178685,-1.632016616690553,-4.457260405050831,-0.8075293679216122,0.02,0.3,-0.1,0.2,0.3,-1.6964979,-4.4501033,-0.8169378
1753800511.7338152,0.150252449150935,0.3670685576536719,0.1560806427097667,0.3590007279773832,-0.389016321920661,1.713366581706674,1.1458186047086698,0.1978351821062602,0.2666549326691116,0.2650444501358132,10.326488165964534,-6.641489865812218,3.4955438043505667,-1.6856488925656783,-4.4442118540112014,-0.8043075913820551,0.02,0.3,-0.1,0.2,0.3,-1.6873701,-4.4507937,-0.8160852
1753800511.8331225,0.1503194344739996,0.3666011867434251,0.1560024960268773,0.3585608361482744,-0.3880436835448939,1.7143459436884665,1.1470590731794736,0.2334332101841208,0.2350468756301029,0.2977124329928976,11.209325771988505,-7.75751296220739,5.081557365321878,-1.5907320728024852,-4.466622793100702,-0.8028564459878821,0.02,0.3,-0.1,0.2,0.3,-1.6542742,-4.457077,-0.8153471
1753800511.8422854,0.1503942649342761,0.3661311865323651,0.1559311239041811,0.3581172583439549,-0.3869008938717437,1.7151661353516354,1.148475503990994,0.274269521556034,0.1968459991606081,0.339943394764854,12.271883280433595,-9.098307840709108,6.995926303347117,-1.5306824994918429,-4.480942516142114,-0.8008180989008422,0.02,0.3,-0.1,0.2,0.3,-1.5861666,-4.470842,-0.8151092
1753800511.851015,0.1504769287151674,0.3656585755752956,0.1558662847929495,0.3576698319455997,-0.3855935007854819,1.715834774745494,1.1500564421747748,0.3137743407028379,0.1604734545260616,0.3794251641073711,13.421260598777735,-10.54326597358714,9.063984580501362,-1.551451355797819,-4.474811217438502,-0.7974516274198654,0.02,0.3,-0.1,0.2,0.3,-1.5484776,-4.4770765,-0.8098434
1753800511.8599591,0.1505674127631043,0.3651833725300878,0.1558080025049341,0.3572186524115693,-0.3841354339251168,1.716369740998032,1.1517752272985882,0.3499360464876246,0.1283919006090849,0.4125084297152259,14.434310717002257,-11.810099399456806,10.872088612132185,-1.5986983958000307,-4.463718795934014,-0.7937302669244646,0.02,0.3,-0.1,0.2,0.3,-1.5742953,-4.468439,-0.80528784
1753800511.868157,0.1506657027896066,0.3647055961569444,0.1557563749933376,0.3567639420543189,-0.3825212192889353,1.716764574058415,1.1536406353365647,0.3874115126835539,0.0947599344919402,0.4476979291143519,15.186832566542684,-12.741534236251132,12.187550442651432,-1.5881562934267506,-4.465232994778537,-0.7906931281215654,0.02,0.3,-0.1,0.2,0.3,-1.5957885,-4.461457,-0.80130196
1753800511.9704075,0.1507717832735397,0.3642252653176584,0.1557113553073314,0.3563056981363269,-0.3807251648356275,1.7169870145468755,1.1556991853325058,0.4310530687938604,0.0533857172305293,0.4940519990258564,15.887918951531484,-13.603387213113974,13.397139617064513,-1.5191366781050162,-4.481418215890493,-0.7883086755247211,0.02,0.3,-0.1,0.2,0.3,-1.5159671,-4.484559,-0.80111897
1753800511.9789522,0.1508856374635655,0.363742398974869,0.155672673344505,0.3558437555091229,-0.3786832730747709,1.7169578689087728,1.1580664673088228,0.4900540226055977,-0.0069949531446411,0.5681476743160528,17.03080573079766,-15.013463514721256,15.406301590303766,-1.333006479139586,-4.519237606573352,-0.7867850155724309,0.02,0.3,-0.1,0.2,0.3,-1.376162,-4.5337257,-0.8065697
1753800511.9877174,0.1510072473807876,0.3632570161913124,0.1556397210001981,0.355377427527541,-0.3763925215532724,1.7166740546625276,1.160746301653815,0.54978036515964,-0.068115419098806,0.643160242798138,18.67921408415619,-17.047930935862702,18.327558896925748,-1.331370892107935,-4.517307293859842,-0.7829108090492778,0.02,0.3,-0.1,0.2,0.3,-1.4605496,-4.5107083,-0.80407226
1753800511.995915,0.1511365938215903,0.36276913612907,0.1556124186925502,0.3549067960877923,-0.3739460157687198,1.7162520498620957,1.1635674519690258,0.5871613882926286,-0.10128115210372,0.6770760756505644,19.93038571926758,-18.58028581129906,20.0,-1.619969569853965,-4.4526173784562735,-0.7751632648054787,0.02,0.3,-0.1,0.2,0.3,-1.6658492,-4.451261,-0.8000926
1753800512.0043683,0.1512736563606711,0.3622787780488112,0.1555915737376601,0.3544330025749169,-0.3713423252540909,1.7156907054216952,1.1665318413076222,0.6248857235109159,-0.1347226656960474,0.7114534412631661,20.0,-19.052250590834014,20.0,-1.6240758456250193,-4.4473995447178325,-0.7700602236826597,0.02,0.3,-0.1,0.2,0.3,-1.6948161,-4.4398413,-0.79410136
1753800512.1075764,0.1514184133542663,0.3617859613090334,0.1555771039068158,0.3539559929120278,-0.3685445470766136,1.7149440659570163,1.169705621133464,0.6714667625945465,-0.1791934715229072,0.7617071582020494,20.0,-19.042417485403547,20.0,-1.5245535522880602,-4.468709802051883,-0.7671136311209095,0.02,0.3,-0.1,0.2,0.3,-1.7073604,-4.432635,-0.7897632
1753800512.116488,0.1515708419435684,0.3612907053652976,0.1555686460257511,0.3534755159671819,-0.3655964768519289,1.7140674128500897,1.1730078496763268,0.7075368539243433,-0.2103967456625177,0.792534850287071,19.89655592176058,-18.784346699715268,19.78104518877188,-1.6650215003424274,-4.432845621590654,-0.7600624651617442,0.02,0.3,-0.1,0.2,0.3,-1.713897,-4.4267206,-0.7854217
1753800512.1251645,0.1517309180583363,0.3607930297694605,0.1555665804717962,0.3529919967049397,-0.3624922794538628,1.7130536556202716,1.1764482204344406,0.7450073755358626,-0.2433017351562905,0.8256889819473099,19.6856975045842,-18.409112479601305,19.34894981980844,-1.659231999677828,-4.431925239588197,-0.7552192273287663,0.02,0.3,-0.1,0.2,0.3,-1.7146327,-4.4226785,-0.78061056
1753800512.1336164,0.1518986164206957,0.3602929541689024,0.1555708323334918,0.3525054379338621,-0.3592329623648713,1.7119042558517212,1.180024030450478,0.782236101357969,-0.2758559444520607,0.8581944038489348,19.41564086233129,-17.975698877828318,18.79574793456146,-1.6743343860823108,-4.425880983285693,-0.7498441868883788,0.02,0.3,-0.1,0.2,0.3,-1.7109096,-4.4199605,-0.77545595
1753800512.142177,0.1520739105491312,0.3597904983057519,0.1555813869109196,0.3520158973844586,-0.3558198909164989,1.7106211645810354,1.1837318888981807,0.8191371476093753,-0.3079419049645725,0.8898860274486953,19.090505544128646,-17.486732726736538,18.133023967367905,-1.6908944449811545,-4.419072982956158,-0.744247450895288,0.02,0.3,-0.1,0.2,0.3,-1.7039665,-4.418071,-0.7699056
1753800512.243606,0.1522567727626678,0.3592856820161059,0.1555982365914616,0.3515234236948069,-0.3522393918397926,1.7091876159399872,1.1875952837476786,0.8593197784095135,-0.3440516738515397,0.927214763879486,18.908360918625647,-17.187276110150624,17.721187003386547,-1.663186975165179,-4.422483498921833,-0.7393797398018249,0.02,0.3,-0.1,0.2,0.3,-1.6974833,-4.4156027,-0.7641481
1753800512.252071,0.1524471741852423,0.3587785252292473,0.1556212517751215,0.3510279667328878,-0.3484749054226148,1.7075836959889756,1.1916431691198015,0.9034767401226776,-0.3849407882428085,0.9714924893094716,18.96540034472046,-17.191824877291296,17.734113553751108,-1.626004400447569,-4.425007442618445,-0.7337472237487518,0.02,0.3,-0.1,0.2,0.3,-1.6921134,-4.4118676,-0.75823903
1753800512.2606685,0.1526450847502628,0.3582690479668576,0.1556502076055356,0.3505293651286792,-0.3445072323665561,1.7057864400997322,1.19590838599467,0.9522415334540676,-0.4313414134184148,1.0236520499684227,19.339521631623832,-17.59074900357062,18.3093075718313,-1.5808927745564292,-4.428670706837668,-0.7283370210392508,0.02,0.3,-0.1,0.2,0.3,-1.6851258,-4.4067836,-0.7523388
1753800512.2692337,0.1528504732053568,0.3577572703422267,0.1556848912475166,0.3500274638525676,-0.3403064611041818,1.7037596145486862,1.200442748245811,1.0081851029698348,-0.4864381322510753,1.0882469402739432,20.0,-18.47999893319624,19.586077856008917,-1.5044288167948534,-4.439154822371414,-0.7233299748232751,0.02,0.3,-0.1,0.2,0.3,-1.6557715,-4.4051027,-0.7473686
1753800512.2778797,0.1530633071173063,0.357243212559459,0.155724989406783,0.3495220824668102,-0.3358514098823089,1.7014778828013923,1.2052819731811262,1.069212293249503,-0.5476156193505376,1.161413984475569,20.0,-19.84002509182964,20.0,-1.4544821780968815,-4.443026273163252,-0.7177410539449537,0.02,0.3,-0.1,0.2,0.3,-1.5719683,-4.4171576,-0.7379605
1753800512.3795283,0.1532835528771694,0.3567268949126756,0.1557702706242871,0.3490131443773849,-0.3311078372788902,1.6989004379586643,1.210484272910339,1.1384574248204666,-0.6185867622546886,1.2485519350110876,20.0,-20.0,20.0,-1.3639814290351484,-4.45235049330966,-0.7122529433521793,0.02,0.3,-0.1,0.2,0.3,-1.4831092,-4.427885,-0.7332258
1753800512.3882985,0.1535111757055874,0.356208337785213,0.1558203731428452,0.3485004372731347,-0.3260415296949182,1.695986868144289,1.216107424047457,1.2159138201532929,-0.6992567554501861,1.349556272908305,20.0,-20.0,20.0,-1.2731123475176025,-4.459123339080166,-0.7061452118015229,0.02,0.3,-0.1,0.2,0.3,-1.3918214,-4.4375005,-0.72749174
1753800512.3971372,0.1537461396582771,0.3556875616488188,0.1558748969122518,0.3479837529521758,-0.3205959860293682,1.6926706848962647,1.22224627502569,1.3069304797320156,-0.7958839795257401,1.4733242347759286,20.0,-20.0,20.0,-1.1116078468484003,-4.47516319953546,-0.7008940834099393,0.02,0.3,-0.1,0.2,0.3,-1.2434065,-4.4582834,-0.7232097
1753800512.4054909,0.1539884076317065,0.355164587062843,0.1559333005289461,0.3474626854076864,-0.314717377964578,1.6888895248011573,1.2289902928894474,1.410865935549638,-0.9074784228257866,1.6185642873017854,20.0,-20.0,20.0,-0.956054419545428,-4.48407298253955,-0.6943156547074312,0.02,0.3,-0.1,0.2,0.3,-0.9531846,-4.5131,-0.72628707
1753800512.4139075,0.1542379413689541,0.3546394346734269,0.1559949800625622,0.3469368129250726,-0.3083480848198245,1.6845766375151532,1.2364325689126956,1.5286303547408164,-1.0350929486409997,1.786146245579558,20.0,-20.0,20.0,-0.7888877433511396,-4.494940248067237,-0.688973185001873,0.02,0.3,-0.1,0.2,0.3,-0.36587715,-4.6780334,-0.7538525
1753800512.5193083,0.1544947014657502,0.3541121252126876,0.1560594625714083,0.3464059224072244,-0.3014593614528593,1.6797004920806076,1.24461761612541,1.6532936080716507,-1.1702749042909653,1.9644113310514624,20.0,-20.0,20.0,-0.7099662078894629,-4.482853305659394,-0.6796774965275921,0.02,0.3,-0.1,0.2,0.3,-0.76900315,-4.5752454,-0.7452084
1753800512.528032,0.154758647376699,0.3535826794978996,0.1561262624622478,0.3458699639553392,-0.2945959556705666,1.674901722842419,1.2526212618265804,1.6472173877502572,-1.1517046171652785,1.9208749682808863,20.0,-20.0,20.0,-2.464015008253351,-4.209513839036683,-0.6430901720000558,0.02,0.3,-0.1,0.2,0.3,-0.87740827,-4.553347,-0.7510296
1753800512.5366886,0.1550297374216814,0.3530511184306734,0.1561993656661433,0.3453350992457883,-0.2880144305391771,1.6704852483691874,1.2600040937923704,1.579566031533482,-1.0599538735755951,1.771879671789614,18.562714629461382,-17.905193062704612,17.146149375127706,-3.297391730664385,-4.070653051488777,-0.6209522075920839,0.02,0.3,-0.1,0.2,0.3,-2.3045568,-4.37499,-0.67754745
1753800512.5457425,0.1553079287924368,0.3525174629961295,0.1562813864888,0.3448031518911345,-0.2818341639767957,1.6665943808960966,1.26655862919576,1.4832639749715426,-0.9338081935417916,1.5730884968135066,11.453603274535215,-9.170127936906908,4.676408946158801,-3.697676138142907,-4.00288635192608,-0.6070606671744561,0.02,0.3,-0.1,0.2,0.3,-3.4574213,-4.076451,-0.6271025
1753800512.5546706,0.1555931775593227,0.3519817342620709,0.1563741829101688,0.344274289542055,-0.2760895284735351,1.663270971139257,1.2722251075293225,1.378712520782552,-0.7976183416414804,1.3599548000549873,1.49022648980326,2.8985598689595022,-12.628887333454731,-3.83269894656358,-3.979834868670015,-0.596821229761294,0.02,0.3,-0.1,0.2,0.3,-3.7469733,-3.9940984,-0.6082525
1753800512.661499,0.1558854386782523,0.3514439533781506,0.156478668583279,0.343747868661414,-0.270772009533442,1.6605052750326064,1.2770171340004253,1.2762045456223456,-0.6637670655961472,1.1500863530646388,-8.154928194893849,14.562618432554288,-20.0,-3.83412413860014,-3.981821882269734,-0.5898179313477114,0.02,0.3,-0.1,0.2,0.3,-3.7570395,-4.0169024,-0.6041287
1753800512.6707327,0.1561846659978068,0.3509041415750371,0.1565953196045448,0.3432230873208006,-0.2658508850129538,1.658260697633327,1.280986801021891,1.1810698849171677,-0.5386985758270653,0.95272008515177,-16.162321097885822,20.0,-20.0,-3.765852324244911,-3.996446640156049,-0.5844415429510497,0.02,0.3,-0.1,0.2,0.3,-3.8293362,-4.019528,-0.5846963
1753800512.6794124,0.1564908122665237,0.350362320163576,0.1567242718127832,0.3426991455128053,-0.2614649340380154,1.656703984950719,1.283890886662144,1.0526282339851916,-0.3736110438259125,0.6969805536606947,-20.0,20.0,-20.0,-4.221891665730757,-3.925121855988911,-0.5738996343172558,0.02,0.3,-0.1,0.2,0.3,-4.0400286,-3.9853785,-0.55908734
1753800512.6881766,0.1568038291403582,0.3498185105339491,0.1568677545213676,0.3421763142829314,-0.2575145622318737,1.655715756412199,1.285901464656254,0.9480892334740132,-0.2371748492448085,0.4825387185863968,-20.0,20.0,-20.0,-3.9387982399487713,-3.977497464857717,-0.5723124981341263,0.02,0.3,-0.1,0.2,0.3,-3.783599,-4.008692,-0.58570343
1753800512.6970332,0.1571236671903174,0.3492727341548291,0.1570248994033964,0.3416535381677691,-0.2539361843512537,1.6552194111963965,1.287128078473727,0.8588106913487941,-0.1191228517926343,0.2943873161934747,-20.0,20.0,-20.0,-3.766258543534924,-4.012476399871591,-0.570274913947122,0.02,0.3,-0.1,0.2,0.3,-3.7014573,-4.0376997,-0.5795047
1753800512.805996,0.1574502759102654,0.3487250125725332,0.1571951887913464,0.3411301993571055,-0.2506435283503928,1.6551104617123935,1.2877205734753867,0.790237440206619,-0.026147876160663,0.1421988003984158,-20.0,20.0,-20.0,-3.5237827214726067,-4.060969372259611,-0.5695925976833327,0.02,0.3,-0.1,0.2,0.3,-3.4511218,-4.0853825,-0.5693544
1753800512.8151855,0.1577836037248992,0.3481753674101715,0.1573776950818728,0.3406057666165545,-0.2475379226674372,1.6552688889514922,1.287851799247284,0.7453453639093394,0.0380225373836723,0.0314941852553513,-20.0,20.0,-20.0,-3.2433551517969823,-4.116982518674199,-0.5694085381775275,0.02,0.3,-0.1,0.2,0.3,-3.1543443,-4.139037,-0.5738205
1753800512.8241956,0.1581235979978929,0.3476238203667939,0.1575711763094135,0.3400798006591601,-0.2445325531010377,1.6555886589275226,1.2876745170492223,0.7212886959358702,0.0767447942472901,-0.0425477275347824,-20.0,20.0,-20.0,-2.998961743119249,-4.167095321330731,-0.5690203340694351,0.02,0.3,-0.1,0.2,0.3,-2.8577425,-4.201384,-0.5649266
1753800512.83303,0.1584702050402094,0.3470703932165332,0.1577744738219959,0.3395520105881854,-0.241515179378427,1.6559328150036976,1.2873866413858122,0.7241696934265704,0.0825974582820047,-0.069090159218452,-18.69718495210889,20.0,-20.0,-2.676065810320833,-4.23080398793326,-0.5695381288172641,0.02,0.3,-0.1,0.2,0.3,-2.7935963,-4.213023,-0.57115644
1753800512.8422542,0.1588233701185786,0.3465151078077458,0.1579860234827462,0.3390220604613196,-0.2384981520872889,1.656314822332719,1.286968061612914,0.7240865498731409,0.09168175896522,-0.1004591454955642,-15.972092444234834,18.128098248905744,-20.0,-2.734808158369801,-4.2269371344258415,-0.565799697907501,0.02,0.3,-0.1,0.2,0.3,-2.750002,-4.2111654,-0.57459986
1753800512.9485402,0.1591830374641408,0.3459579860621488,0.1582059321833678,0.3384901230402332,-0.2354474215350915,1.6566922849417625,1.2864797331446276,0.7321753325273982,0.0905910261703678,-0.1171988323887148,-12.80607241551398,15.40846685584046,-19.05655730530133,-2.650747540604,-4.247580776760528,-0.5637205125469194,0.02,0.3,-0.1,0.2,0.3,-2.6567974,-4.216437,-0.5749861
1753800512.9577372,0.1595491502812526,0.3453990499739546,0.15843368430154,0.337956169236615,-0.2321508693009893,1.6568075598500749,1.286294733420033,0.7911725361845034,0.0276659779950025,-0.0443999339027035,-8.505152344481301,11.065561132662664,-15.172065859584942,-2.0203656599788764,-4.364260465783152,-0.5678673888026446,0.02,0.3,-0.1,0.2,0.3,-2.0560172,-4.3841624,-0.57611084
1753800512.9664743,0.1599216507564561,0.3448383216090032,0.1586663443263226,0.3374195249041885,-0.2286706072225261,1.6567341249934813,1.286306279430059,0.8352628988311743,-0.0176243655824869,0.0027710424062691,-3.4289207793481307,5.583012947079365,-9.16296923151716,-2.230052441838537,-4.330671731804666,-0.5620291847993464,0.02,0.3,-0.1,0.2,0.3,-2.0861714,-4.3633275,-0.57890904
1753800512.9754107,0.1603004800676082,0.3442758231038901,0.1589046584007958,0.3368805643035829,-0.2250557338966073,1.656529759498596,1.286430498161282,0.867569598220511,-0.0490477187724616,0.0298124954935111,1.1324754967673498,0.5585075625674834,-3.4369280430504383,-2.401216529787274,-4.304054838034567,-0.5563007035628513,0.02,0.3,-0.1,0.2,0.3,-2.3644423,-4.3216496,-0.56662273
1753800512.9838884,0.160685578393169,0.3437115766650933,0.1591491834961499,0.3363395931307605,-0.2214346733405596,1.6563490082893944,1.2864431178676905,0.8690545334514551,-0.043380290208385,0.0030287295379795,3.8707951683780255,-2.390485203211395,-0.4131702929849163,-2.814003713393017,-4.23220722874878,-0.5477637644252351,0.02,0.3,-0.1,0.2,0.3,-2.6002865,-4.272337,-0.5381391
1753800513.0935447,0.1610768849216488,0.3431456045680958,0.1594016294940587,0.3357970790329133,-0.2178015267209554,1.656184089689294,1.28635565155413,0.8719551887050105,-0.0395804640240498,-0.0209919152545148,4.52415466620587,-2.9148095053275807,-0.6562006940054556,-2.816846474686042,-4.234127627712003,-0.5436851666102026,0.02,0.3,-0.1,0.2,0.3,-2.7164073,-4.2513895,-0.5417992
1753800513.102418,0.1614743378612105,0.3425779291565072,0.1596618396219199,0.3352529798029784,-0.2141539026277826,1.656031636499261,1.2861733550668517,0.8754297823614848,-0.03658876560789,-0.043751156946787,4.230456408062773,-2.3643150523800207,-2.254238514234551,-2.8299276053971285,-4.233446122863532,-0.5394602690583489,0.02,0.3,-0.1,0.2,0.3,-2.792037,-4.2364655,-0.5453497
1753800513.111277,0.1618778744494276,0.3420085728411806,0.159929701713513,0.3347072398893556,-0.2104953456429677,1.655895195821433,1.2858908943307137,0.878053676355566,-0.0327457626787972,-0.067790576673128,3.659858902797896,-1.5323138574310733,-4.09757025222787,-2.862185388455662,-4.230983405068113,-0.53549586462077,0.02,0.3,-0.1,0.2,0.3,-2.829814,-4.2345123,-0.5428345
1753800513.1203954,0.1622874309631948,0.3414375580993284,0.1602052238840325,0.3341598850455026,-0.2068267812763987,1.6557753036450755,1.2855075449051432,0.8804554479765544,-0.0287741223257327,-0.0920038621369371,3.198187935727005,-0.8747849358241124,-5.5590637011864565,-2.88610438519088,-4.22931265974465,-0.5315293730580929,0.02,0.3,-0.1,0.2,0.3,-2.8523612,-4.2371635,-0.5383662
1753800513.129366,0.1627029427287909,0.3408649074736349,0.16048836350706,0.333610903355718,-0.2031648597489917,1.6556917937442808,1.2849943948578542,0.8788611665776976,-0.0200423761907783,-0.123156011349388,2.711419953100259,-0.2191545374179164,-6.916637792484567,-2.957502160821029,-4.218589568214284,-0.5272490765436136,0.02,0.3,-0.1,0.2,0.3,-2.8645458,-4.2418466,-0.5353395
1753800513.235687,0.1631243441320913,0.3402906435713662,0.1607793301976612,0.3330603132137373,-0.1995065869565445,1.655640214945666,1.2843585372510975,0.8779854701873329,-0.012378911667538,-0.1526058256215526,2.179854365585304,0.4643777831044536,-8.231175036015348,-2.9707980003458347,-4.219638977774562,-0.523182655120088,0.02,0.3,-0.1,0.2,0.3,-2.8736534,-4.2473264,-0.53207856
1753800513.2447689,0.1635515686289294,0.3397147890634781,0.1610779499638424,0.3325081033172525,-0.1958154163286113,1.6555753463633427,1.2836648585192303,0.885880950703958,-0.015568459757552,-0.1664828956481584,1.8924084606934164,0.8280593866355563,-9.016394029913274,-2.8816190899290945,-4.240663036240864,-0.5213132769771239,0.02,0.3,-0.1,0.2,0.3,-2.8829837,-4.2492228,-0.5264298
1753800513.2537234,0.1639845487556046,0.3391373666837202,0.1613837164207572,0.3319542225638638,-0.1920922449094345,1.6554974797413968,1.2829130308689776,0.8935611406024235,-0.0186879892669973,-0.1804386360606617,1.9423405345613756,0.7614591720184726,-9.128248847869866,-2.906218316107413,-4.239541020496817,-0.5176468722996016,0.02,0.3,-0.1,0.2,0.3,-2.89436,-4.2494507,-0.5223024
1753800513.2627711,0.1644232161395357,0.3385583992277396,0.1616965703771867,0.3313986893300189,-0.1883385271257044,1.655407702319692,1.2821017925234015,0.9008922680952396,-0.0215465812091342,-0.1946972029382108,2.185289499536072,0.4436704887820082,-8.833658790111704,-2.9323485918861745,-4.237534116252534,-0.5138503090380455,0.02,0.3,-0.1,0.2,0.3,-2.9092689,-4.248799,-0.5191104
1753800513.2715642,0.1648675015100575,0.3379779095521801,0.1620164455118538,0.3308415002974859,-0.1845629984604322,1.6553158135570838,1.2812168125035126,0.9061268796653242,-0.0220533030259648,-0.2123952047734011,2.4168531908149444,0.1267224721978886,-8.506450093945046,-2.981397328054714,-4.2324273362613445,-0.5101569181135994,0.02,0.3,-0.1,0.2,0.3,-2.9284241,-4.2480016,-0.5166218
1753800513.3782148,0.1653173347093597,0.33739592057378,0.1623434122970725,0.3302827124233248,-0.1807501718621403,1.6552025625304014,1.280286435700246,0.915078383590066,-0.0271802464037457,-0.2232904327839606,2.604874001977976,-0.1459512094389615,-8.213448103487535,-2.9554291687908862,-4.239006967106333,-0.5069682794370352,0.02,0.3,-0.1,0.2,0.3,-2.9502394,-4.246646,-0.512916
1753800513.3871777,0.1657726447035656,0.3368124552684677,0.1626771741799773,0.329722234473657,-0.17690339782082,1.6550705858521462,1.279306495330857,0.9232257699168632,-0.0316744027812502,-0.2351856886534042,2.8152948223120378,-0.4556551091209669,-7.844327678611973,-2.9902926136514387,-4.238925388926101,-0.5037043572144593,0.02,0.3,-0.1,0.2,0.3,-2.9764285,-4.2448807,-0.5093534
1753800513.3955848,0.1662333595939488,0.3362275366704546,0.1630177146447493,0.3291601965231263,-0.1730235028480262,1.6549204179445534,1.278275965826532,0.931174793470508,-0.036040297822281,-0.2473270810379865,3.013969763936624,-0.7602225007403837,-7.468946265695234,-3.014467915986476,-4.237151717696087,-0.5005144664393463,0.02,0.3,-0.1,0.2,0.3,-3.0035734,-4.243249,-0.50578743
1753800513.4042494,0.1666994066282874,0.3356411878713251,0.1633650321101432,0.3285965911840612,-0.1691113856392277,1.6547522682078828,1.277195148654888,0.938908130111652,-0.040355936800952,-0.2593961211945721,3.185896057408005,-1.038308631150997,-7.118132979152566,-3.0404894501556976,-4.235764230850558,-0.4967502104676914,0.02,0.3,-0.1,0.2,0.3,-3.0298119,-4.2420654,-0.5022472
1753800513.413087,0.1671707122123522,0.3350534320191258,0.1637190139974035,0.3280314323253858,-0.1651563501417821,1.654552055691532,1.2760847002316165,0.9492085193869378,-0.0480510039242157,-0.2665076215851713,3.3628715088234893,-1.3294028766260753,-6.733804325996813,-3.031780168951528,-4.241647546176112,-0.4936847409060698,0.02,0.3,-0.1,0.2,0.3,-3.0579834,-4.240692,-0.49789822
1753800513.519622,0.1676472019215278,0.3344642923174517,0.1640794174654336,0.3274647316113989,-0.161162971375223,1.654324836579118,1.2749375933674536,0.9584109039741868,-0.0545325869793653,-0.275305647399088,3.562956813094252,-1.6520687870424182,-6.289563766766063,-3.067974933673951,-4.237170105161492,-0.4900775435261339,0.02,0.3,-0.1,0.2,0.3,-3.0881076,-4.2392044,-0.49385116
1753800513.5284529,0.1681288005125655,0.3338737920245291,0.1644462361143218,0.3268964770385217,-0.1571367549524714,1.6540765907033348,1.2737453529326288,0.9662919414603728,-0.0595790101879586,-0.2861377043579714,3.710805577585419,-1.91257545532794,-5.923853800980462,-3.1080481507183224,-4.2330310806190985,-0.486543198250073,0.02,0.3,-0.1,0.2,0.3,-3.119587,-4.2379184,-0.49006653
1753800513.537268,0.168615431935465,0.3332819544522986,0.164819474365678,0.3263266952621355,-0.1530825422660263,1.6538125512847492,1.2725005581723758,0.9730110447468392,-0.0633694604605422,-0.2987507424607247,3.758082191843631,-2.0506012051164704,-5.728240629991442,-3.146210341912184,-4.229197508486245,-0.4830919045643294,0.02,0.3,-0.1,0.2,0.3,-3.1512744,-4.237157,-0.48646843
1753800513.5460627,0.1691070193454832,0.3326888029654942,0.1651991334715104,0.3257554074416254,-0.1490040899259276,1.6535366394604925,1.2711977540724984,0.9788285616236764,-0.0662188378216461,-0.3126729839705782,3.68754739154724,-2.044215384240712,-5.736341348708958,-3.1813175767552115,-4.225965969819244,-0.4796807397155203,0.02,0.3,-0.1,0.2,0.3,-3.1817787,-4.2370877,-0.4829753
1753800513.5540795,0.1696034851152697,0.3320943609807209,0.1655851934368637,0.3251826308566269,-0.144904001549334,1.6532520499691938,1.2698324333712214,0.9840212103824542,-0.0683014779116657,-0.3276769683064613,3.539923019724014,-1.9394611395979064,-5.883066995355767,-3.2108702483576,-4.2214238455964725,-0.4764374705569676,0.02,0.3,-0.1,0.2,0.3,-3.2102933,-4.237517,-0.4796173
1753800513.6624172,0.1701047508471241,0.3314986519655304,0.1659776670889277,0.3246082957577641,-0.1407842584324756,1.6529603660187009,1.2684025083509642,0.9887383480460205,-0.0700041481183151,-0.3431820048617186,3.352334719502485,-1.7812784998161135,-6.104208163172106,-3.241598085951601,-4.219883478081547,-0.4732099981992606,0.02,0.3,-0.1,0.2,0.3,-3.2360578,-4.2381597,-0.4763877
1753800513.671268,0.1706107373853763,0.3309016994374947,0.1663765016211075,0.324032442587272,-0.1366461487972137,1.6526617492213016,1.2669081493268268,0.99314631246287,-0.0716680313758501,-0.3586461657930034,3.151909650227477,-1.610428015966826,-6.339850231057219,-3.2723253575480613,-4.220393752590568,-0.4699323123961861,0.02,0.3,-0.1,0.2,0.3,-3.259098,-4.2387314,-0.47322965
1753800513.6798437,0.1711213648288866,0.3303035269632773,0.1667815834469888,0.3234551809588133,-0.1324897365949233,1.6523555748073997,1.2653506565170254,0.9975389285496804,-0.0734818593364484,-0.3737982743523448,2.961160314302944,-1.457629847138901,-6.544409273152993,-3.2970724725957297,-4.219397829380298,-0.4667712038882103,0.02,0.3,-0.1,0.2,0.3,-3.2802844,-4.239038,-0.47009534
1753800513.6882763,0.1716365525436622,0.3297041581577035,0.167192823868483,0.322876524001263,-0.1283137482475055,1.6520398081178338,1.2637330454121936,1.00223720338029,-0.0757840054957907,-0.3882266651596407,2.8022178244693428,-1.3470184327775083,-6.6844850070477095,-3.3170697278181023,-4.218766881877426,-0.4639502864121605,0.02,0.3,-0.1,0.2,0.3,-3.3009646,-4.2389164,-0.46693075
1753800513.6968372,0.1721562191755906,0.3291036166828271,0.1676101631362569,0.3222964622300929,-0.1241168266646398,1.6517118659468273,1.2620589018534123,1.007261179887762,-0.0787061210415509,-0.4017944541074436,2.689805948742385,-1.2941212512013542,-6.7418575460477,-3.3383927061138885,-4.219802323186332,-0.461359871189142,0.02,0.3,-0.1,0.2,0.3,-3.3222003,-4.238314,-0.4637158
1753800513.804113,0.1726802826632865,0.3285019262469976,0.1680335472051517,0.3217150547896282,-0.1198974574108821,1.6513692034253329,1.2603323596406013,1.0126486209018573,-0.0822390051586664,-0.4143701310746965,2.627476486577544,-1.302299822770618,-6.711849368260334,-3.3585474148259324,-4.21952274447998,-0.4583915972359153,0.02,0.3,-0.1,0.2,0.3,-3.3447664,-4.23722,-0.46043158
1753800513.812906,0.1732086602510502,0.3278991106039229,0.1684628583427549,0.3211323036093514,-0.1156540158557686,1.6510090080898965,1.2585577526682294,1.0184259732272205,-0.0864468805048008,-0.4259056733692308,2.6115402557248277,-1.367769221750231,-6.597824504933015,-3.3788882814979355,-4.219881113103446,-0.4556223734037456,0.02,0.3,-0.1,0.2,0.3,-3.3691678,-4.2356496,-0.45706734
1753800513.8213706,0.1737412685019352,0.3272951935517325,0.1688979975996468,0.3205482356604393,-0.1113852572664439,1.6506291872896155,1.2567390948136183,1.024502061437934,-0.0911569920673898,-0.4364778851066668,2.632629307778008,-1.4785961727230543,-6.411901922835816,-3.399636700620672,-4.218431369164274,-0.4523752280823912,0.02,0.3,-0.1,0.2,0.3,-3.3951635,-4.2336946,-0.45369253
1753800513.8297124,0.1742780233109246,0.3266901989320375,0.1693388105712482,0.3199628190200114,-0.1070896610878584,1.6502270933704737,1.2548805387324382,1.0309430828605324,-0.0965025405941015,-0.4460534594832204,2.68273288392831,-1.6241177367853392,-6.167696084529493,-3.420349864667517,-4.2184586399120825,-0.4496590646308291,0.02,0.3,-0.1,0.2,0.3,-3.4226007,-4.2314,-0.4503656
1753800513.838617,0.1748188399182119,0.3260841506289896,0.1697851981576727,0.3193760729537125,-0.1027660933871939,1.649800547112138,1.2529855819934217,1.037656248159476,-0.1023711020005038,-0.4547896173639529,2.7543333904923264,-1.7961165917992965,-5.88070492354998,-3.44236311971128,-4.218216118511792,-0.4469577075320313,0.02,0.3,-0.1,0.2,0.3,-3.4511952,-4.2288256,-0.44716683
1753800513.9442766,0.1753636329225854,0.3254770725683382,0.1702370650370301,0.3187880178361502,-0.0984139965672764,1.6493480896315749,1.2510567015753455,1.0445032367801996,-0.1085897953351595,-0.4629313003382628,2.8369659627241286,-1.9822246274938056,-5.571146339816311,-3.466216535238228,-4.217553630121599,-0.4442622281134887,0.02,0.3,-0.1,0.2,0.3,-3.4809875,-4.226042,-0.44414422
1753800513.9527516,0.1759123162949142,0.3248689887164854,0.1706943229387073,0.3181986742547829,-0.0940335719208939,1.648869226890171,1.2490950001753884,1.0513019151317924,-0.1149270579369487,-0.4708083359897287,2.917640865209401,-2.1667390205597865,-5.263641196219608,-3.4924315953368112,-4.21632894334971,-0.4415640921927314,0.02,0.3,-0.1,0.2,0.3,-3.512394,-4.2231183,-0.44129443
1753800513.9610891,0.1764648033917334,0.3242599230795407,0.1711568936160995,0.3176080622770061,-0.08962589098703,1.6483645859499925,1.2470999801511522,1.0578434241273469,-0.1211138256428717,-0.4788048058166783,2.9807470392028588,-2.3296864719629573,-4.986635802227475,-3.5213194969809267,-4.214449712261824,-0.4388586715336398,0.02,0.3,-0.1,0.2,0.3,-3.5455716,-4.2201653,-0.4385856
1753800513.9695458,0.1770210069689256,0.3236498997023724,0.171624710733734,0.3170162008102056,-0.0851928454619812,1.647835866842787,1.2450696115470057,1.0639309260117054,-0.1268925857293149,-0.4872884649952354,3.011524144313765,-2.45188167951704,-4.767538427164435,-3.552714644385804,-4.211935456146082,-0.4361498813490291,0.02,0.3,-0.1,0.2,0.3,-3.5793474,-4.217371,-0.43599096
1753800513.9778128,0.1775808391954984,0.323038942667659,0.1720977195219553,0.31642310704791,-0.0807368578414828,1.6472854886810309,1.243000841470384,1.069437028919628,-0.1320907588214799,-0.4965048183891761,2.9990962091904843,-2.5188264371011697,-4.627074657278566,-3.585742958266227,-4.208966914605846,-0.4334524790814267,0.02,0.3,-0.1,0.2,0.3,-3.6112418,-4.214944,-0.43349075
1753800514.083794,0.1781442116674533,0.3224270760949381,0.1725758730416591,0.3158287957953282,-0.0762602460371461,1.646715788510951,1.240890744029851,1.0743868330407926,-0.1367280408191722,-0.5064233857279575,2.940890124116811,-2.5264216034892035,-4.571059522344237,-3.6185105976082528,-4.205965439026525,-0.4307993179119219,0.02,0.3,-0.1,0.2,0.3,-3.6395998,-4.2128954,-0.43102527
1753800514.0924232,0.1787110354217463,0.3218143241396543,0.1730591240539872,0.3152332787980739,-0.0717648058642763,1.6461278172498448,1.238738139712829,1.0789056414887583,-0.1411131026654404,-0.516625036085203,2.844552942809003,-2.4874221942680013,-4.581752042242676,-3.652040688412614,-4.205460370601081,-0.4283187217577678,0.02,0.3,-0.1,0.2,0.3,-3.6646504,-4.2109694,-0.42847037
1753800514.1012225,0.1792812209503358,0.3212007109922054,0.1735474008443568,0.3146366586373106,-0.0672504332095205,1.6455214417099695,1.2365435223467285,1.0834494371414003,-0.1455301295699944,-0.526708167864154,2.7322390878404117,-2.427481472639948,-4.62329806620784,-3.675906568839644,-4.2023546479709,-0.4259507405543564,0.02,0.3,-0.1,0.2,0.3,-3.6874712,-4.208802,-0.42576617
1753800514.1100411,0.1798546782143169,0.3205862608769881,0.1740406668731673,0.3140388719471083,-0.0627108740991042,1.6448876644290176,1.2343208713366656,1.089494186499913,-0.1521065474285237,-0.5334362424150373,2.662290950576903,-2.4197210435633485,-4.586967402868974,-3.68501559030526,-4.205667457124761,-0.4234181031064705,0.02,0.3,-0.1,0.2,0.3,-3.70711,-4.2070336,-0.42326823
1753800514.1185744,0.1804313166581398,0.3199709980514407,0.1745386840545423,0.3134399550770879,-0.0581489824488608,1.6442296350043628,1.2320662538069385,1.0948539960584032,-0.1579270619171489,-0.5411082071344823,2.6393559638107265,-2.470849613349252,-4.460326726375427,-3.71935472701827,-4.201684906336424,-0.4208191365694896,0.02,0.3,-0.1,0.2,0.3,-3.7285964,-4.2036076,-0.4207399
1753800514.2252862,0.1810110452239099,0.319354946805086,0.1750414039166089,0.3128399025079008,-0.0535425747017382,1.6435173798116889,1.2298232671513871,1.105537859309424,-0.1709412462417715,-0.5383167973322962,2.7604501656147287,-2.7093969875202024,-4.059929646316506,-3.683091038049365,-4.217576620132715,-0.4194817506145243,0.02,0.3,-0.1,0.2,0.3,-3.7341025,-4.208873,-0.4198145
1753800514.2336128,0.1815937723657661,0.3187381314585724,0.1755484217026724,0.3122388021629371,-0.0489134707387565,1.6427789039771368,1.227552164558268,1.110984951115617,-0.177234200292438,-0.5450646223485736,2.924881834583072,-3.00566848494793,-3.5742648124424417,-3.771598220662729,-4.198968642546886,-0.4161215956984555,0.02,0.3,-0.1,0.2,0.3,-3.7613993,-4.2037754,-0.41770577
1753800514.2428749,0.1821794060643374,0.3181205763627137,0.176059969818129,0.3116366053757349,-0.0442388845637635,1.6419830492160978,1.2252986074344827,1.1219006819983215,-0.1910051426493412,-0.5408537097084826,3.1187087466006984,-3.3437703480024616,-3.0263413885586234,-3.734917594276554,-4.215799952568159,-0.4146155306811415,0.02,0.3,-0.1,0.2,0.3,-3.7648144,-4.2137594,-0.41701835
1753800514.2516396,0.1827678538412741,0.3175023058975276,0.1765755887466964,0.311033422977338,-0.039524774118633,1.641136545787572,1.223053731944737,1.131386506831301,-0.203160822846205,-0.538770117538967,3.3745296674103096,-3.7697076370866833,-2.34792492649967,-3.779738155010559,-4.210112013388922,-0.4118329636914629,0.02,0.3,-0.1,0.2,0.3,-3.7794342,-4.221441,-0.415811
1753800514.2603283,0.1833590227738507,0.3168833444712733,0.1770952400496617,0.3104292866600268,-0.0348658235572035,1.6403654488983328,1.2206358048504704,1.1181481347430997,-0.1850632534174133,-0.5803025026239648,3.0507351406579053,-3.4250469956391183,-2.780019861970268,-4.071931427434188,-4.132298758531397,-0.4058426285132255,0.02,0.3,-0.1,0.2,0.3,-4.0625553,-4.150176,-0.40293515
1753800514.3659196,0.1839528195096395,0.3162637165194883,0.1776203459536892,0.3098238735779025,-0.0303992631612982,1.6398550274969972,1.217777643249506,1.0719744950172738,-0.1225011363205368,-0.6859587842314538,1.2144879305152152,-1.0440219197573266,-6.154395347466409,-4.480472342777978,-4.017301580971308,-0.3981840005034285,0.02,0.3,-0.1,0.2,0.3,-4.4903407,-4.0362434,-0.3897107
1753800514.3747325,0.1845491502812526,0.3156434465040231,0.1781530141236718,0.3092166042798973,-0.0261440442342307,1.63963346740418,1.2144386648542689,1.0212525424961871,-0.053174422276158,-0.8013548148569294,-2.1118785783447245,3.369333320675418,-12.468421286859908,-4.557510586154458,-3.997646175560923,-0.3958020748717328,0.02,0.3,-0.1,0.2,0.3,-4.3445725,-4.090612,-0.39471397
1753800514.3833418,0.1851479209211483,0.3150225589120757,0.1786935256197927,0.3086073182974478,-0.0219626545178646,1.639515698306628,1.2108868322042263,1.0035335319278658,-0.0282645834124757,-0.8524398360102319,-5.207777225552841,7.507726138336882,-18.38917401928402,-4.205625674491047,-4.1130168448116295,-0.3999474504639749,0.02,0.3,-0.1,0.2,0.3,-4.0588217,-4.2062764,-0.3964915
1753800514.3918085,0.1857490368765012,0.3144010782552252,0.1792395729868785,0.3079967191546,-0.0178037041905958,1.6394314794115064,1.2072238232289931,0.998148078544518,-0.0202125348291977,-0.8791221540559555,-6.704767579318172,9.510770817988352,-20.0,-4.0922573820222405,-4.15839622456182,-0.4012205776858687,0.02,0.3,-0.1,0.2,0.3,-3.9601002,-4.2448044,-0.39564103
1753800514.400386,0.1863524032241337,0.3137790290684638,0.1797902483345995,0.3073851838777894,-0.0136247218136042,1.6393226275912722,1.2035349761228034,1.002955770477988,-0.0261244368561714,-0.8853233054855578,-6.476225462744537,9.186361456002244,-19.72018395914148,-4.001085656527283,-4.193489566360892,-0.4015274532889227,0.02,0.3,-0.1,0.2,0.3,-3.9429898,-4.253548,-0.39508525
1753800514.5055292,0.1869579246855051,0.3131564359092282,0.1803447142817628,0.306772921456698,-0.0094079578492437,1.6391644912279213,1.1998574502793595,1.0120233514465071,-0.0379527272042493,-0.8826062024265038,-5.132160525366448,7.344548955839732,-17.187574032298567,-3.976732568791464,-4.206372207896616,-0.400695926713873,0.02,0.3,-0.1,0.2,0.3,-3.9745822,-4.247593,-0.39632115
1753800514.5140731,0.1875655056417572,0.3125333233564304,0.1809025172060717,0.3061599730070796,-0.0051638720584831,1.6389699833366391,1.1961723759475311,1.0185805897825422,-0.0466818939076604,-0.8844178396388382,-3.5711626195585184,5.195059645611083,-14.164738259668075,-4.033000040476832,-4.199708038691347,-0.4000139589824097,0.02,0.3,-0.1,0.2,0.3,-4.0255046,-4.236398,-0.3983372
1753800514.522727,0.1881750501488138,0.3119097160094869,0.1814638001388775,0.3055464343042822,-0.0008891205311969,1.6387338363937578,1.1924882242852397,1.0259403665486988,-0.0566752662915852,-0.8841963989500057,-2.168920626715684,3.247134985274317,-11.400898314584454,-4.049254753087434,-4.201633200247766,-0.3991271188090879,0.02,0.3,-0.1,0.2,0.3,-4.0777116,-4.225895,-0.400396
1753800514.5316713,0.1887864619525309,0.3112856384873481,0.1820284028666933,0.304932335651178,0.0034238038733386,1.6384450448837675,1.1888217549833286,1.0351018570885369,-0.0693099623975922,-0.879952632458592,-0.9841240731477284,1.5832743907951918,-9.021770447463044,-4.054031584210472,-4.206988087658704,-0.3984413030517716,0.02,0.3,-0.1,0.2,0.3,-4.1275406,-4.217015,-0.40235695
1753800514.5400803,0.1893996445038973,0.310661115427526,0.1825961052011115,0.3043177145496914,0.007773186300891,1.6381051350163691,1.1851717491802332,1.0438517826125702,-0.0815783681755964,-0.8760013927429313,0.0078341159129662,0.1727377764926725,-6.986236081119718,-4.084477197661125,-4.204428440095897,-0.3972854326209915,0.02,0.3,-0.1,0.2,0.3,-4.17981,-4.2085004,-0.40452966
1753800514.6454082,0.1900145009742796,0.3100361714851214,0.1831668145305168,0.3037025811003254,0.0121459213387663,1.6377318098470384,1.181513162937292,1.049456409090074,-0.0895980406394392,-0.8780606983058378,0.7639687412056538,-0.9190977010975052,-5.391659884581834,-4.144940468470389,-4.191089524868251,-0.3959163936543851,0.02,0.3,-0.1,0.2,0.3,-4.2481966,-4.197934,-0.407977
1753800514.6544187,0.1906309342707138,0.3094108313318514,0.183740673015293,0.3030868705342139,0.0165182462714587,1.6373579282956094,1.177799237444438,1.0493579838461733,-0.0897315723429162,-0.891342118285011,1.1305154393558947,-1.4732492224039777,-4.560462036357432,-4.234077086855269,-4.167505651433175,-0.3939305968218036,0.02,0.3,-0.1,0.2,0.3,-4.3189054,-4.1898956,-0.41182667
1753800514.663157,0.1912488470512362,0.3087851196550743,0.184317966930722,0.3024704610084321,0.020873685527934,1.6370065806175036,1.1739975064076391,1.0453054215540771,-0.084323442745429,-0.9124154488317252,1.0431176894424716,-1.3933044173769389,-4.634269138379145,-4.303379541769539,-4.149984546155618,-0.3921678408019909,0.02,0.3,-0.1,0.2,0.3,-4.336785,-4.1962457,-0.41267726
1753800514.6717305,0.1918681417402558,0.3081590611568157,0.1848988468503943,0.3018532569348138,0.0252113526347452,1.6366787157242215,1.170106646535705,1.0410401056346783,-0.0786875743877038,-0.9338063692641684,0.6511276388493755,-0.8841308582561691,-5.322903047018697,-4.332514419775811,-4.149278343927128,-0.3918476616962202,0.02,0.3,-0.1,0.2,0.3,-4.334386,-4.2072835,-0.4129361
1753800514.6800206,0.1924887205439621,0.3075326805527932,0.1854832976503373,0.3012353326982875,0.0298731792066525,1.6358911468055806,1.1668263776636516,1.118838377257765,-0.1890165404738241,-0.7872645292928169,2.1360666589981108,-3.0241158818957463,-2.1765283867417047,-3.443884705551434,-4.4676587920541015,-0.4066391566938966,0.02,0.3,-0.1,0.2,0.3,-3.5658798,-4.4945617,-0.42420566
1753800514.786254,0.1931104854657681,0.3069060025714406,0.1860658845715057,0.300618265329855,0.0347333721295715,1.6348170275315612,1.16390833076971,1.1664463015005642,-0.2577886257646671,-0.7003312545459821,5.5011829578860745,-7.841507135841908,4.854420066560115,-3.807140094811444,-4.34938855239741,-0.3991959365835451,0.02,0.3,-0.1,0.2,0.3,-3.894971,-4.3656707,-0.4137937
1753800514.795337,0.1937333383217848,0.3062790519529313,0.1866483582736831,0.3000015031515949,0.0396914018135366,1.6335962258840953,1.1611516523361471,1.1899271241516098,-0.2929923953918187,-0.6616028240550855,8.494346110596018,-12.1741560159697,11.202929390038774,-4.102203834607643,-4.252390380656299,-0.3927377399278429,0.02,0.3,-0.1,0.2,0.3,-4.184438,-4.2795415,-0.41071862
1753800514.8045871,0.1943571807563259,0.3056518534482024,0.1872321274543898,0.2993845889785522,0.0446878690628513,1.6323123903159056,1.1584363485519005,1.199152139835545,-0.308120536365544,-0.6516729082191812,9.93835632163311,-14.344213542736298,14.439785663345257,-4.285899705492158,-4.191725420988376,-0.388172947212091,0.02,0.3,-0.1,0.2,0.3,-4.382302,-4.2158837,-0.4050065
1753800514.8118577,0.1949819142574392,0.3050244318179769,0.1878180217132921,0.2987671808091483,0.0496402046017992,1.631083284276742,1.155593849664807,1.188560529347486,-0.2949854493992636,-0.6821997329024405,9.16342180475342,-13.37489731659418,13.149343337114074,-4.531269057846631,-4.10765842058165,-0.381911480869797,0.02,0.3,-0.1,0.2,0.3,-4.662372,-4.1368256,-0.4091491
1753800514.820512,0.1956074401724628,0.3043968118317864,0.1884071427075728,0.298148819275119,0.0545187266357422,1.6299521241442956,1.1525613255332892,1.1708452881463172,-0.2714784317871119,-0.7278057915643122,7.027443925631553,-10.448406918692838,9.029022719161471,-4.63710547755104,-4.076680777841665,-0.3796773621249784,0.02,0.3,-0.1,0.2,0.3,-4.6828456,-4.1088567,-0.39930356
1753800514.9275095,0.1962336597236034,0.3037690182669934,0.1889999811935289,0.2975293733999011,0.0593096337947783,1.6289399251099876,1.1493089653546384,1.149817718168673,-0.2429277682339268,-0.7805664428761907,4.336046314293512,-6.693552580134342,3.701659629649339,-4.700162400768378,-4.059512367717501,-0.3776840852992924,0.02,0.3,-0.1,0.2,0.3,-4.630059,-4.1322207,-0.39567903
1753800514.93671,0.1968604740235343,0.3031410759078128,0.1895966848634908,0.2969087461297557,0.0640816839132042,1.627947636420339,1.1459813240507557,1.1452920284222114,-0.2381492855156888,-0.7986339129318707,2.050962863639788,-3.4905451246680927,-0.8325423289285077,-4.549105450477254,-4.125480964501871,-0.3794352331911076,0.02,0.3,-0.1,0.2,0.3,-4.590018,-4.1512346,-0.39095625
1753800514.9453452,0.1974877840910115,0.3025130095443337,0.1901960193297862,0.2962873383778527,0.0688660223530134,1.6269298473125178,1.1426450030667203,1.1482412255541952,-0.2442693858770541,-0.800717036168467,0.8313816173293409,-1.7999929939284138,-3.1799860782531426,-4.495576086444531,-4.154464587489154,-0.3797919113434951,0.02,0.3,-0.1,0.2,0.3,-4.5672135,-4.164909,-0.38673028
1753800514.954022,0.1981154908665033,0.3018848439715408,0.1907973912321584,0.2956653346170695,0.073607458034282,1.6259667256414077,1.1391843031253723,1.137944563504468,-0.23114920106642,-0.830567985923515,0.1632091077746302,-0.888142024820733,-4.402151190319996,-4.666312002861822,-4.097254127795857,-0.376444310076832,0.02,0.3,-0.1,0.2,0.3,-4.5935826,-4.1631804,-0.3829385
1753800514.9625542,0.1987434952278331,0.3012566039883352,0.191401622101178,0.29504247299631,0.0783200784077815,1.6250377532001217,1.1356293880401196,1.1310288896398948,-0.2229533859086142,-0.8531796204606377,-0.3896162661101605,-0.131028018940331,-5.405838970675136,-4.657919036756069,-4.110230677931551,-0.3764440459291768,0.02,0.3,-0.1,0.2,0.3,-4.6959133,-4.132656,-0.37659177
1753800515.07015,0.1993716980058323,0.3006283143965559,0.192008426970775,0.2944188871862523,0.0829581990989519,1.6242102041416993,1.1318835962954994,1.113148965880895,-0.1986117740213755,-0.8989900187088273,-1.2015049658384105,1.0158688469413086,-6.979559850793386,-4.803296766732892,-4.061579827809356,-0.3734286934313547,0.02,0.3,-0.1,0.2,0.3,-4.845416,-4.0849614,-0.37171808
1753800515.078969,0.2,0.3,0.1926184196424871,0.2937943714218243,0.0874884207094042,1.6235346227057907,1.1278743932639963,1.0872531865085522,-0.1621395446180442,-0.962208727560664,-2.5159160502774336,2.9184683926885406,-9.65096185596513,-4.914818012173894,-4.023544995597804,-0.3711085600220473,0.02,0.3,-0.1,0.2,0.3,-4.964649,-4.045558,-0.36638448
1753800515.087727,0.2006283019941676,0.299371685603444,0.1932320360151238,0.2931687343166265,0.091854171673629,1.6230970989480251,1.1234768908186632,1.0477802314139495,-0.1050057018637058,-1.055400586880015,-4.404438076487622,5.7015356659622825,-13.60403679950468,-5.083536838227558,-3.9603834145310697,-0.3683228672101249,0.02,0.3,-0.1,0.2,0.3,-5.0013647,-4.045383,-0.36855516
1753800515.0961263,0.2012565047721669,0.2987433960116647,0.1938501578194882,0.2925416404461761,0.0961738061858191,1.6227218358600024,1.1189474942184183,1.0367122829256143,-0.0900631411255119,-1.0870551840587923,-6.046265398360067,8.14410117796948,-17.06482049881339,-4.813576529508524,-4.086564328398698,-0.373553145951917,0.02,0.3,-0.1,0.2,0.3,-4.9487524,-4.069261,-0.36944115
1753800515.1044946,0.2018845091334967,0.2981151560284591,0.1944706594948759,0.2919139939609007,0.1004006677101992,1.6224798485429572,1.1141829278105104,1.0144467658512226,-0.0580769560908428,-1.1434959378979088,-7.027931148792099,9.629760548726722,-19.141229119511955,-4.955080553967679,-4.033896959828389,-0.3719313632740896,0.02,0.3,-0.1,0.2,0.3,-4.909492,-4.091084,-0.3718829
1753800515.2117136,0.2025122159089885,0.2974869904556662,0.1950942934249423,0.2912855186637614,0.1045682831057501,1.6223213673847288,1.1092564396600326,1.0002276949322226,-0.0380354779748286,-1.1823571561146788,-7.504467460623054,10.38053414578252,-20.0,-4.897507550048009,-4.069256069854573,-0.3736897374593908,0.02,0.3,-0.1,0.2,0.3,-4.875805,-4.110882,-0.37321696
1753800515.220386,0.2031395259764657,0.2968589240921871,0.195720363198622,0.2906565233235535,0.1087257813525156,1.62217195894148,1.1042776187683574,0.9977995792237286,-0.0358580263796902,-1.194917014002042,-7.240923090231725,10.025158536776232,-19.43487370338456,-4.801936003890716,-4.123044644040557,-0.3762236638360111,0.02,0.3,-0.1,0.2,0.3,-4.846192,-4.129893,-0.37305126
1753800515.2288787,0.2037663402763966,0.2962309817330065,0.1963478818446404,0.2900274266909992,0.1129175911858737,1.621963284754783,1.0993477375352514,1.00603436000594,-0.0500818048073073,-1.183171495945451,-6.290959805866802,8.621974099783527,-17.328119696566414,-4.718144784427421,-4.172040868026007,-0.3784194630036486,0.02,0.3,-0.1,0.2,0.3,-4.8223433,-4.1488357,-0.37218666
1753800515.2370255,0.2043925598275371,0.2956031881682135,0.1969759126428355,0.2893985789914667,0.1171336925465266,1.6217095773275043,1.094446113717736,1.011864326556693,-0.0608897825468121,-1.1763897162037371,-4.825300167347624,6.418888366359983,-14.044665601312683,-4.768705124381743,-4.161819226592561,-0.3792524727680957,0.02,0.3,-0.1,0.2,0.3,-4.812142,-4.166421,-0.3718085
1753800515.2452395,0.2050180857425607,0.294975568182023,0.1976046236247759,0.2887699959189214,0.1213990943534889,1.62137163129255,1.0896308776085517,1.0236964336709464,-0.081107048389078,-1.1556566662042682,-3.1978934170377635,3.945567851130285,-10.36282107165138,-4.732323005740292,-4.189530944539937,-0.3810998641432114,0.02,0.3,-0.1,0.2,0.3,-4.8163967,-4.1760373,-0.3716401
1753800515.352474,0.2056428192436741,0.2943481465517975,0.1982335030797101,0.288141858316391,0.1257084298943707,1.6209568271479011,1.0848926523562772,1.0342405298116302,-0.0995529947157104,-1.137174060545827,-1.640564003536066,1.5558531918639584,-6.796575591057412,-4.769585881814195,-4.18139507041823,-0.381122001992155,0.02,0.3,-0.1,0.2,0.3,-4.836857,-4.1775064,-0.3723882
1753800515.3614533,0.2062666616782152,0.2937209480470686,0.1988625171890979,0.28751409960166,0.1300984603066553,1.6204070048156891,1.0803178542788676,1.053607298948306,-0.1319573597309525,-1.0979515385783098,-0.1141311131328948,-0.8119863877218498,-3.251571585033817,-4.705497550367292,-4.222914759834049,-0.3831702742609834,0.02,0.3,-0.1,0.2,0.3,-4.892125,-4.161743,-0.37407732
1753800515.369339,0.2068895145342319,0.2930939974285594,0.199490917488814,0.2868869566932541,0.1346354944420452,1.6196174623631174,1.076061000374808,1.088888192493589,-0.1894901886172055,-1.0216449369743104,1.8476838362482573,-3.882244045942637,1.3344910970957795,-4.56920527102219,-4.298612595449528,-0.3866123644737647,0.02,0.3,-0.1,0.2,0.3,-4.953483,-4.161744,-0.37942794
1753800515.3777432,0.2075112794560379,0.2924673194472067,0.2001174846884036,0.2862607923164174,0.1391621508693416,1.6188318385501224,1.0717673321256835,1.0863975425511352,-0.1885497151188017,-1.0304803797898203,3.2798152509783307,-6.153461828982926,4.76571170297008,-4.973830379785743,-4.110986670457974,-0.3787466667781284,0.02,0.3,-0.1,0.2,0.3,-4.9931183,-4.154366,-0.38022873
1753800515.3863106,0.2081318582597442,0.2918409388431842,0.2007447410443156,0.2856345565486879,0.1437008615289794,1.6180149384966145,1.0674891001756974,1.0892905583130752,-0.1960560128419034,-1.026775667996669,3.682763855867787,-6.838703836051223,5.885435206159536,-4.945300386560403,-4.135319761374956,-0.380052990374638,0.02,0.3,-0.1,0.2,0.3,-4.9934635,-4.1644387,-0.38182142
1753800515.4939818,0.2087511529487638,0.2912148803449256,0.2013722318641312,0.2850083949659181,0.1482745212533381,1.617130232193319,1.0632809113392978,1.0976783338460752,-0.2123295127909144,-1.0099653207359156,3.615261388840579,-6.799576368322247,5.948794715414906,-4.916069065708685,-4.160467158647392,-0.3812112282529124,0.02,0.3,-0.1,0.2,0.3,-4.9708548,-4.185046,-0.38409394
1753800515.5028474,0.2093690657292862,0.2905891686681485,0.2019994641625606,0.2843824480486137,0.1529003929596084,1.6161496313513135,1.059185640597214,1.1102092095048832,-0.2353442020812389,-0.9828649781001232,3.5344546250489683,-6.746725099163577,5.997504266227576,-4.900185717434171,-4.178266146279373,-0.3816717289374393,0.02,0.3,-0.1,0.2,0.3,-4.9462395,-4.2046733,-0.38656121
