sinayanaik/E2NN/E2NN/pinn_semi_circle/run_20250730_020806_lr0.001_bs128_hs128/predictions_lr0.001_bs128.csv
timestamp,target_x,target_z,actual_x,actual_z,joint1_angle,joint2_angle,joint3_angle,joint1_velocity,joint2_velocity,joint3_velocity,joint1_acceleration,joint2_acceleration,joint3_acceleration,joint1_torque,joint2_torque,joint3_torque,kp,kd,radius,center_x,center_z,predicted_joint1_torque,predicted_joint2_torque,predicted_joint3_torque
1753346052.4285555,0.15,0.1,0.1451678030340727,0.0902198802276375,1.1784158833759002,1.5786569654328575,0.8498585107344766,0.0479367637823123,-0.0265044778233368,-0.0252653721699555,0.0,0.0,0.0,-7.177816147981492,-0.9869979887076868,0.6187815248687439,0.1,0.4,0.1,0.25,0.1,-6.8399477,-0.9682786,0.6154281
1753346052.4371436,0.1500019818337679,0.1006295735270236,0.1451705515175654,0.0904223886440761,1.1764117595803116,1.579701586439202,0.8509781796917427,-0.1469691992972791,0.0771946611913537,0.0814685548761303,0.0,0.0,0.0,-6.4378383922120745,-0.8742912527495598,0.5554452469135429,0.1,0.4,0.1,0.25,0.1,-5.7447996,-0.81689847,0.5097388
1753346052.4465406,0.1500079272565185,0.1012591220998456,0.1451745646683348,0.0910186947619517,1.1726442578323613,1.581677125030145,0.8530397358090183,-0.2040130367612122,0.1072649876785719,0.110927132779935,-1.3690520991343955,0.7216878356932366,0.7070058696913111,-5.677665050446229,-0.7636346859293393,0.4899029433412337,0.1,0.4,0.1,0.25,0.1,-5.542428,-0.74146354,0.49070415
1753346052.4557009,0.150017836032595,0.1018886207652538,0.145181404419703,0.0916920103519911,1.168616569415846,1.5838372831424472,0.8550750281386107,-0.2038111380810486,0.1103592278024495,0.1001519996120717,-2.459448210117982,1.3732998672208885,1.0140073694156415,-5.476341853321239,-0.7395069583164166,0.4734456345965979,0.1,0.4,0.1,0.25,0.1,-5.5329447,-0.70149326,0.49791276
1753346052.5617225,0.1500317077692464,0.1025180445720138,0.1451895675614445,0.0923438690947922,1.1648634367478343,1.585671146554218,0.8573696664822024,-0.1857399639144923,0.0878480882254307,0.1205756836659431,-2.4400910297547305,1.1385134516878344,1.427907297914676,-5.495686485550078,-0.7473544026419171,0.4762541175979624,0.1,0.4,0.1,0.25,0.1,-5.5565014,-0.6975315,0.5038713
1753346052.5711746,0.1500495419166431,0.1031473685718586,0.1452004789592284,0.0929775233652266,1.161239581037148,1.587351955206742,0.859740041013855,-0.1827166356818876,0.084598967722678,0.1193768767784999,-1.9086311574685155,0.4575365253312074,1.943706837789412,-5.537877386697011,-0.7484273750953601,0.4806843583725068,0.1,0.4,0.1,0.25,0.1,-5.563349,-0.7044131,0.505705
1753346052.5801272,0.1500713377678989,0.1037765678204771,0.1452144852987001,0.0936080528754943,1.157810129029172,1.5886618533291494,0.8626101662319556,-0.1707993336398957,0.0610763235746149,0.1527540886460466,-0.6959188964339242,-0.8186190457495652,2.673728326383248,-5.5483565655474685,-0.7483314432226128,0.4834614525070722,0.1,0.4,0.1,0.25,0.1,-5.579579,-0.7271404,0.5046786
1753346052.5887682,0.1500970944590987,0.1044056173785029,0.1452335343382081,0.0942391302596082,1.1542603769572777,1.590159731230353,0.8651596257800027,-0.1823776780609104,0.0806361107930941,0.1214145299952363,-0.116178542158596,-1.3803880996767122,2.804725724066653,-5.552048731568234,-0.7431804798204003,0.4852718296318254,0.1,0.4,0.1,0.25,0.1,-5.5712295,-0.736146,0.50471526
1753346052.5974898,0.1501268109693329,0.1050344923125028,0.1452591184769403,0.0948693967935964,1.1505745607556528,1.5918785824073167,0.8673376654426165,-0.1878365548703572,0.0893112837183189,0.1064223041711309,-0.3184810885110664,-0.7954868952572682,1.5424104502174236,-5.529123123377557,-0.7558512533071711,0.4861825070536429,0.1,0.4,0.1,0.25,0.1,-5.550666,-0.7377184,0.50774497
1753346052.6970644,0.1501604861207378,0.1056631676959655,0.1452897126245751,0.0954989981025239,1.1467956750729793,1.5937413520930757,0.8692632582819817,-0.192312480107608,0.0961430879045538,0.0943120879037201,-0.6935992832434066,0.0270431730386608,0.0519401748793999,-5.515413796112134,-0.7648151924407258,0.4867661962453142,0.1,0.4,0.1,0.25,0.1,-5.5273027,-0.7396455,0.5109836
1753346052.7062576,0.1501981185785424,0.1062916186102886,0.1453243677520668,0.096127842650143,1.1430471176186054,1.5955292033530692,0.8712550810565631,-0.1889460314507907,0.0891208843657987,0.1023738627232089,-0.9051711438510393,0.5419682010324103,-0.9368211736437912,-5.50660252743508,-0.770751072049773,0.4875626066359748,0.1,0.4,0.1,0.25,0.1,-5.5141983,-0.74244773,0.51392865
1753346052.7150853,0.1502397068511212,0.1069198201457674,0.1453636772193369,0.0967564121973675,1.1393668797999184,1.597162826715599,0.8734234552731156,-0.18546598400227,0.0810949716683496,0.1115821633003667,-0.6923523520782925,0.2562187042643005,-0.7087857318687735,-5.507675869354348,-0.7695990951125238,0.4890753289616311,0.1,0.4,0.1,0.25,0.1,-5.5120645,-0.74280196,0.5154375
1753346052.7240522,0.1502852492900532,0.1075477474025815,0.1454062244290273,0.0973848485369867,1.1356963366679624,1.59876139829537,0.8756132938697079,-0.1858844141006486,0.0811988121630823,0.1101975489189809,-0.41155883096037,-0.1680169565184461,-0.2206005094117953,-5.506550039407482,-0.7692354124908561,0.4904444324056592,0.1,0.4,0.1,0.25,0.1,-5.513008,-0.7454874,0.5155312
1753346052.732737,0.1503347440901877,0.1081753754917822,0.1454551341971452,0.0980115871384285,1.1317931752541914,1.6007522058275272,0.8771635026025455,-0.2011211750853143,0.1070924869891298,0.0683707194832723,-0.586074289295599,0.2138845412169212,-0.9124299200306776,-5.494514535906396,-0.777433233496541,0.4908426024727178,0.1,0.4,0.1,0.25,0.1,-5.4895744,-0.7490334,0.5170686
1753346052.829475,0.1503881892897153,0.1088026795362785,0.1455088036664068,0.0986380792685886,1.1279393205544237,1.6026256410087567,0.8788576506068688,-0.1932151967099662,0.0914279999751195,0.0906118169818801,-0.7959210988549269,0.6335134578791958,-1.624654593970829,-5.473592696462107,-0.7908719404723694,0.4911233138036914,0.1,0.4,0.1,0.25,0.1,-5.4795547,-0.7524518,0.5193691
1753346052.838394,0.150445582770246,0.1094296346718238,0.145565590266051,0.09926314226891,1.124127165568821,1.6044176901411011,0.8806114895716486,-0.1928798613527607,0.0908678898290011,0.0877849837540768,-0.7147770338109964,0.5521408720540774,-1.587347441727698,-5.478644319941192,-0.7871918428310265,0.4922674095599346,0.1,0.4,0.1,0.25,0.1,-5.4767685,-0.75583684,0.5206103
1753346052.8473573,0.150506922256893,0.1100562160480008,0.1456281961457768,0.0998877663701626,1.1202364264746214,1.606306782177295,0.8821821937286113,-0.1981665524434206,0.0974145794054031,0.0765500426412649,-0.6797277911728704,0.5134456917929684,-1.60941814955248,-5.473169278393677,-0.7928601182678986,0.4929724743585734,0.1,0.4,0.1,0.25,0.1,-5.463229,-0.7568561,0.5213729
1753346052.8563645,0.150572205318363,0.110682398829207,0.145696224305201,0.1005126214561198,1.1163113749739413,1.608230249992315,0.8836569477596911,-0.1988246351547959,0.0977049941335539,0.07363209491803,-0.6469773081979521,0.4519908439855001,-1.5629739725448355,-5.457756288322666,-0.7979115398143531,0.4934995711958414,0.1,0.4,0.1,0.25,0.1,-5.456745,-0.75867635,0.5224421
1753346052.8648884,0.1506414293670525,0.1113081581956387,0.1457690341508349,0.1011356597018484,1.112323218588278,1.6102489076204225,0.8849379831816977,-0.2027943904794582,0.1039304855323368,0.0617258955103991,-0.759403513849138,0.6718586270528456,-1.944734667296592,-5.450503426486794,-0.8033055015033203,0.4939919157987935,0.1,0.4,0.1,0.25,0.1,-5.4436684,-0.7635089,0.52376974
1753346052.9654243,0.1507145916591504,0.1119334693442751,0.1458480082484519,0.1017568927052518,1.108158131776857,1.6125551864597991,0.8857420046178278,-0.2132627555451857,0.1210066300854284,0.0338424191838569,-1.0809090425055383,1.2569622896651016,-2.858464383060379,-5.435822263570723,-0.8137281388829738,0.4937672445026151,0.1,0.4,0.1,0.25,0.1,-5.4186163,-0.77199006,0.52526194
1753346052.9739883,0.1507916892947466,0.1125583074898612,0.145932941244096,0.102377147288076,1.1039418879628002,1.6149217733855463,0.8864070367156133,-0.2134554603822455,0.1197600632341882,0.0331507477642293,-1.349384412788453,1.743290201522214,-3.627940926736845,-5.416152836447943,-0.8254546132135908,0.493402603620388,0.1,0.4,0.1,0.25,0.1,-5.4005804,-0.77909863,0.5271295
1753346052.9821796,0.1508727192179471,0.1131826478658903,0.1460208580200691,0.1029968908380756,1.099815984508978,1.617110217057876,0.8872946409701554,-0.2073902973429465,0.1081909674257734,0.0480641091592301,-1.2397588168951468,1.556630821230762,-3.3814100637446347,-5.41407114068875,-0.8294306723613213,0.493024481784817,0.1,0.4,0.1,0.25,0.1,-5.4001913,-0.78139776,0.52780527
1753346052.990492,0.1509576782169953,0.1138064657255854,0.1461123108686134,0.1036157308940525,1.0957381028235345,1.6191928545201604,0.8882882161093234,-0.2060739689863966,0.1047482229893863,0.0505250012082708,-0.8721146004223232,0.9211874716157222,-2.4603874615882706,-5.417444395814085,-0.8278279092646837,0.4936289139079515,0.1,0.4,0.1,0.25,0.1,-5.4050636,-0.77964664,0.52747345
1753346052.9996214,0.1510465629243989,0.1144297363428809,0.1462090862753099,0.1042337572973279,1.0915609997143856,1.6214203113509331,0.8890212789149917,-0.2130401625498386,0.1153643058959371,0.0325682937128954,-0.674241050126214,0.5751800657230248,-1.9610582189496732,-5.410645401871112,-0.8327749897547791,0.4935501557624562,0.1,0.4,0.1,0.25,0.1,-5.3982534,-0.78064835,0.52709824
1753346053.0987236,0.1511393698170635,0.1150524350134013,0.1463123705143884,0.1048506255537411,1.087249550062792,1.623854306824049,0.889393610670015,-0.219785107559197,0.1257623622139216,0.014206854315244,-0.8476806515806982,0.8704213726716081,-2.4179408446199004,-5.392220643785263,-0.8442163205256648,0.49274007939551,0.1,0.4,0.1,0.25,0.1,-5.3795023,-0.7877317,0.5279997
1753346053.108282,0.1512360952164325,0.1156745370554418,0.1464031151812818,0.105473437181997,1.0842482724928733,1.6239925544963083,0.8932222404805106,-0.1311819481860075,-0.0291332443461721,0.2480966169077536,1.0541205781110778,-2.4333543753369504,2.6165595329083384,-5.428269072010752,-0.8396837699521781,0.4925038636618675,0.1,0.4,0.1,0.25,0.1,-5.513649,-0.7639799,0.5268407
1753346053.1171625,0.1513367352886326,0.1162960178109456,0.1464931718899533,0.1060993007541889,1.0811079709226643,1.6243405485749018,0.8966736121889036,-0.1674173873387869,0.0319903347293507,0.1519872465845022,2.9178866572710733,-5.0,5.0,-5.521137461619474,-0.7788564981228174,0.4977793760482004,0.1,0.4,0.1,0.25,0.1,-5.520035,-0.7294581,0.529863
1753346053.1263518,0.151441286044626,0.1169168526464817,0.1465981014199314,0.1067204651978565,1.077424851709188,1.6256118520129554,0.8986763447809323,-0.1922070557268766,0.0743689571401333,0.0855538672665211,2.4804179598468927,-4.375182097048831,4.338678594179817,-5.454991735429137,-0.8146025969273213,0.498245273767848,0.1,0.4,0.1,0.25,0.1,-5.482097,-0.7358583,0.5296714
1753346053.135796,0.1515497433403683,0.1175370169542214,0.1467099919995024,0.107337802627794,1.0735707529349656,1.6271745982175188,0.9001892588402014,-0.1959195822266072,0.0805865250528476,0.0734236128078337,1.1963930427243183,-2.217075021854324,1.2882673762401176,-5.41963754101621,-0.8438124075602375,0.4969431526397073,0.1,0.4,0.1,0.25,0.1,-5.4349585,-0.7639575,0.5319722
1753346053.236444,0.1516621028769728,0.1181564861529133,0.1468337180349876,0.1079505168188395,1.0692525446827172,1.6295133439458953,0.9004535341174517,-0.2254761559439761,0.1301670221155392,-0.0053628764317794,-0.9156716001752068,1.3906742436439112,-4.044664548781934,-5.393816868659905,-0.8554371895100897,0.4975512136271234,0.1,0.4,0.1,0.25,0.1,-5.3380027,-0.8104721,0.534549
1753346053.2462406,0.1517783602008812,0.1187752356888579,0.1469545541368522,0.1085657807148819,1.0656179792620804,1.6306535640772415,0.9025169408936288,-0.1712736651707806,0.0357145290412578,0.1374683746196482,-0.8822908120593643,1.2883425542238085,-3.732421885241627,-5.381243438843685,-0.8770356053519706,0.4954974236953648,0.1,0.4,0.1,0.25,0.1,-5.3788776,-0.8162904,0.5353449
1753346053.2554593,0.1518985107040395,0.1193932410368808,0.1470740016287195,0.1091828521985235,1.0620124627948764,1.63172655079074,0.9046262046414894,-0.1858910443042098,0.0600270368242841,0.0970168212169891,0.1407318317716254,-0.5215727760452804,-0.8512885472606877,-5.440428009799796,-0.8411082713198229,0.498042528600096,0.1,0.4,0.1,0.25,0.1,-5.395046,-0.7962402,0.5335976
1753346053.2648933,0.1520225496240813,0.1200104777013044,0.1472010437782555,0.1097977996201162,1.0583665307110566,1.6328465969548271,0.9066036933563196,-0.1841012465176866,0.0557358117697038,0.1006286223777553,0.5754958574386707,-1.3168912109876585,0.4319086219130187,-5.418121779464915,-0.8562814075223206,0.498710746515003,0.1,0.4,0.1,0.25,0.1,-5.4052315,-0.7895508,0.5337841
1753346053.2741232,0.1521504720445163,0.1206269212169197,0.1473284424652191,0.1104136705630056,1.055023653371197,1.6334341090860285,0.9093444665391917,-0.1646365714862652,0.0218831350163927,0.1499499791163499,1.2915943970959314,-2.5703910429332293,2.4024020319975827,-5.4281150411211945,-0.8567272106201229,0.4995473171759209,0.1,0.4,0.1,0.25,0.1,-5.4435143,-0.77986956,0.53466094
1753346053.374808,0.1522822728949248,0.121242547149955,0.1474543968296675,0.1110308491002464,1.0519509179431223,1.6335506337479742,0.9127517178762627,-0.1527364518662456,0.0010717225038916,0.1789624725367045,1.887153286963792,-3.5857224056794204,3.995054897302461,-5.458331846714467,-0.8450362728246568,0.5014574406107191,0.1,0.4,0.1,0.25,0.1,-5.472219,-0.7717394,0.5358261
1753346053.3846543,0.1524179469511595,0.121857331099045,0.1475816552244538,0.1116491909741149,1.0490240242677251,1.633400013118265,0.9165202608372292,-0.1467319272022515,-0.0102673950511561,0.1939984003091076,2.570865302019989,-4.7538865390491525,5.0,-5.476562139544419,-0.841511305701111,0.5031583432445564,0.1,0.4,0.1,0.25,0.1,-5.4855385,-0.7532202,0.5423263
1753346053.3933988,0.1525574888355518,0.1224712486961982,0.1477128522412191,0.1122672270176739,1.0460842778912174,1.6332606941680132,0.920219593498632,-0.1494168363309041,-0.0060509390722269,0.18485290066656,2.727596281689644,-5.0,5.0,-5.481308972042648,-0.8431002675531151,0.5048807652193887,0.1,0.4,0.1,0.25,0.1,-5.4805527,-0.7491504,0.5457369
1753346053.4019976,0.1527008930171253,0.1230842756077618,0.1478501642497363,0.1128839538595477,1.0430505406809956,1.6332626560739831,0.9236515606888208,-0.1548079507711607,0.0020132509502453,0.1699785369225154,2.2429435775301583,-4.176542795690375,4.022789470593146,-5.47355342411166,-0.8520960448692074,0.5064268788462805,0.1,0.4,0.1,0.25,0.1,-5.46018,-0.76353294,0.54453784
1753346053.4110415,0.152848153811815,0.1236963875353872,0.1479951410733179,0.1134970256329309,1.039797283971267,1.633636535910697,0.9264550867351165,-0.1676558388803681,0.0240968869769561,0.1329976755824517,1.299541904434179,-2.555790598268512,1.7561529513750804,-5.457855539059343,-0.8649743081850385,0.5073996085541612,0.1,0.4,0.1,0.25,0.1,-5.4199195,-0.7884654,0.542911
1753346053.5216734,0.1529992653826927,0.1243075602169928,0.1481459623551593,0.1141072427215704,1.036421824448309,1.6342052611701974,0.9289240142491748,-0.171810629877146,0.0302790648965187,0.1221550467675166,0.3157889115832162,-0.8571112792972329,-0.6533424642683112,-5.439158987468447,-0.8844290749451169,0.507547346284866,0.1,0.4,0.1,0.25,0.1,-5.3856573,-0.81638724,0.54088414
1753346053.5309556,0.153154221740198,0.1249177694277252,0.1483013377041109,0.114716664397961,1.0330022492872422,1.6348307413744358,0.931258552532058,-0.1734623517283735,0.0321765031879648,0.1165799957036544,-0.3096253589509499,0.2091854455719022,-2.1128428713750678,-5.431436023631253,-0.8964214349768709,0.5071718613516405,0.1,0.4,0.1,0.25,0.1,-5.3642545,-0.8356401,0.5395469
1753346053.5396292,0.1533130167423762,0.1255269909809201,0.1484620816476054,0.1153244351058241,1.029536441923982,1.6355209669939708,0.9334374708431858,-0.1760126876431012,0.035877818842603,0.1079999965317043,-0.6222599769915734,0.7378636130509307,-2.800889543165102,-5.425950484629051,-0.9053078771696856,0.5074251049431157,0.1,0.4,0.1,0.25,0.1,-5.3509846,-0.84766525,0.538686
1753346053.548103,0.1534756440951212,0.1261352007290606,0.1486282507837452,0.1159300588240299,1.026073168890711,1.636196554244041,0.935571031095444,-0.1750677838079108,0.0337726997492477,0.1076188571356093,-0.6564411988696814,0.7927400497966495,-2.8226517215404803,-5.420110406698032,-0.9123708702617211,0.5082808239188925,0.1,0.4,0.1,0.25,0.1,-5.3488183,-0.85324347,0.53873265
1753346053.5565364,0.1536420973524255,0.1267423745647344,0.1488000130481336,0.1165335871369099,1.0225173413774349,1.6370141311393374,0.9374369912604468,-0.1814668387329648,0.043782894317836,0.0900607692026582,-0.7257424633983799,0.9102532573313172,-2.96605709877578,-5.415696690836776,-0.9190847387807688,0.5089401326930879,0.1,0.4,0.1,0.25,0.1,-5.337122,-0.8594433,0.53813195
1753346053.657869,0.1538123699166353,0.1273484884215892,0.1489793892160805,0.1171339103014657,1.0187932851677746,1.638100473126328,0.9388282053825028,-0.1906337112593224,0.0585525785394666,0.0640473914319816,-1.0388912275853937,1.4369349612684983,-3.741365246672784,-5.398218100680959,-0.9301690620208608,0.5093904384429597,0.1,0.4,0.1,0.25,0.1,-5.315427,-0.87094647,0.53743947
1753346053.6668515,0.1539864550387124,0.1279535182752869,0.1491635757358264,0.1177337176878298,1.0149841007761236,1.639302051406125,0.9400271030385572,-0.193478991883794,0.0618470681242723,0.0592640761080892,-1.3716456001835209,1.9753075915546936,-4.47034114799997,-5.377908570350982,-0.9393248847927096,0.5102311677677877,0.1,0.4,0.1,0.25,0.1,-5.2982254,-0.8855472,0.5356495
1753346053.6755564,0.1541643458185011,0.1285574401444555,0.1493512623974298,0.1183312928978283,1.0111590611052073,1.640534571058348,0.9411099912432714,-0.1936772525845797,0.0629940036149181,0.0530584377718217,-1.5012984391798838,2.200968906214452,-4.732425711822176,-5.369091110931692,-0.9464186639497256,0.5098534040614418,0.1,0.4,0.1,0.25,0.1,-5.293684,-0.89571136,0.53524506
1753346053.6847806,0.1543460352050025,0.1291602300916401,0.1495459305247679,0.1189252097267171,1.0071717462521077,1.6420194274673026,0.9417506416482816,-0.2043410231746155,0.0792795280269196,0.025736875760886,-1.6423958360366613,2.4492213492177486,-5.0,-5.363485944456187,-0.9582987597230614,0.5093619036580361,0.1,0.4,0.1,0.25,0.1,-5.2741914,-0.9048985,0.53373945
1753346053.6932356,0.1545315159966534,0.1297618642242511,0.1497456888374389,0.1195175872780232,1.003148231305922,1.6435518804165925,0.9422738579000688,-0.203477375653021,0.0774510301433497,0.0262993044407087,-1.715986493864865,2.568832335793743,-5.0,-5.344728473140423,-0.9719940445157034,0.5083412425385354,0.1,0.4,0.1,0.25,0.1,-5.2700367,-0.91539603,0.5321684
1753346053.7892826,0.1547207808416117,0.1303623186955117,0.149941885001298,0.1201134146906212,0.9997733644789152,1.6439904088978412,0.9444010226292918,-0.1609090600636738,0.0057563919447725,0.1320873294105215,-0.5783679327404427,0.6731844398364124,-2.1710251165485426,-5.365938870500047,-0.9699044524402218,0.5083491034771067,0.1,0.4,0.1,0.25,0.1,-5.342518,-0.89959604,0.5357484
1753346053.7984722,0.1549138222380483,0.130961569705403,0.1501605160621828,0.1207018492393383,0.9948554167923432,1.646933849145304,0.9426616226466222,-0.2758431693125017,0.1933763732295528,-0.1555560364768184,-1.795891313509885,2.611962471293418,-5.0,-5.35480426326011,-0.962164869552352,0.5094374915172994,0.1,0.4,0.1,0.25,0.1,-5.201258,-0.9357293,0.52938414
1753346053.807276,0.155110632534444,0.1315595935016074,0.1503801120685418,0.1212884944400513,0.990892646189227,1.648316252145637,0.94324475981252,-0.1776589366266689,0.032777388835594,0.0854677711688057,-2.1859160549022563,3.246900386463124,-5.0,-5.244663633112745,-1.0355197182982736,0.5044170698434396,0.1,0.4,0.1,0.25,0.1,-5.2764907,-0.95801616,0.52579534
1753346053.815716,0.1553112039298931,0.1321563663804495,0.1505724340004898,0.121886221555965,0.9886350240723109,1.646909744156038,0.94799577459034,-0.0949852380018942,-0.1025463328595584,0.2874089035932066,1.5224694648630643,-2.7892685572438767,3.889459771769687,-5.428157982145508,-0.960439984159749,0.5076001065091371,0.1,0.4,0.1,0.25,0.1,-5.477868,-0.88835967,0.5377833
1753346053.8241916,0.1555155284744121,0.1327518646878368,0.1507715768031002,0.1224833492563325,0.985640529047942,1.646682141241247,0.9509036153223984,-0.1688396043555368,0.016250977640668,0.1041873207726946,3.3989362033689696,-5.0,5.0,-5.510707655437527,-0.9342085303718144,0.5079141108612582,0.1,0.4,0.1,0.25,0.1,-5.428458,-0.8255358,0.54273707
1753346053.9215448,0.1557235980692555,0.1333460648201961,0.1509878573240169,0.1230738875554742,0.982221582979747,1.6471424529243268,0.952716505196763,-0.1743924672505797,0.0258363767191702,0.0876296595833899,3.0895026237076,-4.66820437751896,4.745512019851367,-5.395240855171887,-0.9831782966396004,0.5092158574678461,0.1,0.4,0.1,0.25,0.1,-5.411624,-0.8402891,0.54083174
1753346053.9306588,0.1559354044672362,0.1339389432254095,0.1512025573756719,0.1236645749478643,0.9791834240888452,1.646979290163708,0.9554235388104098,-0.1475487293434531,-0.0182891268022462,0.151741172320438,2.135528335525448,-3.221250428039477,2.764985720155801,-5.403219835923715,-0.9921846135845956,0.5090329183397293,0.1,0.4,0.1,0.25,0.1,-5.417815,-0.87325025,0.5406813
1753346053.939428,0.156150939273053,0.1345304764037482,0.1513978953729665,0.1242640950581852,0.9779215892433516,1.6439425849103215,0.9623954271177736,-0.0383814025246137,-0.1948931274040593,0.4139509521492077,4.275291971004321,-5.0,5.0,-5.5055321394708745,-0.9649778687679036,0.511477802924054,0.1,0.4,0.1,0.25,0.1,-5.6496124,-0.82877636,0.55316406
1753346053.948064,0.1563701939436225,0.1351206409088038,0.1515941027747512,0.1248660791472111,0.9764372179187264,1.6412548931205515,0.968749645921407,-0.0863846385550917,-0.1181440033281972,0.2933559944473783,5.0,-5.0,5.0,-5.640733765437777,-0.911394947204226,0.5164939578465955,0.1,0.4,0.1,0.25,0.1,-5.6386356,-0.8102307,0.541032
1753346053.9566717,0.1565931597884187,0.1357094133484172,0.1518482232903134,0.1254425080968056,0.9708911750408628,1.6451029597857316,0.9652262666751044,-0.3400479285316623,0.2908198991409207,-0.3225038172283894,-0.8738947579972383,3.810100069289354,-5.0,-5.423116885771322,-0.9837433633332096,0.517681702626275,0.1,0.4,0.1,0.25,0.1,-5.2678366,-0.97711754,0.5032646
1753346054.0551314,0.1568198279698166,0.1362967703856064,0.152122094837441,0.1260071843880832,0.9654815016779156,1.6487429104986544,0.9619831853705146,-0.2536455344349849,0.1522924420222067,-0.116441801798128,-5.0,5.0,-5.0,-5.106009179215675,-1.1539101994593948,0.5060788437784434,0.1,0.4,0.1,0.25,0.1,-5.085793,-1.0855875,0.51530504
1753346054.0646513,0.1570501895034433,0.1368826887394914,0.1523807004607403,0.12657762736198,0.9609794226467404,1.6509194507302165,0.9608804522468762,-0.2200533219487145,0.0977702176159192,-0.0377919473156041,-5.0,5.0,-5.0,-5.245201658066521,-1.101987090070032,0.5047319438339927,0.1,0.4,0.1,0.25,0.1,-5.103592,-1.096013,0.5152593
1753346054.0731206,0.1572842352585333,0.1374671451862162,0.1526228203099393,0.1271566076852699,0.9581157376307812,1.6504420465711869,0.963706509404939,-0.1221073325317756,-0.0609277536176414,0.1978126350148562,-1.4102786258863218,-0.1886435294515278,2.04107536751897,-5.343116428644724,-1.0664903574858715,0.5062832757503839,0.1,0.4,0.1,0.25,0.1,-5.3242264,-1.0304432,0.52435255
1753346054.0817945,0.1575219559582911,0.1380501165598708,0.1529111426994693,0.1277164175650182,0.9513075269079492,1.6562928083914328,0.9569016765856246,-0.4124799087419876,0.4057149073894973,-0.5102403762808566,-2.7280672819137277,2.3645192050264567,-2.5183063204416487,-5.317420955158652,-1.0585001274914527,0.5056920075134866,0.1,0.4,0.1,0.25,0.1,-5.0730233,-1.0916843,0.51205623
1753346054.0900807,0.1577633421802585,0.1386315797534079,0.1532329570658579,0.12826107365518,0.944065342453134,1.6628549715053187,0.9489699836806208,-0.3525576033089135,0.3103126938343727,-0.3690242785113173,-5.0,5.0,-5.0,-4.927507364219099,-1.2586561061675647,0.4911659487356364,0.1,0.4,0.1,0.25,0.1,-5.0015936,-1.1703645,0.5038809
1753346054.199919,0.158008384356688,0.1392115117195597,0.1535406111343666,0.1288107042393853,0.937725253905859,1.667975566031469,0.9431543182481668,-0.3112656225891427,0.2441628984104509,-0.2722310812878314,-5.0,5.0,-5.0,-5.027563908807903,-1.2237759377716315,0.4857581373548696,0.1,0.4,0.1,0.25,0.1,-4.996134,-1.1834042,0.50240314
1753346054.210834,0.1582570727749226,0.139789889471751,0.1538216358675463,0.1293711984447496,0.933624439022446,1.6694719564479277,0.9427644596936848,-0.1759946310289596,0.0248800677570865,0.0567694670025147,-1.3133204807726209,-0.3341217641792555,2.273118469934189,-5.153995667535815,-1.1794054918374983,0.4837449733990681,0.1,0.4,0.1,0.25,0.1,-5.194373,-1.0982375,0.50867593
1753346054.2198324,0.1585093975777802,0.1403666900850109,0.1540668747464332,0.1299475050970608,0.9318644287157656,1.6671753526023374,0.9480701572332164,-0.0626608023101217,-0.1589141219358453,0.3328438820663228,5.0,-5.0,5.0,-5.406132062222582,-1.06936838142061,0.4886927406566275,0.1,0.4,0.1,0.25,0.1,-5.5883217,-0.9219665,0.52870655
1753346054.2286096,0.1587653487639444,0.1409418906968804,0.1543051088838359,0.1305291826232763,0.9302288592989464,1.6646710205928656,0.95363257212016,-0.0890286709132466,-0.1166606951322582,0.2657706318772895,5.0,-5.0,5.0,-5.555604416879826,-1.005264508686857,0.4930016622572166,0.1,0.4,0.1,0.25,0.1,-5.5628033,-0.92213786,0.52463907
1753346054.2375813,0.1590249161883612,0.1415154685083199,0.1545639413559386,0.1311038510556196,0.9274511905628348,1.6639958433590865,0.956372693751946,-0.1564057336544758,-0.0087058097121072,0.0997430849198361,5.0,-5.0,5.0,-5.483677028154466,-1.04633728812185,0.4928131281934624,0.1,0.4,0.1,0.25,0.1,-5.474697,-0.917125,0.5169427
1753346054.3424828,0.1592880895626408,0.1420874007846116,0.1548339944831026,0.1316730248291657,0.9246119275055568,1.6634293057511362,0.9588778812982698,-0.1399177687894104,-0.0343944083477617,0.1347705033148175,2.697313996228376,-1.9215985251593644,0.5668013272401273,-5.396983446231945,-1.0973413928214273,0.4918973226807992,0.1,0.4,0.1,0.25,0.1,-5.425126,-0.9833554,0.5187277
1753346054.351194,0.1595548584554657,0.1426576648562618,0.1550857240674322,0.1322486570482291,0.9235281359464796,1.6600679161397445,0.9655375178016588,-0.0290021804211346,-0.2112416080837785,0.3985582201164026,3.479928123936676,-3.608442792948789,3.255793198002189,-5.485694544677494,-1.073521685684122,0.4955395779393595,0.1,0.4,0.1,0.25,0.1,-5.5991764,-0.9775699,0.5357554
1753346054.3596845,0.1598252122930037,0.1432262381198984,0.1553709005761434,0.1328122242079935,0.9193555673354976,1.6616180467803616,0.9647124869851288,-0.2668890975619218,0.1673354567072398,-0.1762120150199334,0.6548040728951974,0.5115283879149075,-2.8451658020231387,-5.516507652084553,-1.0539958184637508,0.4967780026645406,0.1,0.4,0.1,0.25,0.1,-5.218836,-1.0365835,0.5133438
1753346054.3683023,0.1600991403593278,0.1437930980391677,0.1556980233202789,0.1333572592192675,0.9137139858867196,1.6655193581322425,0.9602897049381688,-0.2912699802798349,0.2071555620847588,-0.2389101961562225,-5.0,5.0,-5.0,-5.1563414423203255,-1.2280998973019424,0.4872858339436685,0.1,0.4,0.1,0.25,0.1,-4.993168,-1.2428164,0.49518576
1753346054.3766344,0.1603766317968399,0.144358222145627,0.1560420062658128,0.1338938527252155,0.9070663370643608,1.6710405531666626,0.953354504127727,-0.3502593037857844,0.3020398504674066,-0.3858227214112495,-5.0,5.0,-5.0,-5.084003202156503,-1.2695600029803944,0.4801482244378766,0.1,0.4,0.1,0.25,0.1,-4.956632,-1.2794527,0.48905358
1753346054.4752457,0.1606576756067021,0.1449215880396356,0.1564139012803829,0.1344166221430102,0.899038310296354,1.6788163864646175,0.9428780281251272,-0.4234017362572826,0.422080343838981,-0.5750752599337955,-5.0,5.0,-5.0,-4.951712693659463,-1.3378289800926089,0.4706018672793629,0.1,0.4,0.1,0.25,0.1,-4.915925,-1.3209713,0.48333293
1753346054.4838164,0.1609422606492722,0.1454831733912425,0.1567706866247554,0.1349473332270392,0.8931510129706391,1.6831433433985297,0.9375912315089904,-0.259794822423009,0.157709648655366,-0.1744620457027026,-4.414875993709114,4.731625262683694,-5.0,-4.925596944041078,-1.3684186608448397,0.4631132870647371,0.1,0.4,0.1,0.25,0.1,-4.9748507,-1.2941387,0.4841839
1753346054.4929173,0.1612303756445451,0.1460429559410713,0.1570979604356643,0.1354898247037479,0.8886895462772243,1.685185495117392,0.9357173616960102,-0.215514144259303,0.087268944076526,-0.0710138236395958,0.9573941176081492,-3.4030384248457857,5.0,-5.174686608929336,-1.2566068617991988,0.4618722467372561,0.1,0.4,0.1,0.25,0.1,-5.142318,-1.1759325,0.49326372
1753346054.5014768,0.1615220091726004,0.146600913501203,0.1573971266813025,0.1360408905368853,0.886521723491257,1.683547887259699,0.9393767391821606,-0.0775544855238715,-0.1343627651044872,0.263050086140345,5.0,-5.0,5.0,-5.311972009072005,-1.206189041472146,0.4637081460882818,0.1,0.4,0.1,0.25,0.1,-5.5201693,-1.0585918,0.5028447
1753346054.5105486,0.1618171496740546,0.1471570239560546,0.1576838383937006,0.1365988034500391,0.8846744513970397,1.68137622906535,0.9438041841103976,-0.0984754876286303,-0.1021497140735139,0.2120833987426264,5.0,-5.0,5.0,-5.500514818037148,-1.125058621172241,0.4673455044697102,0.1,0.4,0.1,0.25,0.1,-5.497225,-1.0596648,0.4989745
1753346054.612236,0.1621157854505194,0.1477112652632569,0.1579632652248034,0.1371608718325817,0.8839176058539888,1.6774674055015455,0.9508067953225408,-0.0200676620801646,-0.2267525846213149,0.397721631940018,5.0,-5.0,5.0,-5.516078559990595,-1.1306406571438044,0.4701014637719488,0.1,0.4,0.1,0.25,0.1,-5.6149483,-1.0614494,0.512299
1753346054.621113,0.1624179046650655,0.1482636154545269,0.1582507866731317,0.1377196802765096,0.8823449707704791,1.6748783481708551,0.95572412178166,-0.0978861707141584,-0.1015715260801937,0.2034651262363435,5.0,-5.0,5.0,-5.59350506823305,-1.1047697868984017,0.473339338886493,0.1,0.4,0.1,0.25,0.1,-5.5211515,-1.0612346,0.4990995
1753346054.6296306,0.1627234953426917,0.1488140526365395,0.1585669330175936,0.1382669880272767,0.8793583362632376,1.6745495661493388,0.9571596563375852,-0.1675161303724333,0.0096183244189081,0.0325720338687955,1.1581504452836988,0.5711622386832635,-3.2509510741886576,-5.448075996162086,-1.1822989290193124,0.4716910604297413,0.1,0.4,0.1,0.25,0.1,-5.29801,-1.1461742,0.49521932
1753346054.637786,0.1630325453707995,0.1493625549917948,0.1588929414711047,0.1388087970749468,0.8763839319071408,1.674218605222693,0.958529865823444,-0.1454630220540839,-0.0244115963084192,0.08029650658861,-1.977633892464814,5.0,-5.0,-5.361362565331573,-1.235397693467039,0.4695328581286366,0.1,0.4,0.1,0.25,0.1,-5.2859354,-1.2537539,0.46758175
1753346054.6460378,0.1633450424996733,0.1499091007794829,0.1592193292103486,0.1393496254836851,0.8735643995459322,1.6736443381626067,0.9602077492930616,-0.1419629104081296,-0.0301226675361423,0.0860965344495639,-3.3091336704148926,5.0,-5.0,-5.397527423170278,-1.2311173567257672,0.469451019622154,0.1,0.4,0.1,0.25,0.1,-5.212732,-1.3152422,0.47226933
1753346054.744953,0.1636609743429658,0.150453668336346,0.1595473912004903,0.1398894340450273,0.8709402150214798,1.672768057278085,0.9622767278376144,-0.1301323747940714,-0.0483267213840511,0.1101745764403593,-2.5436549785990747,3.8750642519855214,-4.118655752361599,-5.410106168740921,-1.2360143903903065,0.4692357227983512,0.1,0.4,0.1,0.25,0.1,-5.2498655,-1.3051496,0.4762856
1753346054.753498,0.1639803283781892,0.1509962360775365,0.1598707821033955,0.1404297768014204,0.8688093177974622,1.671123091229794,0.9654661027009928,-0.1011662768900882,-0.0935587696204923,0.1768699684582226,-0.5651983717544729,0.81371154719583,-0.1155313404912585,-5.446557620701896,-1.2334473011916225,0.469755612389406,0.1,0.4,0.1,0.25,0.1,-5.3529367,-1.2710327,0.47951773
1753346054.7622457,0.1643030919472111,0.151536782497473,0.1601748200234281,0.1409755322457442,0.8683832124175438,1.6668076916945491,0.9726032785592588,0.002592038029398,-0.2562123171131059,0.4173781924746773,3.406754579696336,-5.0,5.0,-5.552236186542265,-1.2045355819372554,0.4733206372614523,0.1,0.4,0.1,0.25,0.1,-5.6084003,-1.170907,0.516467
1753346054.7711916,0.1646292522567568,0.1520752861706927,0.1604668157091991,0.1415267794964153,0.8686873496631762,1.661351628428312,0.9813765413535744,0.0191607813660084,-0.2820415418468217,0.4522548512184492,5.0,-5.0,5.0,-5.722674217233494,-1.1438974215047404,0.4802320786987537,0.1,0.4,0.1,0.25,0.1,-5.7494974,-1.1035354,0.5140297
1753346054.7807243,0.164958796378916,0.1526117257527001,0.1607450596582895,0.1420840284544062,0.8703886962894206,1.6537415157312074,0.9933048057554332,0.1064055711398139,-0.4165307584116429,0.65006231498445,5.0,-5.0,5.0,-5.808020899917857,-1.1264629537493929,0.4875716871819541,0.1,0.4,0.1,0.25,0.1,-5.934581,-1.116832,0.5297986
1753346054.885552,0.1652917112516553,0.1531460799808138,0.1611335229916804,0.1425988092159496,0.8629604286025029,1.6604179381784836,0.9836705903716124,-0.5231320621288289,0.568601839720196,-0.8348946853931327,-5.0,5.0,-5.0,-5.593661355014935,-1.1989836768566586,0.4840038214364283,0.1,0.4,0.1,0.25,0.1,-4.913958,-1.4248004,0.46297047
1753346054.8942027,0.1656279836793359,0.1536783276750087,0.1615848123865378,0.1430899151807069,0.8550091392450497,1.6679554809178327,0.9727294048962044,-0.3657041522759375,0.3251955970848906,-0.4688540610741237,-5.0,5.0,-5.0,-4.745239915060047,-1.585356254926231,0.461010262351018,0.1,0.4,0.1,0.25,0.1,-4.950326,-1.4512011,0.45769447
1753346054.9025128,0.1659676003332369,0.1542084477387556,0.1619774539862253,0.1435989948489921,0.8506831077973931,1.6698407016214092,0.970231409691766,-0.1743009218437883,0.025894222739428,-0.022492258210104,-5.0,5.0,-5.0,-5.076731148171617,-1.4695397612705858,0.4567002429286465,0.1,0.4,0.1,0.25,0.1,-5.081627,-1.4537687,0.462968
1753346054.911364,0.1663105477520832,0.1547364191598579,0.1623356902490883,0.1441179703114952,0.8482385733630903,1.668775675705281,0.9720978024793672,-0.1084064154793682,-0.077869755993226,0.1299011880970129,0.6958026855491317,-3.2853436116856134,5.0,-5.393576001144638,-1.3442821490037729,0.4599487355731989,0.1,0.4,0.1,0.25,0.1,-5.3513308,-1.336215,0.47294238
1753346054.9210396,0.1666568123425792,0.1552622210112835,0.1626914370465769,0.144638651676638,0.8459767880034677,1.6674192902594127,0.974337813642306,-0.1164407582649401,-0.0655003181934081,0.1081814329895702,5.0,-5.0,5.0,-5.487246653304927,-1.3124910733819064,0.4611622139164276,0.1,0.4,0.1,0.25,0.1,-5.533191,-1.1749367,0.47254458
1753346055.0206718,0.1670063803799478,0.1557858324519953,0.1630598779629901,0.1451550716592874,0.8431449771314896,1.6669653998248175,0.9751491692798436,-0.1516337503839977,-0.0096426346779264,0.0204056307987692,5.0,-5.0,5.0,-5.457645414562809,-1.3341428087203877,0.459914395572862,0.1,0.4,0.1,0.25,0.1,-5.4770255,-1.1762621,0.4670185
1753346055.0301874,0.1673592380084742,0.1563072327277765,0.1634370368378164,0.1456675663372335,0.8401908600568109,1.6667143834959868,0.975596981900798,-0.148972833142588,-0.0132723200433196,0.0231226466553973,3.394824147027077,-3.024537079808315,2.212726734797016,-5.409670376049789,-1.3675708721737625,0.4577049051478574,0.1,0.4,0.1,0.25,0.1,-5.4261265,-1.2302476,0.4672201
1753346055.0384989,0.1677153712420551,0.1568264011720537,0.1638238360829449,0.1461757760854095,0.8366670033303264,1.6673706670056945,0.9746275763751856,-0.1874082161819589,0.0477804991347867,-0.071344046691761,0.948159221083265,0.4039869812431225,-2.7664629955241136,-5.393997571971943,-1.3858437892861244,0.4547746288215422,0.1,0.4,0.1,0.25,0.1,-5.282797,-1.2948343,0.4656135
1753346055.0467813,0.1680747659647531,0.1573433172067158,0.1642142364669797,0.1466809777384688,0.8334179896402687,1.667615400870332,0.9742136997902692,-0.1575379918905027,0.0019944553490598,-0.0058572932637502,-0.266714921190649,2.0054057779652257,-5.0,-5.354760653212419,-1.4165797929381494,0.451594010309785,0.1,0.4,0.1,0.25,0.1,-5.2884674,-1.3436452,0.4665158
1753346055.0553634,0.1684374079313564,0.1578579603429298,0.1646023411764013,0.1471860477490655,0.8305493966733565,1.6672688686469543,0.9746184008233958,-0.1415251185284194,-0.0231296927014114,0.0282884154815916,0.3557469121819187,0.7747589287645362,-3.0575763167556707,-5.409141155808281,-1.406004743160369,0.4504821532663369,0.1,0.4,0.1,0.25,0.1,-5.334322,-1.347608,0.464087
1753346055.1578808,0.1688032827679429,0.1583703101819527,0.1649918243084795,0.1476896989652431,0.827803996097285,1.6667448616674627,0.975229198534742,-0.138274557086642,-0.0272007986270179,0.0315116115307587,1.194735231905688,-0.7485999497400626,-0.7013770712858585,-5.435560739884941,-1.4053180235815617,0.4494321328503251,0.1,0.4,0.1,0.25,0.1,-5.367802,-1.3436007,0.46019095
1753346055.1665237,0.1691723759724506,0.1588803464159402,0.16538398377497,0.1481912200814073,0.8250844257500634,1.6661926080188902,0.9758272871772448,-0.1375606479866196,-0.0278261345648746,0.0296948601892095,1.832693868016546,-1.9128599142624787,1.1166694195684823,-5.443896396193061,-1.4154460382686422,0.4476934511684637,0.1,0.4,0.1,0.25,0.1,-5.390724,-1.3424009,0.4562638
1753346055.1751482,0.169544672915252,0.1593880488287519,0.1657795168507528,0.148690696117245,0.8223824366834006,1.665626215997959,0.97638764043624,-0.136617880546423,-0.0285689963100311,0.0277597295614057,1.7846501955264182,-1.9698250258767904,1.2685945624158357,-5.4478152647280815,-1.4263487765394969,0.4459223218620691,0.1,0.4,0.1,0.25,0.1,-5.3931503,-1.3558239,0.4537462
1753346055.1835709,0.1699201588397339,0.1598933972967518,0.1661787444496468,0.1491879832831718,0.8196991587037094,1.6650429092789418,0.9769117314098266,-0.135670200746491,-0.0294597425492547,0.0259581626240429,1.5405446551684463,-1.6878422868842722,0.8970496612278487,-5.452414954690366,-1.4372177382036897,0.4442231530143143,0.1,0.4,0.1,0.25,0.1,-5.389517,-1.3729248,0.45168835
1753346055.192243,0.1702988188628828,0.160396371789607,0.1665804504198045,0.1496829858101301,0.8170629201394862,1.6644049051567993,0.9774653179971068,-0.1328532325067471,-0.032802459854149,0.0284610743765202,1.365352762451149,-1.4878986225749693,0.6446090501307922,-5.458164678482532,-1.4478313960491316,0.4424815954559202,0.1,0.4,0.1,0.25,0.1,-5.392668,-1.3891275,0.44955438
1753346055.2958772,0.1706806379758741,0.1608969523710807,0.1669865605007103,0.1501755226226787,0.8143995824135372,1.6638207838818833,0.9778676967388282,-0.1355024962378121,-0.0282217746738185,0.0177123620129869,1.1641682615268656,-1.2310125273914845,0.2813637924386644,-5.464235684168269,-1.458920346859066,0.4405711609663136,0.1,0.4,0.1,0.25,0.1,-5.384046,-1.4033437,0.44731292
1753346055.3055708,0.1710656010446677,0.1613951191998228,0.1673979487288734,0.1506646986240756,0.8116737572424125,1.6633583409203514,0.97802382160016,-0.1388248172235434,-0.0215584000335075,0.0047209491569445,0.8352048065986382,-0.750898534241973,-0.435205440870184,-5.460741014281688,-1.471944254357896,0.4389361005386551,0.1,0.4,0.1,0.25,0.1,-5.3709946,-1.4212465,0.44512284
1753346055.3143792,0.1714536928106075,0.1618908525301566,0.1678141239339306,0.1511515732313891,0.8088853331953537,1.66300128579079,0.977964616179097,-0.1419458700758283,-0.0166231301452599,-0.0055457370534675,0.4438763106691147,-0.17256702635524,-1.290189840258634,-5.457603747288677,-1.4874298578112657,0.4365612247581027,0.1,0.4,0.1,0.25,0.1,-5.354026,-1.4399717,0.44289234
1753346055.3228135,0.1718448978910259,0.1623841327128609,0.1682346289044233,0.1516355458808383,0.806099421863993,1.6626661792254784,0.9778048386347044,-0.1408214656872039,-0.0167155150731358,-0.0090579619787402,0.1582019827496906,0.2522880701551316,-1.9268244308957043,-5.455847791465649,-1.50137238372337,0.4339750098274706,0.1,0.4,0.1,0.25,0.1,-5.3505745,-1.4580808,0.4410897
1753346055.3312075,0.1722392007798543,0.1628749401959492,0.1686572252532156,0.1521164923247966,0.8034084571249552,1.6622046017090706,0.977778434007618,-0.1348931163357866,-0.0250515941615484,0.0008306531017384,0.1945474083406329,0.1968456736003468,-1.832870303417292,-5.464764650159276,-1.5123022971017217,0.4319626322830029,0.1,0.4,0.1,0.25,0.1,-5.366538,-1.469704,0.43874812
1753346055.4381628,0.1726365858482371,0.1633632555254449,0.1690828095354223,0.152595550018263,0.8006973791718455,1.6617882411989058,0.9776298014586836,-0.1380300061081597,-0.0195218322846172,-0.0102538194771123,0.2833062198861419,0.0470979771337222,-1.5838270744605092,-5.474753186244789,-1.5215942517917869,0.4295629962605957,0.1,0.4,0.1,0.25,0.1,-5.36675,-1.4779212,0.43526775
1753346055.4468508,0.1730370373451514,0.1638490593461515,0.1695108421165563,0.1530725660225904,0.7980292173373581,1.6613247450497668,0.9775045633399324,-0.1342393032463064,-0.0243227207706744,-0.0053263785225168,0.3604670498854694,-0.0796460316452862,-1.352664026668528,-5.474855282996051,-1.5349781858087204,0.4270040364897653,0.1,0.4,0.1,0.25,0.1,-5.3808165,-1.4885613,0.4322948
1753346055.4548433,0.173440539398031,0.1643323324024208,0.169944033407132,0.1535456333120891,0.7954637204241172,1.6607272815945089,0.9774695311647984,-0.1286149380474763,-0.0317148850146524,-0.0008596681699209,0.5556785453870687,-0.3812794166843644,-0.9449062594337572,-5.48740803774684,-1.544048212087817,0.4249473946108274,0.1,0.4,0.1,0.25,0.1,-5.4027205,-1.4947139,0.43081588
1753346055.4633791,0.1738470760133963,0.1648130555389156,0.1703809936909951,0.1540162354140835,0.7928402353452453,1.6602363061718308,0.9772444128298586,-0.1341607854443676,-0.022422940142426,-0.0147752705494529,0.567253837358149,-0.396998950339464,-0.9438529799982396,-5.496141938670649,-1.5525041292117814,0.423631813055954,0.1,0.4,0.1,0.25,0.1,-5.395172,-1.5049134,0.4268188
1753346055.471911,0.1742566310774873,0.1652912097013689,0.170819593336465,0.1544855016040797,0.7902306548312995,1.659740835746962,0.9769786769573372,-0.1315509977264454,-0.0255526563887371,-0.0132167715150905,0.4972606679427256,-0.2932249384710435,-1.0523097529195995,-5.492552351818115,-1.5693301460827052,0.4199026754666878,0.1,0.4,0.1,0.25,0.1,-5.4023557,-1.5179472,0.4241441
1753346055.5820968,0.1746691883569028,0.1657667759373395,0.1712605612846121,0.1549524855377495,0.787754585835257,1.6590568020225525,0.9769304641647092,-0.1235347720662125,-0.037033771178758,0.0006880227095184,0.6185423529055363,-0.4884957845988367,-0.7324007085856336,-5.5041227232536025,-1.5780118011132809,0.4177847665112043,0.1,0.4,0.1,0.25,0.1,-5.4271355,-1.5276875,0.42186284
1753346055.5924168,0.175084731499244,0.1662397353969628,0.1717034887871581,0.1554173074331301,0.7853976819687455,1.658205386855617,0.9770704413386392,-0.1181101189039176,-0.0445964700467036,0.0088930062165409,0.9096944184553282,-0.9492313843952652,-0.0180116223437289,-5.522899228372808,-1.584026434161489,0.415886737924035,0.1,0.4,0.1,0.25,0.1,-5.453084,-1.532677,0.41893038
1753346055.6015632,0.1755032440337623,0.1667100693336983,0.1721490644725525,0.1558798159998039,0.7830957451851834,1.6572889076440434,0.9772480805446134,-0.1161348137534591,-0.0465911343101631,0.0088874959370142,1.1941572406785397,-1.3926175590015188,0.6332549114721521,-5.536109308280252,-1.5923205189722327,0.4138959691196878,0.1,0.4,0.1,0.25,0.1,-5.472088,-1.5368322,0.4158092
1753346055.6109178,0.1759247093720121,0.1671777591050724,0.1727531610817434,0.1562866146318149,0.7689904470444351,1.6752705355636337,0.948689787431913,-0.8956992228611544,1.2024906873883203,-1.890727997368693,-5.0,5.0,-5.0,-5.127174767319669,-1.763327979923193,0.3988784405978545,0.1,0.4,0.1,0.25,0.1,-4.8892846,-1.8113592,0.37369362
1753346055.6195817,0.1763491108085088,0.1676427861734175,0.1733877667007976,0.1567030734840813,0.7584989396474036,1.6875682276897968,0.9286698351095228,-0.4200972803705288,0.4466922834266587,-0.7465088579690702,-5.0,5.0,-5.0,-4.224658946971606,-2.220140780399638,0.3614423689688392,0.1,0.4,0.1,0.25,0.1,-4.972886,-1.8272413,0.36912757
1753346055.7272935,0.1767764315213902,0.1681051321066066,0.1738921249330073,0.1571475358125515,0.754484937460303,1.689537265965059,0.924298022027686,-0.1371481376658501,-0.0056194532771899,-0.0614744063914716,1.2266071977956257,-4.110196473910099,5.0,-5.043205976596197,-1.859429350619516,0.359238837512024,0.1,0.4,0.1,0.25,0.1,-5.336091,-1.6763196,0.38607663
1753346055.7363343,0.177206654573084,0.1685647785787841,0.1743473277506296,0.157597724868375,0.7524915652090433,1.6882655822256027,0.9247980315515112,-0.0899501205950305,-0.0819551759292411,0.0516517708297205,5.0,-5.0,5.0,-5.476005708785304,-1.6663606647752935,0.3622796996705303,0.1,0.4,0.1,0.25,0.1,-5.6004286,-1.5312669,0.3855357
1753346055.7451532,0.1776397629109789,0.169021707371092,0.1748042712388194,0.1580478838344127,0.7504476921621407,1.6870837845586593,0.9250922676867996,-0.1076783110882098,-0.0527662528186471,0.0035925690305246,5.0,-5.0,5.0,-5.5361821345024245,-1.6465954725068366,0.3614446089313933,0.1,0.4,0.1,0.25,0.1,-5.571866,-1.5355532,0.38056576
1753346055.7539835,0.1780757393681002,0.1694759003723921,0.1752711468153974,0.1584950387089199,0.7481843317472343,1.6862804666684748,0.9247368931412496,-0.1167647813306798,-0.0366528248487043,-0.0246856111779197,5.0,-5.0,5.0,-5.509707709832868,-1.671947200992732,0.358917917249561,0.1,0.4,0.1,0.25,0.1,-5.559579,-1.5429815,0.3766092
1753346055.7627912,0.1785145666637906,0.1699273395799838,0.1757434476605885,0.1589391322301042,0.7458296005115145,1.6856537463621724,0.9240611774237968,-0.1200268463078474,-0.0298953449163804,-0.0372324250664796,3.735497144832588,-3.4732315918766448,2.8849552626441675,-5.4997500238981365,-1.6918248226395238,0.3559966907178725,0.1,0.4,0.1,0.25,0.1,-5.5105724,-1.5873619,0.37482697
1753346055.8682115,0.1789562274043951,0.1703760071003178,0.1762189295269951,0.1593804247006967,0.743477987713345,1.6850526052763086,0.9232894461387716,-0.1188255164482381,-0.0302662231745801,-0.0397490796656739,2.4689817215812275,-1.8072277255286944,0.5404924531534983,-5.500651732648682,-1.7076647545452266,0.3526041746673053,0.1,0.4,0.1,0.25,0.1,-5.471293,-1.6302755,0.37375134
1753346055.8774433,0.1794007040839503,0.1708218851497053,0.1766976635647828,0.1598188658204956,0.7411626719417767,1.684422917848074,0.9224990136030988,-0.1167992297673223,-0.0320143017373164,-0.0402122853645019,1.8797369301912343,-1.1455470292087278,-0.3097842356468376,-5.50816724362466,-1.7193953508502624,0.3496733596315474,0.1,0.4,0.1,0.25,0.1,-5.459076,-1.6581299,0.3713246
1753346055.8861892,0.1798479790848783,0.1712649560550228,0.1771794247400966,0.1602545526545382,0.7388853003276561,1.6837618228985352,0.9216960398584816,-0.1149046207212173,-0.0335956585804019,-0.0408942263015793,1.6118936186770914,-0.945132334868448,-0.4918308532085163,-5.517489165226234,-1.7316919747064867,0.3464082195550416,0.1,0.4,0.1,0.25,0.1,-5.458639,-1.6784353,0.36826932
1753346055.8949869,0.1802980346786851,0.1717052022544126,0.1776641727833151,0.1606875540156697,0.7366444705176575,1.6830718144245074,0.9208782405881348,-0.1130689521651463,-0.035025781395636,-0.0416605273605996,1.4648237046044492,-0.8937620864155219,-0.4777225736802888,-5.526064151763036,-1.7430324185402437,0.3433925969549494,0.1,0.4,0.1,0.25,0.1,-5.4627233,-1.6955731,0.36503273
1753346055.9038076,0.1807508530266633,0.1721426062979791,0.1781517073277539,0.1611176924500003,0.7344508707851816,1.6823377814468674,0.9200672792830796,-0.1105094135621375,-0.0375007993401761,-0.0409694533447166,1.3691580154518346,-0.8848240281366941,-0.4151041715635636,-5.535257217379469,-1.7544754483502607,0.3403236355155121,0.1,0.4,0.1,0.25,0.1,-5.470665,-1.7111074,0.36186403
1753346056.008317,0.1812064161805989,0.1725771508484801,0.1786404100313675,0.1615453908863486,0.7324228871796996,1.68136343945843,0.9195650938908332,-0.100354852125897,-0.0526180194573433,-0.0207698393810907,1.4979706304385192,-1.2130723810074555,0.1510115457865422,-5.549369441576132,-1.7628252519427836,0.3377376754749224,0.1,0.4,0.1,0.25,0.1,-5.50333,-1.7229049,0.35924578
1753346056.0172374,0.1816647060834833,0.1730088186820145,0.1791300537252433,0.161970848343043,0.7305046449374684,1.6802393791630628,0.9192354631973956,-0.0962047174353417,-0.0579043471569197,-0.0155171042419088,1.747000897773864,-1.71811159826559,0.9814511463330796,-5.571612022011665,-1.7676306435818616,0.3351590463297385,0.1,0.4,0.1,0.25,0.1,-5.5289307,-1.7305341,0.35562983
1753346056.0260966,0.1821257045702282,0.1734375926887044,0.1796222047085612,0.162393718345347,0.7286206162394929,1.679090062874724,0.918887700330752,-0.0952107370898155,-0.0579627776903413,-0.0183106457657901,1.8452850330775896,-1.9587129067458369,1.4002980088214787,-5.584124915421473,-1.7775558622370589,0.3324430589175524,0.1,0.4,0.1,0.25,0.1,-5.5425005,-1.7401377,0.35199383
1753346056.035071,0.1825893933683863,0.1738634558733738,0.1801175026894522,0.1628135097856712,0.7267551828941852,1.677945340602851,0.918473095004758,-0.0942853415438124,-0.0576428060009187,-0.0218708044528583,1.7556787818133028,-1.869673010249546,1.302688114611696,-5.592496263175244,-1.7899136663698048,0.3296486082073621,0.1,0.4,0.1,0.25,0.1,-5.549036,-1.753172,0.34890014
1753346056.0437157,0.1830557540988752,0.1742863913562217,0.1806167159566976,0.1632303323321605,0.724907424615874,1.676802332894113,0.9179895087162157,-0.0933996963047721,-0.0576285845771221,-0.0253386690720606,1.532769895423012,-1.548716378406341,0.8267438531910769,-5.600982679637369,-1.802308280594531,0.3269061677360187,0.1,0.4,0.1,0.25,0.1,-5.5495796,-1.7681935,0.3463164
1753346056.1537132,0.1835247682767061,0.1747063823734919,0.1811185670855373,0.1636447321578581,0.7230826250349269,1.675652064699013,0.9174708235884927,-0.0921533482886065,-0.0581139163883537,-0.0265961237496577,1.3221487545822246,-1.2431309407928692,0.3874067372230347,-5.609001926382677,-1.8140665113515104,0.324140103967293,0.1,0.4,0.1,0.25,0.1,-5.5517616,-1.7837912,0.34333414
1753346056.162777,0.1839964173117162,0.1751234122781366,0.1816223881670075,0.1640582244711845,0.7212701931190616,1.674495776932228,0.916922058606308,-0.0917164474850922,-0.0583643392903824,-0.0281974364145593,1.1454333838210913,-1.0138058730431307,0.1002748623216197,-5.616984402299119,-1.826336985474709,0.3208142565006954,0.1,0.4,0.1,0.25,0.1,-5.552828,-1.7982675,0.33988935
1753346056.1716173,0.1844706825093059,0.175537464540477,0.1821587225103363,0.1644617172620346,0.7172911388773276,1.6769966315016256,0.9107005486966528,-0.2348890735834502,0.1833220700438524,-0.4026118712765116,-2.4635277951207444,4.968936594730101,-5.0,-5.548559606493646,-1.8746572707908864,0.3135949610957813,0.1,0.4,0.1,0.25,0.1,-5.316101,-1.8958969,0.30610916
1753346056.180304,0.1849475450711796,0.1759485227488579,0.1827037780715591,0.1648601129080308,0.7140360578345668,1.678350925334092,0.9061665530675328,-0.1434576905726652,0.0339311075041158,-0.1769254272422463,-4.905241787900314,5.0,-5.0,-5.400620844162715,-1.97489846672965,0.3050779114930088,0.1,0.4,0.1,0.25,0.1,-5.284846,-2.0163918,0.313837
1753346056.1892276,0.1854269860960906,0.1763565706102986,0.1832263752502403,0.1652600813825038,0.7120250713573186,1.6776732669163008,0.904689874792108,-0.089179269522044,-0.0548087344524932,-0.0436782764230426,-2.760881753435504,2.289637890808157,-1.682518583771234,-5.558234980763921,-1.908393829778233,0.3027345306692141,0.1,0.4,0.1,0.25,0.1,-5.4643784,-1.9745921,0.31699532
1753346056.3046682,0.1859089865805906,0.1767615919511385,0.1837414507361834,0.1656593532129972,0.7104117734797575,1.6763635740546892,0.9041293314298504,-0.0794682400923543,-0.0695303512940711,-0.0237449270201163,0.4546641404650566,-2.401388990932131,4.852784386623517,-5.644449765316609,-1.8793209187937567,0.3004676884354986,0.1,0.4,0.1,0.25,0.1,-5.611196,-1.9133369,0.31078005
1753346056.3142793,0.186393527419783,0.1771635707176781,0.1842587531965573,0.1660563391393032,0.7088058862445252,1.67507372366202,0.9034840559089492,-0.0819401461699233,-0.0637308222540669,-0.0354144841046758,3.0538613273235464,-5.0,5.0,-5.6634401892545725,-1.8855568228207769,0.2975702541645566,0.1,0.4,0.1,0.25,0.1,-5.6466312,-1.8389213,0.32259673
1753346056.3235557,0.1868805894080798,0.1775624909768156,0.18478006321358,0.1664503734112927,0.7071689220221427,1.673872023418074,0.9026478611591908,-0.0832375088310916,-0.0596757154170331,-0.0444693895453586,3.207369498118323,-5.0,5.0,-5.6666917738556055,-1.900957819932487,0.2943218366072412,0.1,0.4,0.1,0.25,0.1,-5.6593485,-1.8420017,0.31831998
1753346056.3318532,0.1873701532399632,0.1779583369166782,0.1853058781425386,0.1668402656526405,0.7055451522572189,1.672696574274977,0.90169508761285,-0.0819711860611396,-0.0591690600229929,-0.0494069751630721,2.6067888964660693,-3.8793271295486527,3.514652172115983,-5.673046034767909,-1.9144545203207104,0.2913665933545332,0.1,0.4,0.1,0.25,0.1,-5.6524267,-1.8622698,0.31523257
1753346056.3406012,0.1878621995107504,0.1783510928472488,0.185832933100097,0.167227919431317,0.7039368528528326,1.6715218942425305,0.9007201248262102,-0.0813352638567168,-0.0592743186826039,-0.0493645728414018,2.0854812929984075,-2.920831404715277,2.2776338955840867,-5.683387833181813,-1.9272500791269485,0.2881539394384477,0.1,0.4,0.1,0.25,0.1,-5.6452885,-1.8823577,0.31096816
1753346056.4530046,0.1883567087173631,0.1787407432009883,0.1863612528760245,0.1676137358692236,0.702358557033121,1.6703315781604309,0.8997181568080417,-0.0795472078713199,-0.0602767076193449,-0.0511581344445527,1.7490149719523,-2.3036907584986324,1.55342720145846,-5.691753188815015,-1.9401071411338808,0.2839564265868801,0.1,0.4,0.1,0.25,0.1,-5.648826,-1.898737,0.3071826
1753346056.4625878,0.1888536612591004,0.1791272725334519,0.1868932361534742,0.1679961782382197,0.7008157572246996,1.6691227840660483,0.8986786073014504,-0.0777476150474712,-0.0611942142828128,-0.0530889449635491,1.5372302269540683,-1.8975051115469943,1.0736007193049475,-5.703004966350452,-1.951499957494009,0.2808716908817593,0.1,0.4,0.1,0.25,0.1,-5.655897,-1.9128022,0.30352318
1753346056.4713726,0.1893530374384159,0.179510665523902,0.187429268368197,0.1683750335379939,0.6993098935833745,1.6678945569138612,0.8975971674459546,-0.0758563300187111,-0.062200862954619,-0.0552624142739547,1.390504774014649,-1.600514335642904,0.6946714826947762,-5.714638708916098,-1.9629518021570045,0.2777913942252799,0.1,0.4,0.1,0.25,0.1,-5.6644955,-1.9254566,0.30015182
1753346056.4802985,0.1898548174616979,0.1798909069759151,0.1879715721524344,0.1687499051074546,0.6975900629012816,1.667073310504161,0.8958369685580312,-0.0905606283153281,-0.0349992895856399,-0.0994511789352748,0.8922338207254068,-0.6978618870079679,-0.6509002525841886,-5.718005649133384,-1.9786933428492024,0.2741837561394239,0.1,0.4,0.1,0.25,0.1,-5.6212234,-1.9437691,0.29447478
1753346056.4895382,0.1903589814400547,0.1802679818179843,0.1885163396043861,0.1691219407045798,0.6959996334396517,1.6660710208818963,0.8943045661321081,-0.0775308380661992,-0.0552623912093845,-0.0709217317109864,0.5641332384576343,-0.1005169553779598,-1.5021419861696454,-5.712612643480099,-2.000940445169745,0.2698948882616276,0.1,0.4,0.1,0.25,0.1,-5.6451,-1.9616057,0.2930527
1753346056.6024864,0.1908655093901022,0.1806418751041164,0.1890572365603706,0.1694919562549861,0.6947810562129426,1.664476749662384,0.8936344027193245,-0.0569429758963732,-0.0882440046144745,-0.0226313183524819,1.0842799930368852,-0.9606859676855104,-0.1022955518537769,-5.749151054009785,-2.0002001928928794,0.2665813438469134,0.1,0.4,0.1,0.25,0.1,-5.723209,-1.9656547,0.29109275
1753346056.611899,0.1913743812347566,0.1810125720144247,0.1895989208664705,0.1698595447088761,0.6935927397006215,1.6628656250987794,0.8929337547721078,-0.0612229719650164,-0.0792995424016371,-0.0393608744262269,1.6421305133154958,-1.9011153221656731,1.409550651100341,-5.783920327557519,-1.999010121384848,0.2637237736783859,0.1,0.4,0.1,0.25,0.1,-5.7470984,-1.964797,0.28496608
1753346056.6215298,0.1918855768040297,0.1813800578557159,0.1901450504306588,0.1702239322834296,0.6923474070892193,1.6613935288943795,0.8919677015428406,-0.0636814364699963,-0.0728422326835541,-0.0517957214399135,1.751087579127093,-2.078632126043496,1.7282634611925438,-5.785606273385413,-2.015786079240593,0.2604256789615453,0.1,0.4,0.1,0.25,0.1,-5.7565794,-1.9732664,0.28015432
1753346056.6303716,0.1923990758358287,0.1817443180620732,0.190694137394609,0.1705847997956433,0.6911059422876987,1.6599588605987423,0.8908922269855893,-0.0626748812073526,-0.0723413348138509,-0.0552313966719505,1.480857107816321,-1.5995332698639153,1.0304756854246038,-5.792540911534785,-2.0316369670263668,0.2568010645073871,0.1,0.4,0.1,0.25,0.1,-5.7579684,-1.9887908,0.27691537
1753346056.6393795,0.1929148579767592,0.182105338195433,0.1912457345973803,0.1709423740944184,0.6899122161574207,1.658485298890538,0.889820227695082,-0.059828261369122,-0.075067487794954,-0.0539490998241594,1.1788774508825273,-1.06471298434025,0.2322803631199191,-5.8048823392576026,-2.0439729946510146,0.2533512191713516,0.1,0.4,0.1,0.25,0.1,-5.761856,-2.0048652,0.27420798
1753346056.7520556,0.193432902782932,0.1824631039461575,0.1917985309013441,0.1712967646062354,0.6887609630927156,1.656982674690395,0.8887535647713001,-0.0578899652273093,-0.0761637611370752,-0.0539825633269245,1.0867551345295192,-0.8867131895129464,-0.0004905167830743,-5.819030290001549,-2.054620205207287,0.2500227266371004,0.1,0.4,0.1,0.25,0.1,-5.7729797,-2.0177422,0.27048007
1753346056.7612054,0.1939531897207732,0.1828176011336017,0.1923559988054351,0.1716463359295573,0.6876697870635451,1.6554355063005266,0.8876554069760137,-0.0545146557195361,-0.0787617568369567,-0.0560462410557694,1.1005877361846894,-0.8706051858339126,-0.0615783434557382,-5.833652905896266,-2.0662285395713567,0.2466827343452311,0.1,0.4,0.1,0.25,0.1,-5.7910247,-2.0269523,0.26805985
1753346056.7700548,0.1944756981678382,0.1831688157066758,0.1929151720848967,0.171994372322092,0.6865972603865215,1.6538724648853136,0.8865718725665613,-0.0543121203351061,-0.079020015780728,-0.0544478186181535,1.08752072591618,-0.855234604497523,-0.0706084963930961,-5.848252894496771,-2.0761275724749813,0.2440359953806276,0.1,0.4,0.1,0.25,0.1,-5.7987375,-2.0386753,0.2633285
1753346056.779531,0.1950004074136297,0.1835167337444017,0.1934741228513311,0.1723411112997213,0.6855612633371877,1.6522853687909538,0.8854868427405477,-0.0519609513070699,-0.0805325464722741,-0.0550305023082779,1.0380028931336027,-0.8052929190735022,-0.0628578254487503,-5.856939374141631,-2.0883701361577547,0.2393846614347507,0.1,0.4,0.1,0.25,0.1,-5.814101,-2.0513978,0.25955424
1753346056.7887275,0.1955272966604173,0.183861341456465,0.194035755531196,0.1726837417569211,0.6845737509869535,1.65066521053338,0.8843911457354842,-0.0494749270044019,-0.0822593735482519,-0.0555519716696654,1.020073546099816,-0.7775034530270173,-0.070180132120135,-5.872301261499931,-2.100048766651537,0.2360384415497372,0.1,0.4,0.1,0.25,0.1,-5.830143,-2.062849,0.25605392
1753346056.902855,0.1960563450240632,0.1842026251837619,0.194599995135282,0.1730226379401796,0.6836317983908853,1.6490125339291293,0.8832892691613723,-0.0472232919499015,-0.0838846900838065,-0.0557959210884466,1.0184534343699398,-0.7625759779324871,-0.0755751280683996,-5.887692997148176,-2.111383854051847,0.2327591623967081,0.1,0.4,0.1,0.25,0.1,-5.8457317,-2.0737088,0.25248075
1753346056.9127903,0.196587531534849,0.1845405713989399,0.1951662624367134,0.1733579732348862,0.6827285526361989,1.64733996408271,0.8821682153923472,-0.0453527685406336,-0.0847064187817405,-0.0569837688325132,1.028592782880862,-0.7478878844983928,-0.1172580963432325,-5.902378775976048,-2.122907819161111,0.2292988292466543,0.1,0.4,0.1,0.25,0.1,-5.8603983,-2.0841959,0.24894583
1753346056.92163,0.1971208351383075,0.1848751667069347,0.1957338608945724,0.1736901226512598,0.6818681181329975,1.6456352566098134,0.881054624803011,-0.043089036092214,-0.0866185326961925,-0.0561240251906389,1.0284141807404283,-0.7335127964362315,-0.1280475668433986,-5.917636987791067,-2.1359387160134773,0.2253833264377659,0.1,0.4,0.1,0.25,0.1,-5.875881,-2.0951269,0.24527285
1753346056.9306774,0.197656234696057,0.1852063978455006,0.1963046472346602,0.1740195230345109,0.6810516166459758,1.6438927853767165,0.879933548667602,-0.0408769821783659,-0.0885343644760189,-0.0568757329992186,1.0292271891442355,-0.7408515879621631,-0.1209640086561297,-5.932047963151208,-2.1467023131223715,0.2219129180388494,0.1,0.4,0.1,0.25,0.1,-5.8908043,-2.1054196,0.24198559
1753346056.940667,0.1981937089866389,0.1855342516857366,0.1968777132987244,0.1743457157257938,0.6802717247100447,1.642132207471033,0.8787973179299785,-0.0391330398978205,-0.0891498461358285,-0.0576429120231261,1.0216461666202947,-0.732174252600967,-0.13586531013137,-5.946150609444096,-2.156964395976837,0.2187990662380048,0.1,0.4,0.1,0.25,0.1,-5.905264,-2.1172166,0.23820236
1753346057.0461812,0.1987332367063592,0.1858587152326065,0.1974525463564878,0.1746685291912925,0.6795214382779379,1.6403645892885397,0.8776215849995224,-0.0377083696189548,-0.0894310198731041,-0.0600151330589985,0.9945450254020358,-0.6835702412177916,-0.2009680615301249,-5.9608765217709365,-2.169681008212885,0.2149314976972703,0.1,0.4,0.1,0.25,0.1,-5.9180937,-2.128408,0.23457605
1753346057.05563,0.199274796470133,0.1861797756254539,0.1980302280271718,0.1749874365696683,0.6788194421691293,1.6385643836190622,0.876435365150604,-0.0349525339175527,-0.0915029379928378,-0.0599791302763225,0.9814634688937102,-0.6444660235831122,-0.2727431300080187,-5.975514972664268,-2.18121604851092,0.211554225344954,0.1,0.4,0.1,0.25,0.1,-5.9348555,-2.1395192,0.23133183
1753346057.0642438,0.1998183668123316,0.1864974201385122,0.1986109837259537,0.1753035904975193,0.6779976998314036,1.637009441588482,0.8748451581830611,-0.0436979433921514,-0.0746681090155244,-0.0866861136300567,0.7296104270343952,-0.200259925333711,-0.9240054574675274,-5.98627716964508,-2.1947534347670867,0.2078427651586446,0.1,0.4,0.1,0.25,0.1,-5.914106,-2.153694,0.22571966
1753346057.0728817,0.2003639261876339,0.1868116361814091,0.1991930494892876,0.1756171054856464,0.6772908836414091,1.6352975381583776,0.8734476515239309,-0.0334406799652076,-0.0901826675054019,-0.0658032460924613,0.5982640229686522,0.0203963794383373,-1.2270695314524065,-5.989879252715707,-2.212317397838398,0.2034463911652508,0.1,0.4,0.1,0.25,0.1,-5.943959,-2.16812,0.22374621
1753346057.0816216,0.20091145297188,0.1871224112996653,0.1997696415779574,0.1759271035452089,0.6771424639293503,1.6326488046129373,0.8734328777747816,0.0003056883914831,-0.1473721420463441,0.0192171900419451,1.480965743331935,-1.5355815130488164,1.170082506319755,-6.032190318039602,-2.2086418179131013,0.2011117759140109,0.1,0.4,0.1,0.25,0.1,-6.067883,-2.171789,0.22321251
1753346057.184346,0.2014609254629285,0.1874297331751883,0.2003455061254449,0.1762337628474392,0.6769986418287025,1.6300336479127069,0.873318204139227,-0.0096831607767618,-0.1277032266462197,-0.0133004474034454,2.3011388840200047,-2.9855637803392843,3.397083427862542,-6.085017025808337,-2.1977084696076865,0.1991326581786903,0.1,0.4,0.1,0.25,0.1,-6.094224,-2.1659555,0.21652961
1753346057.1935482,0.2020123218815167,0.1877335896267606,0.2009261724616902,0.1765370164218606,0.676715639657128,1.627708394068443,0.872721327219049,-0.0158251967246428,-0.1145482252810985,-0.0352508471427399,2.2669036760939467,-2.9233721279651825,3.311307078189805,-6.082245042485549,-2.220702891781334,0.1957335264063235,0.1,0.4,0.1,0.25,0.1,-6.092034,-2.1754365,0.21190932
1753346057.202319,0.2025656203721237,0.1880339686105228,0.2015115958460648,0.176836814512145,0.6764127408646898,1.6254619387433842,0.8719366989026112,-0.015263710086187,-0.1133588201850551,-0.0409617279990169,1.7711093663167916,-2.0507916558110613,1.9615920663100972,-6.087687613198113,-2.239030776527492,0.192291995313755,0.1,0.4,0.1,0.25,0.1,-6.084382,-2.19261,0.20975745
1753346057.2110891,0.2031207990038369,0.1883308582204506,0.2021004357959518,0.1771330087709494,0.6761100419752903,1.6232622998660808,0.87103279422796,-0.0154145474015641,-0.110666678460553,-0.0470982412819812,1.1662058637007078,-0.9814563222388334,0.2993843803432086,-6.101525977564284,-2.251899845897157,0.1892040616487117,0.1,0.4,0.1,0.25,0.1,-6.070884,-2.2124906,0.20738786
1753346057.2198358,0.2036778357712211,0.1886242466888268,0.2026897071117826,0.1774255274008079,0.6758834628361989,1.6209748077973285,0.8702268679561581,-0.0103403525460767,-0.1172997937929345,-0.0387478090094934,0.989086472087056,-0.6610369849996509,-0.1814625367946212,-6.117439983106933,-2.264859345938558,0.1856340147211084,0.1,0.4,0.1,0.25,0.1,-6.087843,-2.226895,0.20463598
1753346057.3236568,0.2042367085951907,0.1889141223867081,0.2032779029020712,0.1777151709583172,0.6758713877186036,1.6183419777945924,0.869903376724349,0.0022782504939209,-0.1381055623248336,-0.009406386086523,1.2799044095195544,-1.188075922190463,0.6438327934586859,-6.143697316029322,-2.271025987189026,0.1826169907898071,0.1,0.4,0.1,0.25,0.1,-6.140158,-2.2354362,0.20196325
1753346057.3332157,0.2047973953238852,0.1892004738243855,0.2038659172207314,0.1780013732733233,0.6759820191103387,1.6155372454880386,0.8697943583669595,0.0065335646081232,-0.1431218343027547,-0.0041731045278278,1.700291404543587,-1.9467479996539767,1.8237284325467025,-6.175429132840975,-2.2721200880541157,0.1802881056289745,0.1,0.4,0.1,0.25,0.1,-6.181259,-2.2404974,0.19792658
1753346057.3420458,0.2053598737335466,0.18948328965184,0.2044482528288097,0.1782841430237129,0.6765386825257744,1.6119737316525786,0.8708199737766418,0.0346923400128629,-0.1917500547576866,0.0692191080022499,2.5529718526856997,-3.483997310600864,4.2131933202933975,-6.210214916692558,-2.2750396076728983,0.178332441580959,0.1,0.4,0.1,0.25,0.1,-6.2850857,-2.2461376,0.19503835
1753346057.3508344,0.2059241215294008,0.1897625586591925,0.2050310274293078,0.1785637037392659,0.6770469165306107,1.608536990641622,0.871593161707046,0.0229043902772926,-0.168530177441564,0.0301673645667383,3.026733378286328,-4.350596479124192,5.0,-6.256550286969912,-2.2688626561378,0.1765740847712457,0.1,0.4,0.1,0.25,0.1,-6.2869253,-2.2440908,0.19221693
1753346057.3587415,0.2064901163465412,0.190038269777148,0.2056242858136725,0.1788396146677538,0.6771936531590792,1.605792359063076,0.87124913821619,0.0026307723519873,-0.1298754409617377,-0.0317569800133357,2.2373280610253854,-2.9441204790565285,2.932165445826014,-6.246980374926142,-2.295936443528288,0.1740012496443344,0.1,0.4,0.1,0.25,0.1,-6.2301598,-2.2589674,0.18828008
1753346057.4664414,0.2070578357508148,0.1903104120774344,0.2062251552852675,0.1791121413372146,0.6771083542706477,1.6035079110855643,0.8701642289691065,-0.006505069181788,-0.1112625756409194,-0.0618379928504115,0.8957465179018976,-0.5432786921440764,-0.6620236484030215,-6.231065916257306,-2.3277057018226643,0.1702269918902624,0.1,0.4,0.1,0.25,0.1,-6.170225,-2.2868621,0.18623412
1753346057.4753604,0.2076272572397121,0.1905789747732357,0.2068291801152783,0.1793815159302936,0.6769729387278454,1.6013574797306789,0.8688386474605031,-0.0070260938963895,-0.1080907274121416,-0.0685682616990753,-0.2528199010790023,1.5179167586341702,-3.7288670243729936,-6.232891599371532,-2.3487923317984465,0.166056621211052,0.1,0.4,0.1,0.25,0.1,-6.1370096,-2.3139925,0.1846647
1753346057.4841397,0.2081983582432582,0.1908439472196195,0.2074353366185659,0.1796469880139214,0.6768013338719808,1.5993258890044602,0.8672935239727244,-0.0092549640449856,-0.1012088482394869,-0.0810215266413458,-0.7370493060694336,2.404250648744605,-4.9892980997154925,-6.245090739287106,-2.3635787611175623,0.1619635569417883,0.1,0.4,0.1,0.25,0.1,-6.1277084,-2.331324,0.18108869
1753346057.4923606,0.208771116124908,0.191105318913959,0.2080423221802972,0.1799084842617425,0.6767863885356854,1.5970601301398135,0.8660532513654698,0.0017715120110342,-0.1187934517324928,-0.0570713055557904,-0.5273780364162699,2.048596426719598,-4.387449318053642,-6.262265124752374,-2.376615366857457,0.1581364425161549,0.1,0.4,0.1,0.25,0.1,-6.1751657,-2.3405993,0.17804185
1753346057.5012145,0.2093455081824436,0.1913630794963493,0.2086435961507129,0.1801665631860618,0.6773227925606012,1.593835570952264,0.8662298300421771,0.0348188927133139,-0.1768081280151756,0.0292691170746999,0.7084426655968878,-0.1832935362678742,-0.9552229370296068,-6.306399265196701,-2.3711751623215087,0.1560957657469761,0.1,0.4,0.1,0.25,0.1,-6.307455,-2.3431966,0.17470247
1753346057.606545,0.2099215116488731,0.1916172187500177,0.2092404072151122,0.1804213370040299,0.6780956268004763,1.5902204645616909,0.8669602589130495,0.0403523435916808,-0.1849169224916591,0.0395504394208668,2.127151642401709,-2.7692221763867706,3.016194728128058,-6.366803660610594,-2.355398421737638,0.1547466806557779,0.1,0.4,0.1,0.25,0.1,-6.3912582,-2.3345335,0.16821593
1753346057.6157582,0.2104991036933344,0.1918677266017291,0.2098448549622165,0.1806733081710934,0.6784037133423968,1.5874879928022294,0.8663096214459095,0.0079751842469321,-0.1241014038376548,-0.0548551655916528,2.049328570795557,-2.651089367267178,2.8769216628224163,-6.374628533502264,-2.3725313368622323,0.1516563137353324,0.1,0.4,0.1,0.25,0.1,-6.3394537,-2.335114,0.16172987
1753346057.6246758,0.2110782614219989,0.1921145931221853,0.2104574446754579,0.1809214885037808,0.6785147015110699,1.5851687131517371,0.8649844609633157,0.0048388892507144,-0.1153619677141252,-0.0706448244435848,0.92798542982443,-0.6125535381326741,-0.193179454765255,-6.3473149883420845,-2.4127931929221407,0.1471644978470818,0.1,0.4,0.1,0.25,0.1,-6.303541,-2.3605535,0.16035995
1753346057.6337554,0.2116589618789799,0.1923578085264179,0.2110699773464418,0.1811652534051012,0.6788599145009714,1.58247224219333,0.8641832177005219,0.021264483588654,-0.1429690450856162,-0.031198652084045,0.3130455743726915,0.5242739270034444,-1.9186217979992728,-6.367335023089532,-2.4249039328818625,0.1438387665089753,0.1,0.4,0.1,0.25,0.1,-6.329031,-2.3836102,0.1599457
1753346057.6424885,0.2122411820472418,0.1925973631741772,0.2116829485774032,0.1814070576137821,0.6792639934323421,1.5796920412126574,0.8634688732008197,0.0201429796688312,-0.1400795891796761,-0.0374814329159779,0.3510447695420218,0.4344439887844034,-1.7774410460189811,-6.402228966519699,-2.423947127025875,0.141175975141856,0.1,0.4,0.1,0.25,0.1,-6.340846,-2.3919153,0.15604526
1753346057.7471766,0.2128248988495129,0.1928332475703131,0.2122982840767386,0.1816446063943305,0.6795662074356638,1.5771643468486012,0.8623407913082252,0.0137599875122118,-0.1242752919369252,-0.0629051270528917,0.4438485869170692,0.2731821140339592,-1.5010693756449278,-6.411904106622478,-2.4384938242618044,0.1375751885481076,0.1,0.4,0.1,0.25,0.1,-6.3494396,-2.4008524,0.15127861
1753346057.7561872,0.2134100891491997,0.1930654523651526,0.2129180032442178,0.1818775088567695,0.679804000917801,1.5748031836444143,0.8608995629071116,0.0114558277819506,-0.1180992910602077,-0.0758447923292549,0.2401823563486165,0.6737864262920891,-2.104093127729465,-6.42169080139549,-2.460619413249534,0.1332273312885495,0.1,0.4,0.1,0.25,0.1,-6.3496113,-2.4115424,0.14808285
1753346057.7653902,0.2139967297513044,0.1932939683548695,0.2135401025040475,0.1821070464499602,0.6800041880038047,1.5725607481837731,0.8592552234762303,0.0096767521737247,-0.1121412656135804,-0.085319121312833,-0.1001515386046707,1.3183343880118592,-3.062048377007647,-6.432107501366255,-2.474692750327696,0.1296364436999507,0.1,0.4,0.1,0.25,0.1,-6.347499,-2.4270732,0.14449027
1753346057.7743227,0.2145847974033438,0.1935187864818497,0.2141614024338854,0.1823333187422186,0.6803787401322609,1.570036428542158,0.8579973812916056,0.0217353512177395,-0.1325998088133457,-0.056881849805603,0.0133426848707831,1.116026977647934,-2.723856325117092,-6.4514237723079,-2.4872289884066783,0.125309288168446,0.1,0.4,0.1,0.25,0.1,-6.391737,-2.4385626,0.141532
1753346057.7834628,0.2151742687962713,0.1937398978350501,0.2147836508240799,0.1825563116101416,0.68077090473015,1.56752586232894,0.8566805193486318,0.0192219598772127,-0.1254488456024907,-0.0694509689946142,0.3141145899479588,0.5450417652269808,-1.8396620252918952,-6.4797623467058285,-2.489722343646777,0.122167337451463,0.1,0.4,0.1,0.25,0.1,-6.413578,-2.4449136,0.13669115
1753346057.8870747,0.2157651205654006,0.1939572936503518,0.2154150183226044,0.1827755562021263,0.6806668046525879,1.5659945479353703,0.8538302024150121,-0.0127775049761321,-0.062906534606665,-0.166966971967709,-0.33912010302323,1.774974820237342,-3.695799414021612,-6.477957654421461,-2.5144595979870736,0.1171053573077972,0.1,0.4,0.1,0.25,0.1,-6.332715,-2.4574919,0.13081259
1753346057.8961344,0.2163573292913321,0.1941709653109075,0.2160488174018646,0.1829919580078547,0.6807856173877566,1.5640891280667195,0.8515124484004492,0.0117011261720115,-0.10673751135313,-0.1020204844280018,-0.7514078732280165,2.545680208787775,-4.868911539745239,-6.464363191769632,-2.547490287906588,0.1118758188713855,0.1,0.4,0.1,0.25,0.1,-6.381338,-2.4777095,0.13028747
1753346057.9050734,0.2169508715008807,0.1943809043474828,0.2166764364019421,0.1832042064309826,0.6813539955615576,1.561396978736375,0.8503437717388301,0.033924286360486,-0.1453670920405276,-0.0458785035073461,0.0153124147075481,1.1183460900900144,-2.7008616398934047,-6.5186697355731065,-2.533042896012344,0.1088529659360597,0.1,0.4,0.1,0.25,0.1,-6.473213,-2.4858067,0.1265381
1753346057.914059,0.2175457236680065,0.1945871024387924,0.2173036919498827,0.1834119218763508,0.6819373894248142,1.5587280919646431,0.849100774586252,0.0281394807984527,-0.1320387830086217,-0.0679086665195158,0.876941934377631,-0.4775443258738125,-0.2797782457873561,-6.560750850565141,-2.5297504532839405,0.1058103646546746,0.1,0.4,0.1,0.25,0.1,-6.5104275,-2.4835684,0.12053141
1753346057.9225235,0.2181418622147473,0.1947895514118294,0.2179303490244192,0.1836157814247351,0.682695573117709,1.5557767789765822,0.8482560295333695,0.0414482119213366,-0.1547850930841772,-0.0348653462016483,1.6398095125192318,-1.9012094348188924,1.9028966151330504,-6.57686022446557,-2.5442239014103976,0.1021636316636685,0.1,0.4,0.1,0.25,0.1,-6.5824566,-2.489136,0.11578041
1753346058.0298116,0.2187392635121531,0.1949882432421897,0.2185569183203571,0.1838162673900031,0.6834763931968729,1.5528235176023115,0.8473785159540598,0.0388851415170856,-0.1479728565333314,-0.0471050996537296,1.857290829510076,-2.3200165848378416,2.563102599455515,-6.60889065383557,-2.5467182386633698,0.0989656141463829,0.1,0.4,0.1,0.25,0.1,-6.6020794,-2.4953518,0.111481726
1753346058.038355,0.2193379038812225,0.1951831700543896,0.2191862560169158,0.1840136814135334,0.6842205956681383,1.5499818592839665,0.8462935280680096,0.0372507376300638,-0.1426809867394343,-0.0570814143243797,1.6043283159713155,-1.8697396104167556,1.8990971346766663,-6.6215636868659455,-2.5615367617453195,0.0954401523942399,0.1,0.4,0.1,0.25,0.1,-6.6056595,-2.508225,0.1083006
1753346058.0466,0.2199377595938417,0.1953743241221784,0.2198172581161953,0.1842073524419861,0.6849765769304967,1.547166497070312,0.8451332651374343,0.0385289946583417,-0.1425644518413528,-0.0590103839227606,1.3534933652955217,-1.4119495818855186,1.2166008702012454,-6.637229443276442,-2.575295592266832,0.0918151770883358,0.1,0.4,0.1,0.25,0.1,-6.6155663,-2.522472,0.10525268
1753346058.0546544,0.2205388068737243,0.1955616978688443,0.2204494483524178,0.1843976574227529,0.6858302038405676,1.544206117239313,0.8441457647012852,0.0445892113826468,-0.1521932711023206,-0.0470001093775481,1.2042746084982094,-1.1477043577770287,0.8057757861838046,-6.658885700257196,-2.585328658558656,0.0884141211191173,0.1,0.4,0.1,0.25,0.1,-6.6368494,-2.5359688,0.10242498
1753346058.0629191,0.2211410218973547,0.195745283867515,0.2210806681454838,0.1845841222871682,0.6867952303918782,1.5410818082782018,0.8433834578844114,0.0500985594785624,-0.1600948296739405,-0.0357759956801601,1.3248771652099325,-1.3881391102546183,1.1803581949030626,-6.685413668442201,-2.590475621586664,0.0854888526878265,0.1,0.4,0.1,0.25,0.1,-6.6699257,-2.547754,0.09854534
1753346058.1667445,0.2217443807949312,0.1959250748414519,0.2217115051084919,0.1847664599269169,0.6877999669239221,1.537927959571893,0.8426328184068139,0.0510423540425293,-0.1596405932408075,-0.0384248839266351,1.4416736188787698,-1.6137589658730678,1.5498802850175477,-6.711447354357355,-2.599694725416186,0.0818675899285995,0.1,0.4,0.1,0.25,0.1,-6.6940284,-2.5564504,0.094715565
1753346058.175923,0.2223488596513134,0.1961010636643385,0.2223440868194007,0.1849456163062015,0.6887953937739916,1.5348312049686343,0.8417620511721124,0.0501414840177609,-0.1560104824307036,-0.0455536444253501,1.3706415738050195,-1.492715238513663,1.3869560224516415,-6.729973720589715,-2.611560023134071,0.0785805608886849,0.1,0.4,0.1,0.25,0.1,-6.7068467,-2.5668263,0.0912053
1753346058.1844647,0.2229544345069687,0.1962732433605628,0.2229789383407956,0.1851206978271851,0.6897849346543349,1.531799592910831,0.8407482150396847,0.0500296090308823,-0.1528188375995889,-0.0528310109148287,1.1501601851534615,-1.0708057541646845,0.7493886907133422,-6.746638401704565,-2.6247775688837285,0.0751289192863143,0.1,0.4,0.1,0.25,0.1,-6.717331,-2.5799527,0.08830926
1753346058.1928065,0.2235610813589235,0.1964416071054943,0.223615684575526,0.1852915399123239,0.6907683215404481,1.52882779312993,0.8396089611833598,0.0496594580577738,-0.1498455987128374,-0.0588975304323554,0.896921679413697,-0.5778141594894923,-0.0109476203980578,-6.765650220254459,-2.6384429343994915,0.0716429837002364,0.1,0.4,0.1,0.25,0.1,-6.7242527,-2.5931723,0.08538064
1753346058.201171,0.2241687761617133,0.1966061482257539,0.2242547639857266,0.1854593014754452,0.6917316497081181,1.5259348634924057,0.8383105100625524,0.0484497147987821,-0.1455456799082714,-0.0675660668419395,0.6616826303009415,-0.1318558706909576,-0.6953995945114916,-6.782400042697421,-2.651537621432852,0.0679310995244446,0.1,0.4,0.1,0.25,0.1,-6.7295485,-2.6054566,0.082446784
1753346058.3077295,0.2247774948283366,0.1967668601994784,0.224895789358582,0.1856236779553881,0.6926966662610354,1.5230850276895298,0.8369128375221258,0.0489319712023162,-0.1440157929018692,-0.0714766671559543,0.4871433774047212,0.1956871398206764,-1.1951662601849593,-6.798361587163405,-2.664215541495377,0.0643210843544056,0.1,0.4,0.1,0.25,0.1,-6.7415247,-2.6187341,0.079230875
1753346058.3164132,0.225387213231209,0.1969237366565798,0.2255378466280254,0.18578411660249,0.6936727171926,1.520262578238132,0.8354415890328621,0.0495155149154716,-0.1426786717049521,-0.0751436680708336,0.3876053316736307,0.3825934707636327,-1.4657657494499423,-6.817591142245431,-2.676719839929026,0.060381520794423,0.1,0.4,0.1,0.25,0.1,-6.7568197,-2.6310053,0.075798064
1753346058.3250146,0.2259979072031203,0.1970767713789966,0.2261810923905042,0.1859407139127152,0.6946605536343577,1.5174651648674538,0.8338988994626358,0.0501177605129472,-0.1414381029383756,-0.0787438542826964,0.3426029679288318,0.4723011039062037,-1.588905946031681,-6.836894289391727,-2.6889822385223834,0.0564332787707414,0.1,0.4,0.1,0.25,0.1,-6.7739935,-2.6423528,0.07226026
1753346058.3336537,0.2266095525381917,0.1972259583009413,0.2268245805575454,0.1860939439970365,0.6956931812832543,1.5146218153243831,0.832401268398658,0.0528936534349667,-0.1448599254542283,-0.0746651741877564,0.382176771938794,0.3908271711440921,-1.437778363899128,-6.856816535400236,-2.7002709144795896,0.0525133456836619,0.1,0.4,0.1,0.25,0.1,-6.797654,-2.6532674,0.06836501
1753346058.342384,0.2272221249928357,0.1973712915091404,0.2274534325654461,0.1862417808328592,0.6978304744849895,1.509662581387583,0.8340762929472356,0.1250059248099453,-0.2837211821877266,0.1337758991127219,2.157824494640504,-3.0973749304985416,3.86878707144676,-6.910169129485189,-2.689200988228851,0.0510220267793816,0.1,0.4,0.1,0.25,0.1,-6.9898033,-2.6607664,0.06249118
1753346058.442839,0.2278356002867168,0.1975127652430686,0.2280348087401086,0.1863799406518999,0.7030046605942888,1.4988081876652048,0.8445996720681253,0.3036573999973413,-0.631156565996957,0.6548919079774326,5.0,-5.0,5.0,-7.098059663359103,-2.5868748939171216,0.0592766106402946,0.1,0.4,0.1,0.25,0.1,-7.219244,-2.6064556,0.06557137
1753346058.4516618,0.2284499541037138,0.1976503738951774,0.228594397733748,0.1865156449981912,0.7083840403727071,1.487579228278006,0.855625962965759,0.2626002981536124,-0.5496894611391934,0.5293615020715292,5.0,-5.0,5.0,-7.316037178177273,-2.45955370114576,0.0694203847367669,0.1,0.4,0.1,0.25,0.1,-7.2437124,-2.6047692,0.06453034
1753346058.4601674,0.2290651620928839,0.1977841120111175,0.2291934587408216,0.1866526965264863,0.7113256193448877,1.481130507141574,0.8594038653094094,0.114093596897154,-0.2584874056463168,0.0886360530971272,4.110766164468005,-4.08311918551498,3.911571704360629,-7.234244451310154,-2.550979996294763,0.0680327772619179,0.1,0.4,0.1,0.25,0.1,-7.1205044,-2.6053526,0.061485946
1753346058.468857,0.2296811998694279,0.1979139742899545,0.2298319285764029,0.1867862258693196,0.712614169657924,1.4779627047654809,0.8582429723506398,0.0502834962572483,-0.130574499216011,-0.103441321401849,-2.4306234710165757,5.0,-5.0,-7.062429190985896,-2.705973146576801,0.0616273700566463,0.1,0.4,0.1,0.25,0.1,-6.9306583,-2.726082,0.058134377
1753346058.4775398,0.2302980430156564,0.1980399555843793,0.2304843770172107,0.1869159793079539,0.713473285746459,1.4756787142123942,0.8557175129934841,0.0413967151031318,-0.1112314430661928,-0.1350514142139967,-5.0,5.0,-5.0,-7.008014345833356,-2.776907125727205,0.0550602378719466,0.1,0.4,0.1,0.25,0.1,-6.856962,-2.854216,0.04640335
1753346058.5811424,0.2309156670819578,0.1981620509009125,0.2311401660152555,0.1870425740548102,0.7143899498924334,1.4733310207577188,0.8532415649267027,0.0479090464129801,-0.1213592903880208,-0.122132003140408,-5.0,5.0,-5.0,-7.016980716234401,-2.793201086778818,0.0508054513321457,0.1,0.4,0.1,0.25,0.1,-6.8856955,-2.8676004,0.042424083
1753346058.5898883,0.2315340475877675,0.1982802554001014,0.2317954656901559,0.1871650901306553,0.7154355953264353,1.4707809837962558,0.8510326517982091,0.0544422594980997,-0.1316504238757262,-0.1084192425574016,-4.587762914180255,5.0,-5.0,-7.045261941820022,-2.798249203136806,0.0467245853415184,0.1,0.4,0.1,0.25,0.1,-6.926855,-2.8618295,0.039821744
1753346058.5985775,0.2321531600225382,0.1983945643967128,0.2324504104267101,0.187283646732167,0.7165500175611863,1.4681439403968428,0.8489235243018314,0.056993323781444,-0.1342655062589699,-0.1060037088249921,-3.324134539892675,3.5558055553187047,-3.517623057413585,-7.072317259744466,-2.80466494385718,0.042516342675972,0.1,0.4,0.1,0.25,0.1,-6.9765463,-2.842144,0.036308646
1753346058.6070828,0.2327729798467113,0.1985049733599181,0.2331057770931293,0.1873984304894414,0.7176962226634412,1.4654914016455711,0.8468082092165395,0.0583159356769904,-0.1344975216293181,-0.107146648685006,-2.300781542459582,2.376411738002969,-2.270430601329242,-7.094387764287107,-2.8146475682191947,0.0381766412314845,0.1,0.4,0.1,0.25,0.1,-7.0198107,-2.8277671,0.032664
1753346058.615637,0.2333934824926896,0.1986114779134731,0.2337617470343412,0.1875094711448465,0.7188717833237029,1.4628279367170585,0.8446796449720946,0.059852947320453,-0.1351555955782053,-0.1076708440004166,-1.616498826463194,1.6907274832462322,-1.6475450670198435,-7.115216770447839,-2.825515299123244,0.0338121401812254,0.1,0.4,0.1,0.25,0.1,-7.054616,-2.820683,0.02946496
1753346058.7168682,0.2340146433658111,0.1987140738358913,0.2344180161015701,0.1876167112596628,0.7200974837208206,1.4601121752981872,0.842599674193029,0.0626971234288837,-0.1384190545778211,-0.1042961418183202,-1.1072509585103192,1.2136189509589843,-1.2543583844517625,-7.136951062071195,-2.8357917644175017,0.0295002876072116,0.1,0.4,0.1,0.25,0.1,-7.087434,-2.8183935,0.026201785
1753346058.7258618,0.2346364378453242,0.1988127570606114,0.2350741731820051,0.1877195153292195,0.7213753787451738,1.4573464384347492,0.8405658784585455,0.0652783238680855,-0.1407327970607739,-0.1022703441204623,-0.6687019941742475,0.7793028579726804,-0.8596742501473702,-7.160546036216183,-2.8452969831654387,0.0252254008659729,0.1,0.4,0.1,0.25,0.1,-7.1205435,-2.818871,0.022680879
1753346058.7345104,0.2352588412853626,0.1989075236761586,0.2357306256974877,0.1878183829062051,0.7226896306133597,1.4545527642647669,0.8385443793325704,0.0668939512688561,-0.1418800989815275,-0.1020729959821138,-0.3165589555857524,0.4263924075163319,-0.5353718190892625,-7.18410302593666,-2.855679388166112,0.0208992762238817,0.1,0.4,0.1,0.25,0.1,-7.148431,-2.8201137,0.019179463
1753346058.7430031,0.2358818290159235,0.1989983699262992,0.2363880858221036,0.1879133022423275,0.7240420467731098,1.4517339211891211,0.8365232883719802,0.0689233354105798,-0.1432005047748889,-0.1021026686879972,-0.0503004347974803,0.1734299902390061,-0.3327894962983199,-7.205590052390337,-2.865540095479695,0.0167773386043028,0.1,0.4,0.1,0.25,0.1,-7.1767874,-2.8244784,0.015714943
1753346058.751643,0.2365053763438444,0.1990852922101899,0.2371311729724302,0.1880106764980091,0.7199014080774133,1.46012992697653,0.8175481477053186,-0.294161709508265,0.5985435397424432,-1.2230955306798577,-5.0,5.0,-5.0,-7.085220150928004,-2.979521115422684,0.0040669652786388,0.1,0.4,0.1,0.25,0.1,-6.897094,-3.0538101,-0.004254341
1753346058.8516693,0.2371294585537821,0.1991682870825204,0.2378895369398822,0.1881150813125457,0.7171688613664896,1.4657851445757433,0.8026741693033119,-0.0908652668890308,0.1909945224143795,-0.6094305836984334,-5.0,5.0,-5.0,-6.777725447994652,-3.259582800710175,-0.0213262057539432,0.1,0.4,0.1,0.25,0.1,-6.906204,-3.0098855,-0.0029945374
1753346058.8597825,0.237754050909193,0.1992473512536499,0.2385703649219513,0.1882064573704999,0.7180727302700795,1.4640657327538316,0.7989448054292281,0.0873827675188042,-0.1722147350580244,-0.0601710035504273,-1.093063708271118,-1.602774604252354,4.369983254608167,-7.067928829507974,-3.042118859730865,-0.0257626816214149,0.1,0.4,0.1,0.25,0.1,-7.2095127,-2.9236095,-0.013157904
1753346058.8684723,0.2383791286533123,0.1993224815897374,0.2392032257961836,0.1882831753581152,0.7211883084741936,1.457854169522508,0.8019559587411885,0.1791379041050899,-0.3583265351727916,0.2177077978294887,5.0,-5.0,5.0,-7.309985167297111,-2.863943198136737,-0.0221251103767117,0.1,0.4,0.1,0.25,0.1,-7.4013977,-2.7395124,0.005076349
1753346058.8782315,0.2390046670101367,0.1993936751128663,0.2398190693833313,0.1883527973521917,0.7249760004786477,1.4502838215626324,0.8069769512989385,0.195526570019483,-0.3912966875762385,0.2658006405556644,5.0,-5.0,5.0,-7.438790841611486,-2.7871033345967478,-0.0179113571953412,0.1,0.4,0.1,0.25,0.1,-7.4408116,-2.7466571,0.0018286109
1753346058.8871312,0.2396306411854052,0.199460929001162,0.2404235210223481,0.1884172807401079,0.7294563873653909,1.441324201705382,0.8140437871917455,0.2362945329268559,-0.4731177752212548,0.3863335042294433,5.0,-5.0,5.0,-7.500321552529717,-2.7719446035862925,-0.0145301467426747,0.1,0.4,0.1,0.25,0.1,-7.4929304,-2.7532706,-0.0016328692
1753346058.9866068,0.2402570263675827,0.1995242405889039,0.2410382400684052,0.1884806750473951,0.7328851827498646,1.4345546901335569,0.8177851677012326,0.1543525476262878,-0.3032292827011137,0.1298502385177359,4.995428638432653,-5.0,5.0,-7.539164557210717,-2.773657632513692,-0.0134885471051324,0.1,0.4,0.1,0.25,0.1,-7.4928775,-2.7644484,-0.006286204
1753346058.9953592,0.2408837977288432,0.1995836073666311,0.2416738166318593,0.1885456595542716,0.7354190282816129,1.4296394731077076,0.8187308891336775,0.1202735723141868,-0.2325619534462784,0.0232719453651291,1.4036311331849114,1.4526537005193705,-4.321373760399228,-7.466061342868765,-2.8687314732527347,-0.0174905074591074,0.1,0.4,0.1,0.25,0.1,-7.374254,-2.8593347,-0.0024479032
1753346059.0038784,0.2415109304260536,0.1996390269812421,0.2423197271876136,0.1886061965674775,0.7376659083168368,1.4253899903965572,0.8186137890913008,0.1117256161163957,-0.2101500298951508,-0.0144656856651229,-1.7864812457598542,5.0,-5.0,-7.450157271114882,-2.9127748722916023,-0.0208411986438438,0.1,0.4,0.1,0.25,0.1,-7.393947,-2.9270525,-0.009929061
1753346059.012401,0.2421383996017587,0.1996904972360875,0.2429740560762437,0.1886611081330721,0.7395837605346743,1.4218768377204345,0.8173528822811956,0.0926060069764554,-0.1683126292850665,-0.0785533089792742,-3.9969812701841714,5.0,-5.0,-7.461662051535863,-2.9409867237597656,-0.0241002884404385,0.1,0.4,0.1,0.25,0.1,-7.3375998,-3.041239,-0.024900496
1753346059.021155,0.2427661803851667,0.1997380160910575,0.2436456672876145,0.1887150670581907,0.7404726366400752,1.4205393092453322,0.8128177020797053,0.0304925151502138,-0.0372309080384108,-0.2754349146987605,-5.0,5.0,-5.0,-7.438867857284179,-2.9881128308053246,-0.0303983933801466,0.1,0.4,0.1,0.25,0.1,-7.2728987,-3.0919013,-0.030187488
1753346059.1222708,0.2433942478931344,0.1997815816626628,0.2443215052356581,0.188766581859448,0.7414986714790658,1.41896965066009,0.8086147177972117,0.0584908937943756,-0.092653796525189,-0.1934001812201337,-5.0,5.0,-5.0,-7.4044273132492995,-3.047562241614514,-0.0382301220537492,0.1,0.4,0.1,0.25,0.1,-7.310958,-3.108284,-0.037552774
1753346059.1302197,0.2440225772311538,0.1998211922241088,0.2449835387839027,0.1888129376971582,0.7434003991317768,1.4156095066753502,0.8070534749493623,0.107787216793571,-0.1941369671344775,-0.0438136865928998,-3.529105730338568,3.2171900370938102,-2.950883740753307,-7.469748182668107,-3.019703389816963,-0.041798986791738,0.1,0.4,0.1,0.25,0.1,-7.4067802,-3.084026,-0.043863356
1753346059.1386418,0.244651143494339,0.1998568462053646,0.2456313325574124,0.1888526054198248,0.7459915500906718,1.410855667455795,0.8075564669582126,0.1382865778101767,-0.2552950136605345,0.0469903993478938,-0.3900331063563018,-2.3046038976075134,4.80995921141003,-7.550478614272795,-2.9762266501391603,-0.042548190803166,0.1,0.4,0.1,0.25,0.1,-7.5564375,-3.0109675,-0.052009106
1753346059.1472476,0.2452799217684131,0.199888542193225,0.2462975496584937,0.1888909812598375,0.747115011856031,1.4092270479796485,0.8033524451121311,0.0320520389656171,-0.0299046197639274,-0.2918318526167727,-0.2445861250460373,-1.7366740959697564,3.5596730886417327,-7.564297033746655,-2.9934953807592906,-0.0475268279019316,0.1,0.4,0.1,0.25,0.1,-7.493117,-3.0024803,-0.0475657
1753346059.155863,0.2459088871306957,0.1999162789313664,0.2469745589771228,0.1889284216307193,0.7482792764651921,1.4075591578226307,0.7991930729988271,0.0671494496327514,-0.1014155115969675,-0.1855040216178357,-1.8542339020408725,2.322862335572255,-2.823658657734266,-7.491697090532585,-3.091086393463313,-0.0561307596984579,0.1,0.4,0.1,0.25,0.1,-7.4617534,-3.0569105,-0.047897577
1753346059.2534127,0.246538014651091,0.1999400553203966,0.2476526114806629,0.1889620373152667,0.7492335433923458,1.4063994841426948,0.7942255250958955,0.0425853715215273,-0.0459518422011746,-0.2713705213540524,-2.9930548123554037,5.0,-5.0,-7.534663603735867,-3.0781976960151045,-0.0617154818601394,0.1,0.4,0.1,0.25,0.1,-7.463296,-3.0693884,-0.046388388
1753346059.26196,0.2471672793930756,0.1999598704178987,0.2483160049174596,0.1889886684579393,0.7514103560963304,1.402694375694904,0.7930608780244673,0.130814223983388,-0.2312682684862892,0.006201698610891,-1.5937348129272235,2.537521190172118,-1.9434597909466684,-7.563846359359798,-3.0867172278549644,-0.0662163073592723,0.1,0.4,0.1,0.25,0.1,-7.577325,-3.0534885,-0.056516528
1753346059.2706215,0.2477966564146873,0.1999757234384681,0.249009373807622,0.1890156661524339,0.7509899417307652,1.4046119091938387,0.7834043572923455,-0.0675620532358796,0.1972270080420644,-0.6398610026670717,-3.028148761640985,5.0,-5.0,-7.59685223190577,-3.076920322664224,-0.0726792432977912,0.1,0.4,0.1,0.25,0.1,-7.4686966,-3.1309092,-0.058416605
1753346059.2793524,0.2484261207695134,0.1999876137537437,0.2496771535690783,0.1890352608180604,0.753688767081271,1.3998811162263358,0.7837473302960527,0.1988689453822756,-0.3734672511170944,0.2183097805920658,-1.3469975006207318,1.947137537107685,-1.0308231654633144,-7.525276432725571,-3.1958324535932165,-0.0821639861316671,0.1,0.4,0.1,0.25,0.1,-7.6249723,-3.050281,-0.061625183
1753346059.287609,0.2490556475076796,0.199995540892433,0.2503662001866206,0.1890538807087748,0.7532175623751194,1.4020616013880962,0.7736123518581947,-0.0916678107736414,0.2580976838406987,-0.7361986476971041,-2.1612486217051017,4.23036466020258,-5.0,-7.687366041628495,-3.042879634820429,-0.0836145172224509,0.1,0.4,0.1,0.25,0.1,-7.52007,-3.154698,-0.066993475
1753346059.3873065,0.249685211676839,0.1999995045403306,0.2510673941570274,0.1890740227587158,0.7538950222083253,1.4018092026951403,0.7671615534807957,0.0726852002787508,-0.095843453526074,-0.2012896707342844,-4.230021213515167,5.0,-5.0,-7.495070249817955,-3.2840767417583447,-0.1002538639324929,0.1,0.4,0.1,0.25,0.1,-7.5149884,-3.2070901,-0.086906254
1753346059.395406,0.2503147883231609,0.1999995045403306,0.2517095089132989,0.189078114750996,0.7573394398986408,1.3955694622421402,0.7697264458935926,0.2053846758248328,-0.3837276496803593,0.2313066796688123,1.941768675855811,-5.0,5.0,-7.707643284768218,-3.0952967566279805,-0.0983414041238888,0.1,0.4,0.1,0.25,0.1,-7.686428,-3.0490015,-0.07568973
1753346059.403658,0.2509443524923203,0.199995540892433,0.2523367710759071,0.1890751485943691,0.7609215613221171,1.3890638712268004,0.7726493082983464,0.1739597082165823,-0.313241830765278,0.1230459157916544,5.0,-5.0,5.0,-7.838975394123558,-2.986458505203476,-0.0947698587192873,0.1,0.4,0.1,0.25,0.1,-7.8193574,-2.9020684,-0.05536753
1753346059.4118104,0.2515738792304866,0.1999876137537437,0.2529759947997326,0.1890710749925316,0.7639430420089695,1.3838139621112049,0.7736534515545155,0.146526337897994,-0.2517517303273536,0.0292476284940388,5.0,-5.0,5.0,-7.8285380060018195,-3.037860106956192,-0.097248386086728,0.1,0.4,0.1,0.25,0.1,-7.848527,-2.9211633,-0.06153518
1753346059.4195125,0.2522033435853126,0.1999757234384681,0.2536278576220921,0.1890654324667297,0.7662819350048031,1.3801007434007075,0.7723295994704132,0.1098184442937252,-0.1689167253348803,-0.0960136834135737,2.9696037059833413,-1.561266964304835,0.2098880432885081,-7.816048988967042,-3.0876252832920383,-0.1014468268187782,0.1,0.4,0.1,0.25,0.1,-7.797061,-3.0066478,-0.07056141
1753346059.5191903,0.2528327206069244,0.1999598704178987,0.2542891872701238,0.1890570548727733,0.7682795239502362,1.3771868321919192,0.7697743884724412,0.098482723465481,-0.1413912764925778,-0.1391931550613168,-0.2533590037899893,4.715249617991592,-5.0,-7.804161783496787,-3.139531063033981,-0.1071174488238104,0.1,0.4,0.1,0.25,0.1,-7.7871585,-3.0489137,-0.0745402
1753346059.5282223,0.253461985348909,0.1999400553203966,0.25494975210663,0.1890446450607505,0.7704825390932895,1.3738636309297665,0.7678074269461567,0.1155104622580388,-0.1768927806125701,-0.0871355703514645,-1.4122973121529072,5.0,-5.0,-7.822192090977666,-3.156733651058369,-0.1114911329368932,0.1,0.4,0.1,0.25,0.1,-7.7888937,-3.1132264,-0.08868432
1753346059.536786,0.2540911128693043,0.1999162789313664,0.2556095305142404,0.189028990825927,0.772647506035642,1.3706599910947104,0.7656395545771513,0.1078034299465806,-0.158129291285092,-0.1162953487537265,-1.414360051794329,4.82690042766469,-5.0,-7.854980591002543,-3.153136145202032,-0.1151879097070143,0.1,0.4,0.1,0.25,0.1,-7.8030496,-3.1301837,-0.09361416
1753346059.5450213,0.2547200782315869,0.199888542193225,0.2562659563400626,0.1890088911413612,0.7750908949230835,1.3668842557610554,0.7643126581040174,0.1285463299267616,-0.2017220780756849,-0.0518114975452065,-0.6384745240411593,2.969048362174548,-2.7709112202134145,-7.876926567724172,-3.165148302228228,-0.1192014331546533,0.1,0.4,0.1,0.25,0.1,-7.853302,-3.1257317,-0.098306
1753346059.553471,0.2553488565056609,0.1998568462053646,0.2569204428991163,0.1889835183759647,0.7775331871175442,1.3631625798427427,0.7628773394971322,0.1221452125228718,-0.1848145439113636,-0.0786462928646471,0.1017020523959315,1.2359848796415704,-0.6144890854666467,-7.915926902624998,-3.1590360478778114,-0.1224706932186946,0.1,0.4,0.1,0.25,0.1,-7.898592,-3.1235123,-0.102782845
1753346059.6545584,0.2559774227688461,0.1998211922241088,0.257577720516822,0.1889549686841501,0.7797855128447821,1.359900252816341,0.7607451050563047,0.1115532158622442,-0.1596042785322685,-0.1165243812069029,0.0020587073084962,1.3814404916826124,-1.1690229319099814,-7.930814862701054,-3.180877927886771,-0.1269517038214336,0.1,0.4,0.1,0.25,0.1,-7.9073653,-3.1457891,-0.107617974
1753346059.663269,0.2566057521068655,0.1997815816626628,0.2582378839772642,0.1889240313247158,0.781936764012857,1.356901928434209,0.7581889640249738,0.1081113403269558,-0.1498594697202602,-0.1329867422037319,-0.3669819447138998,2.129264736938309,-2.564155062937423,-7.941983440126098,-3.2033000016412174,-0.1319806144192144,0.1,0.4,0.1,0.25,0.1,-7.908814,-3.1740751,-0.11243725
1753346059.6718292,0.2572338196148332,0.1997380160910575,0.2588991224015983,0.1888887378003904,0.7841530848217645,1.353815067026787,0.7557279134024834,0.1134605404698419,-0.158703503569607,-0.1216755549456047,-0.6201336003139766,2.6499048734687607,-3.6035922160881535,-7.962430689146589,-3.215647334132348,-0.1362428598238817,0.1,0.4,0.1,0.25,0.1,-7.9211245,-3.1997924,-0.11788273
1753346059.6803875,0.2578616003982412,0.1996904972360875,0.2595592201604624,0.1888489840479195,0.7864258184834737,1.3506442288463594,0.7533753049832126,0.1155558944104334,-0.1615589817677545,-0.1179572718769124,-0.4629561533075406,2.269405799480326,-3.2360659619602945,-7.990885145858032,-3.2218285323332143,-0.1404836460463355,0.1,0.4,0.1,0.25,0.1,-7.9459114,-3.2091815,-0.122395515
1753346059.688832,0.2584890695739464,0.1996390269812421,0.2602182994121679,0.1888057224714726,0.7887229698235005,1.3474580404004528,0.7510297439410646,0.1165306298818197,-0.1617062344891136,-0.1186244649887042,-0.1844602324656629,1.613874252498109,-2.3970870515452134,-8.014241809260882,-3.2303867465329863,-0.1450020699438762,0.1,0.4,0.1,0.25,0.1,-7.9769506,-3.2133734,-0.12650293
1753346059.788446,0.2591162022711568,0.1995836073666311,0.2608770599084973,0.1887588121717672,0.7910330684333563,1.34428479216387,0.7486447345827402,0.1170897365811264,-0.1608105073124412,-0.1210267847726219,0.0154197480695675,1.132635873321996,-1.7743712273285588,-8.037008346220203,-3.2402919431158224,-0.1494747376614625,0.1,0.4,0.1,0.25,0.1,-8.006142,-3.219379,-0.13064033
1753346059.7974253,0.2597429736324172,0.1995242405889039,0.26153505933918,0.1887086367860215,0.793380166373,1.3410625025302954,0.7463177890667043,0.1193642697245687,-0.1643350309384009,-0.1164548733466361,0.1355903336736818,0.8159665063043815,-1.3676478577189208,-8.059860201469686,-3.249890288002129,-0.1538946344820633,0.1,0.4,0.1,0.25,0.1,-8.031298,-3.2265096,-0.13485432
1753346059.806156,0.2603693588145948,0.199460929001162,0.2621910989572754,0.18865427240783,0.795801567935358,1.3377173187796318,0.7441611031126469,0.1235790901136185,-0.1713914507748227,-0.1065940585944657,0.3166265358800615,0.3762666980186641,-0.7585319129430843,-8.084394695021325,-3.256965948955843,-0.1582132104425569,0.1,0.4,0.1,0.25,0.1,-8.062613,-3.2324228,-0.13914752
1753346059.8145142,0.2609953329898633,0.1993936751128663,0.2628465448886145,0.1885952054429253,0.7982783851117758,1.3342954379342709,0.7420855387305985,0.1259550112497608,-0.1743139122940271,-0.1042378611397703,0.523354945811553,-0.0969966730601221,-0.1143894235469945,-8.112118617280347,-3.264051382526828,-0.1624547840873702,0.1,0.4,0.1,0.25,0.1,-8.093811,-3.2360325,-0.14286137
1753346059.8230145,0.2616208713466876,0.1993224815897374,0.2635024276942961,0.1885325814623428,0.8007219248360115,1.3309881169141342,0.7398228300210056,0.1230330923302016,-0.1658436778387361,-0.1173255998312646,0.5625411505394458,-0.1911686857981112,-0.0292716679005038,-8.135750701971165,-3.2734662060011503,-0.1664651348948685,0.1,0.4,0.1,0.25,0.1,-8.117435,-3.2469697,-0.14731777
1753346059.925801,0.262245949090807,0.1992473512536499,0.2641638566923873,0.1884676050065973,0.802797052275058,1.32857618598495,0.7361935106924362,0.0995936496255859,-0.1091956754932971,-0.2036651612337511,-0.1101028336473406,1.3567294335445534,-2.3918468849351395,-8.148210510135073,-3.2949072506029937,-0.1718270824463951,0.1,0.4,0.1,0.25,0.1,-8.123302,-3.2880228,-0.15267366
