sinayanaik/E2NN/FNN/FNN-8/run_20250730_025222_lr0.01_bs32_layers64x32/predictions_lr0.01_bs32.csv
timestamp,target_x,target_z,actual_x,actual_z,joint1_angle,joint2_angle,joint3_angle,joint1_velocity,joint2_velocity,joint3_velocity,joint1_acceleration,joint2_acceleration,joint3_acceleration,joint1_torque,joint2_torque,joint3_torque,kp,kd,amplitude_A,center_x,center_z,predicted_joint1_torque,predicted_joint2_torque,predicted_joint3_torque
1753802123.564504,0.2,0.4,0.2142228634256528,0.3865354633720171,-0.128786847154587,1.4634364559301272,0.8925476879431997,-0.9174155214956392,0.6860105131478809,0.3192929692158503,0.0,0.0,0.0,-3.772774963010349,-4.661307097869789,-0.9543247649943276,0.02,0.191,-0.1,0.2,0.3,-3.8980136,-4.61652,-0.9592899
1753802123.5722194,0.1993716980058323,0.3999980260856137,0.213595630418585,0.3865715976851078,-0.1325697555932825,1.4662238920341577,0.8940002297545602,-0.907898025286918,0.6689846649673226,0.3486100347265214,0.0,0.0,0.0,-3.759723746420302,-4.652203395408145,-0.9539216675536144,0.02,0.191,-0.1,0.2,0.3,-3.8574963,-4.6197495,-0.95805764
1753802123.5800087,0.1987434952278331,0.3999921044203816,0.2129672095172624,0.3866029785984059,-0.1363187041617305,1.4689517511311527,0.8955581319308992,-0.8997476564275195,0.6546861832788191,0.3738965223213495,0.195608852625563,-0.3431635605240828,0.6068757022758744,-3.747520078526023,-4.64338863597486,-0.9535225286236148,0.02,0.191,-0.1,0.2,0.3,-3.8216286,-4.622098,-0.9568482
1753802123.587626,0.1981154908665032,0.3999822352380809,0.2123376791203688,0.386629704309171,-0.1400400395610249,1.4716323495865553,0.8972031370744341,-0.8931204958306612,0.6433436292966095,0.3948012344483891,0.5111477890506209,-0.8899157045163801,1.5940893551455242,-3.7376287709799434,-4.634284465744637,-0.9531246357103412,0.02,0.191,-0.1,0.2,0.3,-3.791161,-4.622818,-0.955606
1753802123.6899548,0.1974877840910115,0.39996841892833,0.211707114717094,0.3866519035556222,-0.1437401649777106,1.4742784132118116,0.8989160063660894,-0.8880301000045523,0.6350552700615277,0.4110886299972554,0.8735627719169565,-1.5025906197018295,2.739703566871729,-3.726598301354673,-4.624182170257937,-0.9527821227082234,0.02,0.191,-0.1,0.2,0.3,-3.7666833,-4.6212306,-0.9542631
1753802123.6978638,0.1968604740235343,0.3999506560365731,0.2110756447189045,0.386669692439668,-0.1474302235480484,1.476910729628574,0.9006661309637146,-0.8856140568810715,0.6317559400229682,0.4200299034300594,1.196945782874407,-2.0234404249849107,3.797850597830755,-3.728320781474184,-4.609462432140319,-0.9520999275075792,0.02,0.191,-0.1,0.2,0.3,-3.7510433,-4.6156464,-0.952769
1753802123.706432,0.1962336597236033,0.3999289472640589,0.2104433645490952,0.3866832826407811,-0.1511244157917456,1.4795558236377309,0.9024145695323972,-0.8866061384873271,0.6348225621976443,0.4196252564837798,1.2224196471836075,-1.99896055861232,3.992208833832107,-3.7357476468526856,-4.589826464454078,-0.9510993043068656,0.02,0.191,-0.1,0.2,0.3,-3.7461221,-4.6037846,-0.9510168
1753802123.7147336,0.1956074401724628,0.3999032934678124,0.2098104087560727,0.3866928904593613,-0.1548277499250398,1.4822233236075255,0.904146429716505,-0.8888001919906148,0.6401999927507838,0.4156464441859076,1.0086332807196303,-1.53835594707258,3.4937475908243822,-3.7221323632825296,-4.58171044522829,-0.950825678507995,0.02,0.191,-0.1,0.2,0.3,-3.7456954,-4.5886292,-0.94904417
1753802123.7228158,0.1949819142574392,0.3998736956606017,0.2091769081804997,0.3866986142677506,-0.1585377649482778,1.4849093397635802,0.905866516841746,-0.8904036055771114,0.6446438774530716,0.4128209100578438,0.6946213313130652,-0.8964370531606247,2.681531765345515,-3.690776654114876,-4.582101770603748,-0.9508160832221468,0.02,0.191,-0.1,0.2,0.3,-3.744376,-4.5732675,-0.9470008
1753802123.8266294,0.1943571807563259,0.3998401550108975,0.2085429631984826,0.3867004144110485,-0.1622600908823759,1.4876246045883048,0.9075583998826846,-0.8933582241835478,0.6516635579338936,0.4060519298252731,0.362501066028132,-0.2228396623349473,1.7807033995801298,-3.6783315670408343,-4.572978990569573,-0.9504452946649424,0.02,0.191,-0.1,0.2,0.3,-3.745876,-4.5567713,-0.94504815
1753802123.8347626,0.1937333383217847,0.3998026728428271,0.2079087089871892,0.3866983850381624,-0.1659986396918494,1.4903766317092668,0.9092103209920144,-0.8972517142736415,0.6604865090308794,0.3964610662391279,0.0253802527131791,0.4573699932618751,0.8351401385760748,-3.661977300301221,-4.565998199415738,-0.9501646562002648,0.02,0.191,-0.1,0.2,0.3,-3.7487576,-4.53982,-0.94319564
1753802123.8430314,0.1931104854657681,0.3997612506361225,0.2072742722857353,0.3866925925042145,-0.1697545911694764,1.4931679768938972,0.910817677833989,-0.9014283546304858,0.669922844311326,0.3857656420739334,-0.3102526192295314,1.1317932287988852,-0.1302110933235001,-3.6391545548021647,-4.562278842103939,-0.9500479468760706,0.02,0.191,-0.1,0.2,0.3,-3.7512426,-4.5231767,-0.9414315
1753802123.8512669,0.1924887205439621,0.3997158900260614,0.2066397726448221,0.3866830597854455,-0.1735212550478907,1.495987168706158,0.9123964466002767,-0.9039993308194264,0.6766060349426304,0.378904503909074,-0.5891637622040836,1.701526220384018,-0.9652799494207612,-3.597332999973217,-4.5673084980992575,-0.950149017894555,0.02,0.191,-0.1,0.2,0.3,-3.7487953,-4.508967,-0.9397671
1753802123.8593812,0.1918681417402558,0.399666592803403,0.2060052872877409,0.3866696583039724,-0.1772846597274125,1.4988100428840236,0.9139808589510884,-0.9032171230852348,0.677489802687733,0.3802589641947448,-0.6920744165899163,1.955373724811184,-1.3584984296138587,-3.5376214862712048,-4.580550173932367,-0.9506908998347972,0.02,0.191,-0.1,0.2,0.3,-3.7374823,-4.499509,-0.9382908
1753802123.9573069,0.1912488470512362,0.3996133609143172,0.2053708871590786,0.3866521444115487,-0.1809888832247147,1.5015380960932874,0.9157126189261589,-0.8890136393525294,0.6547327702233132,0.4156223940169429,-0.2964395580728159,1.3235784380432378,-0.4823282636131452,-3.378491187065176,-4.643416826258167,-0.9536231746484288,0.02,0.191,-0.1,0.2,0.3,-3.6949382,-4.5057364,-0.93710816
1753802123.965881,0.1906309342707138,0.399556196460308,0.2047365023438442,0.3866296593351422,-0.1848623970414013,1.504578350154109,0.9169977476804436,-0.9296433160047688,0.7296609745972109,0.3084309010283249,-0.7130172003812889,2.139295200147135,-1.7352015801404297,-3.896189773487927,-4.376164951841171,-0.9438037703538368,0.02,0.191,-0.1,0.2,0.3,-3.7793334,-4.4568725,-0.93643224
1753802123.9742444,0.1900145009742796,0.39949510169813,0.2041033599346618,0.3866059609805265,-0.1888983438055748,1.5079173861931037,0.9178541106788074,-0.9686272234016506,0.8013686493587118,0.2055271196073374,-2.6184257949155803,5.594272145649203,-6.851769926645488,-3.853396699314987,-4.381749993623086,-0.944358752680304,0.02,0.191,-0.1,0.2,0.3,-3.8373582,-4.407128,-0.9317848
1753802123.9828267,0.1893996445038972,0.3994300790396999,0.2034716009481394,0.3865809111634428,-0.1931081046537197,1.51157485921337,0.9182506928256836,-1.01034260355478,0.8777935248639392,0.0951797152502721,-5.304000860756595,10.41628353545936,-13.982524450901964,-3.851220423119795,-4.364858497656199,-0.944486605473164,0.02,0.191,-0.1,0.2,0.3,-3.8990307,-4.3597584,-0.93195224
1753802123.9913847,0.1887864619525309,0.3993611310520008,0.2028415269984668,0.3865546581518237,-0.1974802751243509,1.5155294870881464,0.9182162751034872,-1.049320912951491,0.9491106899463246,-0.0082602533270935,-8.10360369699104,15.416056955295725,-20.0,-3.796417301263331,-4.376294198828883,-0.9458452075767386,0.02,0.191,-0.1,0.2,0.3,-3.8279996,-4.393077,-0.92899644
1753802124.0942574,0.1881750501488137,0.3992882604569813,0.2022132535901963,0.3865270360271109,-0.2019922966799136,1.5197403364254054,0.917808837419506,-1.0828851733350282,1.0106038409421845,-0.0977850441554734,-10.160620357517011,19.070788240366557,-20.0,-3.7149968351682463,-4.400986735872451,-0.9475943719828206,0.02,0.191,-0.1,0.2,0.3,-3.7359636,-4.3967676,-0.9230138
1753802124.1026216,0.1875655056417572,0.3992114701314477,0.2015867763576469,0.38649769032322,-0.2066500900118283,1.524217762284217,0.9170101558938822,-1.117870399659526,1.0745822061147878,-0.1916835661497382,-11.612519078967509,20.0,-20.0,-3.698569506035021,-4.391689878026493,-0.9489182046475754,0.02,0.191,-0.1,0.2,0.3,-3.6315255,-4.430333,-0.9325188
1753802124.1110587,0.1869579246855051,0.3991307631069506,0.2009623677527082,0.3864667539319179,-0.2114083038647311,1.5288808727846106,0.9159374284281044,-1.1419713246966734,1.1191465200944382,-0.2574545917866677,-12.401187573712896,20.0,-20.0,-3.56253249726194,-4.443874076225271,-0.951668523770283,0.02,0.191,-0.1,0.2,0.3,-3.5082645,-4.4788737,-0.93975574
1753802124.119419,0.1863524032241337,0.3990461425696651,0.2003398220590435,0.386433502717251,-0.2162183676319483,1.533644022602155,0.9147151673227726,-1.1544153041321286,1.1431559562106726,-0.2933426652796485,-12.329655423148935,20.0,-20.0,-3.41731939435165,-4.49969821077666,-0.9546894683805112,0.02,0.191,-0.1,0.2,0.3,-3.3732963,-4.5336576,-0.93601984
1753802124.1280668,0.1857490368765012,0.398957611860265,0.1997189477500335,0.3863971420672831,-0.2210649246055084,1.538480405321199,0.9133815509340188,-1.1631736736544225,1.1607318525704926,-0.3200679333008897,-11.520153383516098,19.12344513040297,-20.0,-3.351431185942072,-4.517429257213351,-0.9566832747578122,0.02,0.191,-0.1,0.2,0.3,-3.2190387,-4.606528,-0.9302716
1753802124.2218974,0.1851479209211482,0.3988651744737914,0.1990997631185947,0.3863574408557937,-0.22584399415727,1.5432073366519572,0.9122049566741804,-1.1469766924228018,1.1344635193820647,-0.2823826223612513,-9.730563066953252,16.412046611299054,-17.70822825768805,-3.07675285465922,-4.643073049433468,-0.9623812831044182,0.02,0.191,-0.1,0.2,0.3,-3.1967223,-4.612084,-0.9336476
1753802124.2307436,0.1845491502812526,0.3987688340595137,0.1984817170140743,0.3863127889355661,-0.2305329578327281,1.547787330810308,0.9112408015652036,-1.1253512821099267,1.0991985980042305,-0.2313972261544056,-7.041877903475772,12.04755392721831,-12.658325217784718,-2.990471400713399,-4.667526578125097,-0.9641970559818264,0.02,0.191,-0.1,0.2,0.3,-3.1590614,-4.6131296,-0.93787694
1753802124.2395568,0.1839528195096395,0.3986685944207868,0.1978648410778936,0.3862627127666629,-0.2351459777654141,1.552246665584626,0.9104496784803144,-1.1071247838446536,1.0702403458363203,-0.189869540373385,-4.133924477859193,7.253978679938339,-6.710777205740412,-2.9959182656177386,-4.651733816223548,-0.965261667068395,0.02,0.191,-0.1,0.2,0.3,-3.1163342,-4.614503,-0.93901193
1753802124.2484076,0.1833590227738506,0.3985644595148998,0.197249375932054,0.386207487268778,-0.2397489572803623,1.5567018103437775,0.9096589790657996,-1.1047150835875674,1.069234742196415,-0.1897678594835757,-1.8797792162790068,3.5749732672190198,-2.19531149488021,-3.12488893430935,-4.572518906931472,-0.9637989871727982,0.02,0.191,-0.1,0.2,0.3,-3.1872087,-4.555457,-0.9415678
1753802124.2569344,0.1827678538412741,0.3984564334529205,0.1966358365185635,0.3861481805855161,-0.2444018015197263,1.5612581371470915,0.9087113119414983,-1.116682617447335,1.0935184327952825,-0.2274401098322788,-1.0073540942814745,2.288408348547573,-1.0482334790132666,-3.239271225112061,-4.4998635864568906,-0.962839973948299,0.02,0.191,-0.1,0.2,0.3,-3.3486567,-4.4649053,-0.9433674
1753802124.3541622,0.1821794060643374,0.3983445204995329,0.1960247436762499,0.3860857914500808,-0.249219012278449,1.5661165147459304,0.907305065311184,-1.1561305820934586,1.1660106237213423,-0.3374991912754626,-1.9069148605304331,4.073118609250078,-4.335433179672664,-3.480493273851238,-4.359021033598446,-0.9606943158363184,0.02,0.191,-0.1,0.2,0.3,-3.5307326,-4.3629913,-0.94617105
1753802124.362307,0.1815937723657661,0.3982287250728689,0.1954171485918217,0.3860222436069306,-0.2540097384946432,1.5709418553514702,0.9059393765022106,-1.1497742918865983,1.1580817453295489,-0.3277653141536023,-3.051412060269545,6.24866201002913,-8.099774262459261,-3.002575020443548,-4.593117577309577,-0.9679554081886044,0.02,0.191,-0.1,0.2,0.3,-3.2792242,-4.4912863,-0.94989395
1753802124.3706195,0.1810110452239099,0.3981090517443334,0.1948115706976194,0.3859544253207115,-0.2587505835231696,1.5756943049095595,0.9046731089164188,-1.1378028068463286,1.1405878939414096,-0.3039042205900194,-3.015349117626375,6.3248544220152505,-8.650218546875298,-2.9184150387104,-4.622297527928791,-0.9702539575182212,0.02,0.191,-0.1,0.2,0.3,-3.1179357,-4.56274,-0.951461
1753802124.3789632,0.1804313166581398,0.3979855052384247,0.1942079660474909,0.385881970842642,-0.2634721838682156,1.5804283936612324,0.9034240357226296,-1.1331840828110489,1.1361813004015264,-0.2997775665094346,-2.1912810665935107,5.003959852391674,-7.049231697670779,-2.962554107882981,-4.58504220149525,-0.9707501467683984,0.02,0.191,-0.1,0.2,0.3,-3.1342506,-4.539285,-0.95304626
1753802124.3872194,0.1798546782143168,0.3978580904325472,0.1936067022622747,0.3858054054958897,-0.2681538927468949,1.5851088527755282,0.9022446131000514,-1.123610130883025,1.1233101874309752,-0.2830614294187457,-0.9933848182833704,3.020624829167457,-4.400165750070725,-2.88598012536705,-4.611130722759964,-0.9726787514047596,0.02,0.191,-0.1,0.2,0.3,-3.1610615,-4.5059767,-0.9550525
1753802124.487047,0.1792812209503357,0.3977268123568193,0.1930077056008408,0.3857243983141484,-0.2727361605280267,1.5896339835897078,0.901286680972632,-1.099744267471626,1.086031395403121,-0.2299037105806755,0.3772423339856958,0.7427643261107537,-1.2571935919810673,-2.714434323541956,-4.683706786081091,-0.9759718909460368,0.02,0.191,-0.1,0.2,0.3,-3.0639997,-4.542107,-0.9534168
1753802124.4958491,0.1787110354217463,0.3975916761938747,0.1924107065535635,0.385637934536953,-0.2772968226770999,1.59413895458125,0.9003482680268363,-1.094558915777574,1.081193037970177,-0.2252191069909608,1.5706129253520935,-1.2257314642766262,1.471060629882377,-2.876216140282172,-4.590185796748255,-0.974237515398074,0.02,0.191,-0.1,0.2,0.3,-3.1221101,-4.5005383,-0.9523109
1753802124.5040903,0.1781442116674533,0.3974526872786577,0.1918162459677595,0.3855473466380273,-0.2818897622145395,1.5987174873381569,0.899288169586635,-1.1023054889855062,1.0988478616576034,-0.2544236256482995,1.944913389287026,-1.7801946348241675,2.120964682561453,-2.97808613299588,-4.523492338635306,-0.973455395439502,0.02,0.191,-0.1,0.2,0.3,-3.1711962,-4.468772,-0.9507805
1753802124.5126183,0.1775808391954983,0.3973098510982126,0.1912247910095838,0.3854535401345951,-0.2864984239561202,1.6033410653147275,0.898148552295182,-1.106078817979354,1.1096587143769467,-0.2735081499487345,1.5973329816857422,-1.0925876725726549,0.937703603384525,-2.9119720527514628,-4.544270250267861,-0.9750830437306516,0.02,0.191,-0.1,0.2,0.3,-3.1344519,-4.4750886,-0.95301396
1753802124.520815,0.1770210069689256,0.3971631732914674,0.1906362819687049,0.3853562562751997,-0.2911415459639175,1.6080422590303882,0.8968794926362208,-1.1143492818713632,1.1282864917585804,-0.3045743181506832,0.8198418715001119,0.3278426963003535,-1.3271612336543592,-2.9299909485462794,-4.521206031440342,-0.9757097940112054,0.02,0.191,-0.1,0.2,0.3,-3.094387,-4.480666,-0.9560201
1753802124.622544,0.1764648033917333,0.3970126596490105,0.1900509420367596,0.385255837267722,-0.2957710799663487,1.6127389744566705,0.8956038124178503,-1.1110881605834737,1.1272117023077493,-0.3061632524089424,0.2528849336495814,1.3783975454725008,-3.0267282714903647,-2.7868311967839983,-4.5804287622085065,-0.9784843559901052,0.02,0.191,-0.1,0.2,0.3,-2.9918077,-4.5192947,-0.9607818
1753802124.6313236,0.1759123162949142,0.3968583161128631,0.1894685294915222,0.3851514696221954,-0.3004020778127811,1.61745742255741,0.8942817999598898,-1.1114394831437924,1.1324275441774772,-0.3172829899105135,0.0675054905016536,1.766002710812874,-3.7200602789793193,-2.796739698776376,-4.562227095355853,-0.9790181508326372,0.02,0.191,-0.1,0.2,0.3,-2.9370024,-4.537501,-0.96151143
1753802124.6398451,0.1753636329225854,0.3967001487762435,0.1888891964757888,0.385043411299213,-0.3050174485773204,1.622168738489684,0.8929560581425585,-1.1076889834894144,1.130715823745819,-0.3181780361594953,0.1103901161401541,1.75722956736037,-3.8087683238371848,-2.729440191609108,-4.584845802366668,-0.9811244189903072,0.02,0.191,-0.1,0.2,0.3,-2.8797429,-4.5564127,-0.9635025
1753802124.6480093,0.1748188399182119,0.3965381638833274,0.1883129224654313,0.3849314309025054,-0.309612853010391,1.6268664958252812,0.891636811396642,-1.102897063936948,1.1274617605433015,-0.3166192190199657,0.3690378637359373,1.3783469329516969,-3.327765623821197,-2.690685633965417,-4.588277807115822,-0.9816843502304756,0.02,0.191,-0.1,0.2,0.3,-2.8380332,-4.5670724,-0.9655527
1753802124.656609,0.1742780233109246,0.396372367829001,0.1877397200604509,0.3848153459595946,-0.3140473380845243,1.631311694918297,0.8906831091975048,-1.0642764177919912,1.0668477823238167,-0.228888527792912,1.480431023337742,-0.447695394119963,-0.6554764525790198,-2.3235310223101817,-4.767516193888147,-0.9891074397933424,0.02,0.191,-0.1,0.2,0.3,-2.5750458,-4.683089,-0.9746242
1753802124.7609956,0.1737412685019352,0.3962027671586086,0.1871688958485042,0.3846929157984383,-0.3181747285468004,1.6352619379261553,0.8904578568019749,-0.9905737109462796,0.9480583218859652,-0.0540605749271881,4.503565109297444,-5.489844743746178,6.85646564724902,-1.9327625662968504,-4.946198382584169,-0.9972764623043804,0.02,0.191,-0.1,0.2,0.3,-2.2261577,-4.8717465,-0.97966677
1753802124.7697248,0.1732086602510501,0.3960293685676943,0.1866001554761019,0.3845616740225729,-0.3218979266587051,1.6385610336382572,0.8911935458095195,-0.8935675468571109,0.7917829709044524,0.1765653618107,9.568696014132184,-13.912689030013755,19.43824369779824,-1.6593529322713052,-5.061484313783924,-1.0036430371088767,0.02,0.191,-0.1,0.2,0.3,-1.7283221,-5.0418935,-0.9925551
1753802124.7781456,0.1726802826632865,0.3958521789017376,0.1860335922501755,0.3844199949354888,-0.3251836387710246,1.6411610191742232,0.8929605764894032,-0.788570906956673,0.6239965286318367,0.4240873631720833,15.899410794162891,-20.0,20.0,-1.5462312396252655,-5.09714298601905,-1.0063378671468632,0.02,0.191,-0.1,0.2,0.3,-1.6875094,-5.056875,-1.0015038
1753802124.786247,0.1721562191755906,0.395671205155883,0.1854694139394441,0.3842673640840335,-0.3280274369761355,1.64306202738551,0.8957577470797562,-0.6825115692266269,0.4562419707088432,0.6713209416847267,20.0,-20.0,20.0,-1.5091579451799062,-5.096685728597297,-1.0065168590322802,0.02,0.191,-0.1,0.2,0.3,-1.5039147,-5.096616,-1.0028819
1753802124.794345,0.1716365525436621,0.3954864544746643,0.1849077025992979,0.3841037968251722,-0.3304631504639955,1.644327296801498,0.899489523752864,-0.5845712370863954,0.3036646598371139,0.8956264015458496,20.0,-20.0,20.0,-1.571689465994355,-5.048795904953964,-1.003798356360201,0.02,0.191,-0.1,0.2,0.3,-1.5992917,-5.0255146,-1.0018017
1753802124.8902466,0.1711213648288866,0.3952979341517219,0.1843484866399552,0.3839299884689959,-0.3325382527011372,1.6450410147284955,0.904029866816235,-0.498024536914016,0.1712923024794488,1.0896823352090377,20.0,-20.0,20.0,-1.6736967591590857,-4.984955995233581,-0.999230975798004,0.02,0.191,-0.1,0.2,0.3,-1.6976122,-4.96426,-1.0013468
1753802124.8984592,0.1706107373853763,0.3951056516295153,0.1837916337237972,0.383746880366144,-0.3342925473675343,1.6452739013434896,0.9092724885841442,-0.4210307199353089,0.0558927875985511,1.2582292242982125,20.0,-20.0,20.0,-1.758284671314521,-4.9299244365950585,-0.994646673139652,0.02,0.191,-0.1,0.2,0.3,-1.7970229,-4.908945,-1.0008017
1753802124.9064388,0.170104750847124,0.3949096144990294,0.1832369843922766,0.3835553072524603,-0.335763222290358,1.645091769475772,0.9151181618976608,-0.3529619814776781,-0.043711648252232,1.4029615952439956,20.0,-20.0,20.0,-1.8373812459193808,-4.877440220289388,-0.9898585033120444,0.02,0.191,-0.1,0.2,0.3,-1.8934385,-4.85509,-0.9990795
1753802124.9142275,0.1696034851152697,0.3947098304994744,0.1826844007644109,0.3833560585521666,-0.3370019172359579,1.6445825649643135,0.921435549795157,-0.2972867869439802,-0.1222090827500522,1.516173095399067,20.0,-20.0,20.0,-1.956333827736105,-4.808821541270937,-0.9836134051658338,0.02,0.191,-0.1,0.2,0.3,-1.9818262,-4.805045,-0.9961812
1753802124.9222126,0.1691070193454832,0.3945063075179804,0.1821337302989817,0.3831501275987751,-0.3380557034580717,1.643825475121434,0.9281070462942068,-0.2529086933073096,-0.1817015622910552,1.6011591597719546,20.0,-20.0,20.0,-2.065372434589737,-4.746209165779922,-0.9771180485566434,0.02,0.191,-0.1,0.2,0.3,-2.063217,-4.7584753,-0.99223626
1753802125.0179338,0.1686154319354649,0.3942990535892864,0.1815848181784089,0.3829383817471785,-0.3389732260510701,1.642901563554996,0.935012384985276,-0.2202054223196327,-0.2217387759451434,1.6572812858565829,20.0,-20.0,20.0,-2.178106801927199,-4.681478777972081,-0.970390917975256,0.02,0.191,-0.1,0.2,0.3,-2.377053,-4.6359344,-0.96791935
1753802125.025772,0.1681288005125655,0.3940880768954225,0.1810376269658236,0.3827216444166957,-0.3397856753086382,1.6418631772452803,0.942073560083404,-0.1949878218163274,-0.2492127143317063,1.6946820235507791,19.51571674932017,-20.0,20.0,-2.245624951385081,-4.637221769745752,-0.9648534505031372,0.02,0.191,-0.1,0.2,0.3,-2.414819,-4.596801,-0.9628669
1753802125.0334592,0.1676472019215278,0.3938733857653874,0.1804921956965996,0.3825004450432389,-0.3405307720852398,1.640772087473913,0.949199084920974,-0.1788232263843883,-0.2618615451282553,1.7101259610167436,18.22577293528596,-18.967436603223597,20.0,-2.3314741142437185,-4.586945723088763,-0.9588636944841942,0.02,0.191,-0.1,0.2,0.3,-2.4113834,-4.5618987,-0.9561584
1753802125.041335,0.1671707122123522,0.3936549886748192,0.179948614967248,0.3822753858485769,-0.3412450975174622,1.639687654173141,0.9563011262096016,-0.1714381037333872,-0.2602639921852449,1.7044899092706682,16.33744839133405,-16.730787005748954,17.99179972454517,-2.4140474143091795,-4.538342433266949,-0.9530283177835756,0.02,0.191,-0.1,0.2,0.3,-2.488788,-4.50344,-0.9447033
1753802125.0492392,0.1666994066282874,0.3934328942456612,0.1794070718109776,0.3820470007295977,-0.3419627041320465,1.6386640883839243,0.9632994029496902,-0.1722255875002374,-0.2456557894120581,1.679586417621232,14.007485014505075,-13.609780031850237,14.412321468704464,-2.491692678775964,-4.49504961214012,-0.9477236879541568,0.02,0.191,-0.1,0.2,0.3,-2.5414054,-4.4704337,-0.93846595
1753802125.147833,0.1662333595939487,0.3932071112458211,0.1788678048788423,0.3818158070088183,-0.3427083988655324,1.637741339172375,0.9701343472655636,-0.1789667360366143,-0.2214598107718424,1.6403866358096333,11.387069119931708,-9.894669937206626,9.74259871979126,-2.5420332069531275,-4.460087446118092,-0.9430871186835192,0.02,0.191,-0.1,0.2,0.3,-2.6093748,-4.4396276,-0.9375884
1753802125.1559882,0.1657726447035655,0.3929776485888251,0.1783311777367331,0.3815820902449676,-0.3434955705262854,1.636940504431227,0.9767744392955964,-0.1889211985807049,-0.1922003378754925,1.593622087207846,8.69778870898523,-5.972685867332531,4.595221243633184,-2.564002419795664,-4.439329961812593,-0.9391693962925556,0.02,0.191,-0.1,0.2,0.3,-2.6817646,-4.3995457,-0.9336759
1753802125.164312,0.1653173347093597,0.3927445153334661,0.177797490073891,0.3813459811938589,-0.3443333729863529,1.6362763128753068,0.9831970960004672,-0.2010725904162044,-0.1594059734208773,1.5414376091689987,6.136999541473688,-2.181741002043247,-0.4994108909617343,-2.573260928382371,-4.422484533746826,-0.9357709271358904,0.02,0.191,-0.1,0.2,0.3,-2.6198175,-4.400056,-0.9364308
1753802125.1724615,0.1648675015100575,0.3925077206834458,0.1772671091947865,0.381107525364421,-0.3452315464947798,1.6357640011684973,0.9893791259888178,-0.2155616420224417,-0.1229548096342975,1.4836871972041348,3.804611405056576,1.3026113428044503,-5.256926357506706,-2.5847756061944462,-4.405956866180958,-0.9324287910644572,0.02,0.191,-0.1,0.2,0.3,-2.6126199,-4.3711963,-0.93679684
1753802125.1809037,0.1644232161395357,0.3922672739870114,0.1767403921413678,0.3808667804131498,-0.3461985027298847,1.635416450843678,0.9953003299762634,-0.2320694964251954,-0.0834120779566606,1.421088956986924,1.714807805973554,4.441534952490682,-9.600515738107298,-2.593313218062795,-4.392186032345398,-0.9296410703585516,0.02,0.191,-0.1,0.2,0.3,-2.6216872,-4.3433366,-0.9362565
1753802125.2786,0.1639845487556046,0.392023184736587,0.1762177236915224,0.380623828979922,-0.3472391006960718,1.6352407403936684,1.0009496359560703,-0.2497435118848913,-0.0421705080022629,1.3558334351536607,-0.1401668253286825,7.234924285626317,-13.512305385926654,-2.5927563249194607,-4.382181871094009,-0.9267590585518802,0.02,0.191,-0.1,0.2,0.3,-2.5360458,-4.3600345,-0.9390244
1753802125.2873385,0.1635515686289294,0.3917754625683981,0.1756994148859998,0.3803786668964276,-0.34835559139195,1.6352400267038711,1.0063212073541794,-0.2679577670107757,-0.0001712855513218,1.2891771355461772,-1.755597264774161,9.6670568113842,-16.95415699410985,-2.5847968160501806,-4.375222987230245,-0.924429271478284,0.02,0.191,-0.1,0.2,0.3,-2.470189,-4.3749785,-0.9407685
1753802125.2957363,0.1631243441320913,0.3915241172620917,0.1751858070379008,0.3801312771202944,-0.3495482041919328,1.6354142900555046,1.0114138091346423,-0.2862270719958704,0.0418232043920617,1.222224427311097,-3.1209249398591865,11.717795675019635,-19.88712878540407,-2.571553734100501,-4.370738803409923,-0.9223423423851148,0.02,0.191,-0.1,0.2,0.3,-2.4354813,-4.383461,-0.9410442
1753802125.3046317,0.1627029427287908,0.3912691587403503,0.174677220860886,0.379881624095697,-0.3508154455093584,1.6357608310527598,1.016230098728404,-0.3041379161821415,0.083169839341265,1.155909502502842,-4.23352550035884,13.381237595033756,-20.0,-2.5538260174017684,-4.368369672239687,-0.9204626950333162,0.02,0.191,-0.1,0.2,0.3,-2.4405475,-4.3852096,-0.9339957
1753802125.3129876,0.1622874309631948,0.3910105970684995,0.1741739527458958,0.379629658575448,-0.3521545169375396,1.636275022148204,1.020775456163587,-0.321377142763498,0.1234058629066257,1.0908857844438284,-5.102386610098273,14.67099192781948,-20.0,-2.5324784371843405,-4.367495171569279,-0.9187939807618638,0.02,0.191,-0.1,0.2,0.3,-2.4713392,-4.381233,-0.92664427
1753802125.412708,0.1618778744494275,0.3907484424541116,0.1736762861360806,0.3793753220235072,-0.3535612625258221,1.6369499622526422,1.0250585678956572,-0.3376189411878079,0.1619856250651629,1.0279468156969094,-5.741416527482533,15.607457800514943,-20.0,-2.5083704866252954,-4.36900166069667,-0.9173501837350008,0.02,0.191,-0.1,0.2,0.3,-2.4620357,-4.3793645,-0.9199517
1753802125.4209638,0.1614743378612105,0.3904827052466019,0.1731844615632389,0.3791185719113602,-0.3550307532410528,1.6377777851082538,1.0290896790683923,-0.3526777716553674,0.1986774853467947,0.967466681456426,-6.16792146467042,16.217266509837554,-20.0,-2.48163368760019,-4.370777355467971,-0.915884067616322,0.02,0.191,-0.1,0.2,0.3,-2.4401438,-4.3766623,-0.9136784
1753802125.4292002,0.1610768849216488,0.3902133959368202,0.172698698064695,0.3788593344444041,-0.3565574183114255,1.6387495855746688,1.0328806792072531,-0.3663996168894535,0.2332321119395843,0.9098400333266284,-6.402453235346263,16.532777790824962,-20.0,-2.453640298632616,-4.373650642597684,-0.9144716342777434,0.02,0.191,-0.1,0.2,0.3,-2.4343398,-4.370102,-0.9075724
1753802125.437095,0.160685578393169,0.3899405251566371,0.1722191738845503,0.3785975391899884,-0.3581351149350572,1.639856036884122,1.0364445733634269,-0.3786471896715978,0.2655483142687753,0.8553345974816289,-6.466204275788723,16.58933943856259,-20.0,-2.422737303760176,-4.375440565933717,-0.9127254784417452,0.02,0.191,-0.1,0.2,0.3,-2.3916366,-4.3716087,-0.9033202
1753802125.445176,0.1603004800676082,0.3896641036785235,0.1717460380576939,0.3783330371373652,-0.3597594375012954,1.6410894852558722,1.039791165892718,-0.3898374158971796,0.2960276092200398,0.8031822070298823,-6.392471721430915,16.435971275137828,-20.0,-2.4002972257529778,-4.379952910568613,-0.911738543436094,0.02,0.191,-0.1,0.2,0.3,-2.3236928,-4.3811183,-0.9025517
1753802125.5449605,0.1599216507564561,0.3893841424151263,0.1712794171923616,0.378065875358545,-0.3614244327815417,1.642440679289927,1.042933057649457,-0.3995988672590924,0.3242865681731799,0.7540540216173754,-6.209704243532081,16.114491028245205,-20.0,-2.371332822642578,-4.38342570897777,-0.9104217213190324,0.02,0.191,-0.1,0.2,0.3,-2.3067386,-4.3799233,-0.901526
1753802125.5529206,0.1595491502812526,0.3891006524188368,0.170819429769655,0.3777959817427453,-0.3631233585527597,1.6438991866867878,1.0458845582480172,-0.4077421850923304,0.3500417752465906,0.708360143654394,-5.930151574651933,15.646337821451706,-20.0,-2.340617563046131,-4.388130240358597,-0.9092449319562323,0.02,0.191,-0.1,0.2,0.3,-2.2900841,-4.378971,-0.9009504
1753802125.5604732,0.1591830374641408,0.3888136448813544,0.1703661705432185,0.3775232924357654,-0.3648475083412503,1.6454517263174269,1.0486640629089157,-0.41379594923774,0.3726095113533673,0.6670811186156264,-5.551128588600834,15.029849932657328,-20.0,-2.3047940242953118,-4.395064618749451,-0.9082881639958622,0.02,0.191,-0.1,0.2,0.3,-2.2742336,-4.3782406,-0.90083313
1753802125.5680952,0.1588233701185786,0.3885231311332455,0.1699197107213729,0.3772477372616891,-0.3665878190215478,1.6470848596553953,1.0512901386188458,-0.4176745632714026,0.3919520011124437,0.6302581703832075,-5.06450216126398,14.257770677387198,-20.0,-2.267251264260278,-4.4017277883654895,-0.9073956285121136,0.02,0.191,-0.1,0.2,0.3,-2.259326,-4.3777294,-0.90117234
1753802125.5757303,0.1584702050402093,0.3882291226434953,0.1694801315806835,0.3769692276111474,-0.3683378613075417,1.6487888259207444,1.0537764621594956,-0.4200101486385397,0.4089519036837844,0.5967176497559814,-4.490296036523017,13.361231986392257,-19.669621767906705,-2.2379636334819946,-4.406452206372781,-0.9061610784648416,0.02,0.191,-0.1,0.2,0.3,-2.2466803,-4.3757606,-0.9006828
1753802125.676631,0.1581235979978929,0.3879316310190556,0.1690474645303443,0.3766877083659819,-0.370092701960009,1.6505567353497683,1.056131985680368,-0.4211617565921564,0.4242982629658251,0.56532564500936,-3.8696883998749647,12.4043272919502,-19.075663328867684,-2.2109893457633567,-4.408624515553599,-0.9051571916800863,0.02,0.191,-0.1,0.2,0.3,-2.1963665,-4.388315,-0.9008958
1753802125.6845932,0.1577836037248992,0.3876306680043863,0.168621832667009,0.3764031254733394,-0.371850342192223,1.6523849076259074,1.0583625072559413,-0.4218336557313594,0.4387613462733024,0.5353251781376211,-3.255931602786285,11.463152305914177,-18.357501912736705,-2.195709075562726,-4.409968435790569,-0.9032134533332464,0.02,0.191,-0.1,0.2,0.3,-2.1120634,-4.4162865,-0.90216696
1753802125.6926658,0.1574502759102654,0.387326245480992,0.1682031711101116,0.376115463292182,-0.37360673989929,1.6542670712509802,1.060476779081974,-0.4215354496960838,0.4517192700174738,0.5074252382478379,-2.6774423216861685,10.574494467285705,-17.59151125637239,-2.1739725919768937,-4.413203426072126,-0.9019180283840684,0.02,0.191,-0.1,0.2,0.3,-2.0418084,-4.4405255,-0.90287733
1753802125.7012408,0.1571236671903174,0.3870183754669525,0.1677914857185005,0.37582471250066,-0.3761039599677526,1.657284026804747,1.060879902200391,-0.5993328164310282,0.724069332904046,0.0967495484200903,-6.428300116501955,15.993752648660411,-20.0,-4.188911526814614,-3.7322807621227474,-0.8766535520333273,0.02,0.191,-0.1,0.2,0.3,-3.5455198,-3.9311087,-0.8650952
1753802125.7095428,0.1568038291403582,0.386707070116449,0.1673943297342745,0.3755401471156567,-0.3788083623587164,1.6606486736468369,1.0607353931279129,-0.6490565738313011,0.8075152421015197,-0.0346821773947269,-12.737621318089936,20.0,-20.0,-2.731883634454135,-4.230783414035374,-0.891304314611682,0.02,0.191,-0.1,0.2,0.3,-2.1775894,-4.3966837,-0.8923732
1753802125.8108263,0.1564908122665237,0.3863923417192835,0.1670058397018195,0.3752551075128133,-0.3814699186577195,1.6639987514971608,1.0605746071968327,-0.6387735117607467,0.804018684077777,-0.038588623459248,-15.996917160403829,20.0,-20.0,-2.027422118531175,-4.456373451437765,-0.9004610256343942,0.02,0.191,-0.1,0.2,0.3,-1.7772526,-4.5276885,-0.9068357
1753802125.8188064,0.1561846659978068,0.3860742027003943,0.1666239188706508,0.3749664318768402,-0.3839501332494434,1.6671365059063312,1.0606864311913935,-0.595251502013742,0.7530610582008843,0.0268377586946366,-14.709753838280871,19.922043465478072,-20.0,-1.6277646972624429,-4.580752184558729,-0.90644743281292,0.02,0.191,-0.1,0.2,0.3,-1.7316498,-4.520866,-0.9100953
1753802125.8269448,0.1558854386782523,0.3857526656193652,0.1662476125028008,0.3746724253207428,-0.3861826996360635,1.6699701570255547,1.061205015195293,-0.5358159327888317,0.6800762686136692,0.1244601609358233,-9.12444865744465,13.26895880852102,-12.972648003997984,-1.425522248637642,-4.636931471045453,-0.9089743119060428,0.02,0.191,-0.1,0.2,0.3,-1.5490175,-4.5622864,-0.9154646
1753802125.8350546,0.1555931775593227,0.3854277431699295,0.1658765718390167,0.3743722009034992,-0.3881636192283208,1.672496823642762,1.0621340088546996,-0.4754207021417465,0.606399988129745,0.2229584782575958,-2.542467919554144,4.954542172732554,-2.976396487874148,-1.4000755517303178,-4.639776936936316,-0.9089545737101412,0.02,0.191,-0.1,0.2,0.3,-1.3079716,-4.6439867,-0.9182243
1753802125.843425,0.1553079287924368,0.3850994481794692,0.1655108623040384,0.3740657777452116,-0.3899193258510073,1.6747561149734065,1.0634156435752788,-0.4213695894447518,0.5422299193546241,0.3075923329390144,3.386198450741527,-2.5919204704540006,6.324088985273634,-1.4628847392592756,-4.616341757623028,-0.9068001498415788,0.02,0.191,-0.1,0.2,0.3,-1.336053,-4.5901217,-0.8939117
1753802125.9487343,0.1550297374216814,0.3847677936085083,0.165150627586123,0.3737535759815403,-0.3914565247402611,1.6767599111142957,1.0650323706743134,-0.368927733420916,0.4809110738134823,0.388014503768317,8.07611572848606,-8.49935935191572,13.57165049927002,-1.469695505421969,-4.608435694282124,-0.9053001370327806,0.02,0.191,-0.1,0.2,0.3,-1.4512109,-4.568224,-0.88839996
1753802125.957914,0.154758647376699,0.3844327925502015,0.164795927665165,0.3734357299111958,-0.3927979597217738,1.6785421967457477,1.0669343599065997,-0.3219443955630431,0.4277485515484916,0.456477415748635,11.498368980728776,-12.70706347178345,18.60882075701386,-1.523691272311286,-4.587129083078765,-0.9027929483610764,0.02,0.191,-0.1,0.2,0.3,-1.5545348,-4.551202,-0.8842865
1753802125.9662926,0.1544947014657502,0.3840944582298169,0.1644468867792539,0.3731126094467984,-0.3938914694033695,1.6800323966568749,1.0692243596975717,-0.2624423235829785,0.3576479786705248,0.5495999498332702,14.22536297192399,-16.00360844632648,20.0,-1.364700515093121,-4.628088082682297,-0.90346231035415,0.02,0.191,-0.1,0.2,0.3,-1.4333004,-4.5891457,-0.88884336
1753802125.974723,0.1542379413689541,0.3837528040042142,0.1641032072769226,0.3727835678368629,-0.3946797496233437,1.6811536987806306,1.072013989734448,-0.1891872527938066,0.2691125097013851,0.6695112088503755,17.037389048636623,-19.463085316780823,20.0,-1.1909554279333576,-4.671936586179289,-0.9041559786629816,0.02,0.191,-0.1,0.2,0.3,-1.1595701,-4.650091,-0.89772844
1753802125.9828663,0.1539884076317065,0.3834078433613171,0.1637645566992389,0.3724479155224243,-0.3951066461435177,1.6818319844219027,1.075410447040413,-0.1024551648417742,0.1627885539053219,0.8151497534316123,20.0,-20.0,20.0,-1.0201731805479364,-4.712929277475864,-0.9046065480346488,0.02,0.191,-0.1,0.2,0.3,-1.0349194,-4.6706905,-0.8941285
1753802126.0780454,0.1537461396582771,0.3830595899195812,0.1634306135933692,0.3721050180068503,-0.3951973549574338,1.682105930075521,1.0793570600472155,-0.0217701153398447,0.0657469568683601,0.9471871216326044,20.0,-20.0,20.0,-1.0837696118819429,-4.6848569004408445,-0.900241590679172,0.02,0.191,-0.1,0.2,0.3,-1.2258962,-4.596271,-0.88785416
1753802126.0863028,0.1535111757055874,0.3827080574274561,0.1631013972774558,0.3717553190325933,-0.3950985510933364,1.682179375506402,1.0835578686630931,0.0237129273833707,0.017626903411438,1.0081940678106156,20.0,-20.0,20.0,-1.5020686919851474,-4.559745458321463,-0.888952279607175,0.02,0.191,-0.1,0.2,0.3,-1.3614734,-4.548869,-0.88337654
1753802126.0951705,0.1532835528771694,0.3823532597628427,0.1627774222040179,0.3714008769186352,-0.3949530814755603,1.6822499551251924,1.087725143977441,0.0349127082662534,0.0169391085096512,1.000146075443492,20.0,-20.0,20.0,-1.9077979622521133,-4.437122840995095,-0.8782037661876334,0.02,0.191,-0.1,0.2,0.3,-1.4347068,-4.530007,-0.88097817
1753802126.103743,0.1530633071173063,0.3819952109325452,0.1624594612854936,0.371043544829487,-0.3948940205018317,1.6825004908337946,1.0915919019192613,0.0141746336948673,0.0601285700645311,0.9280219060368824,17.965291941450836,-17.307593986556878,17.02790733570909,-2.285327334943561,-4.32418574125856,-0.8686772472013288,0.02,0.191,-0.1,0.2,0.3,-1.8845323,-4.4200788,-0.87455297
1753802126.1117525,0.1528504732053567,0.3816339250717184,0.1621484836735605,0.3706849677203299,-0.3948156993104693,1.6827862959856084,1.095369284007318,0.0187970859269998,0.0685932364353191,0.9065717011336584,14.55119297602972,-12.682050299496863,11.049982389577128,-1.9767781434635443,-4.404895231783841,-0.8698327906082011,0.02,0.191,-0.1,0.2,0.3,-1.9791874,-4.387843,-0.8667085
1753802126.208223,0.1526450847502627,0.3812694164433093,0.1618439068943732,0.3703236636029118,-0.3947329355668652,1.6831281386645331,1.0990260276433583,0.019863298464975,0.0820422429419565,0.8776184726496531,11.46963534297328,-8.48984255559415,5.5453450773654005,-2.014464334147997,-4.388761717885184,-0.8662524777911632,0.02,0.191,-0.1,0.2,0.3,-2.0190485,-4.3709216,-0.8619033
1753802126.2165875,0.1524471741852423,0.3809016994374947,0.1615459912940095,0.3699597914575188,-0.394657379460977,1.6835421135160145,1.102538166369683,0.0181334654131736,0.0993539643555032,0.8429132943178819,9.034657891217046,-5.170802964753784,1.1807406059489307,-2.043799268648513,-4.37545772683052,-0.8625522388202963,0.02,0.191,-0.1,0.2,0.3,-2.027146,-4.367467,-0.8632556
1753802126.2252245,0.1522567727626678,0.3805307885711121,0.161254932598385,0.3695934429238938,-0.3945959912962073,1.6840377823408357,1.1058908769806857,0.0147331595447204,0.1189605179570765,0.8046505466406615,7.164903509962903,-2.618510961868833,-2.1753798218927263,-2.060013659449564,-4.36672119605431,-0.8593942622738403,0.02,0.191,-0.1,0.2,0.3,-2.0292237,-4.366026,-0.8642686
1753802126.23348,0.1520739105491312,0.3801566984870876,0.1609709270888346,0.3692246767559445,-0.3945539756123252,1.6846221794933638,1.109072888686573,0.0100837641317163,0.140255316606764,0.7636828094129795,5.469204864006376,-0.3010282802411586,-5.281351489129053,-2.0715765116729763,-4.359973934442979,-0.8564793027502328,0.02,0.191,-0.1,0.2,0.3,-2.0233407,-4.36388,-0.86074865
1753802126.2418518,0.1518986164206957,0.3797794439538571,0.1606941654400604,0.3688535429721065,-0.3945347205983665,1.6852998551833518,1.1120768302826611,0.0046212033500727,0.1626421655971235,0.7209459830611187,3.9745188601130126,1.741372446364771,-8.060371648178997,-2.077893812966657,-4.354441107640959,-0.8535070028410681,0.02,0.191,-0.1,0.2,0.3,-2.0153265,-4.362742,-0.85774755
1753802126.3388608,0.1517309180583363,0.3793990398647835,0.1604248040626358,0.3684800429249072,-0.3945396949632205,1.6860726955786542,1.114899198763993,-0.0011938475649626,0.1854816948725728,0.6773684355195634,2.691012517656854,3.4935270341669225,-10.475062873798528,-2.0789329344594574,-4.350762740419918,-0.8507041529128466,0.02,0.191,-0.1,0.2,0.3,-2.0054007,-4.362513,-0.85515344
1753802126.347452,0.1515708419435684,0.379015501237569,0.1601629802076325,0.36810415967672,-0.3945703161256575,1.6869424742378265,1.1175373123422805,-0.0073490789848712,0.2087468782012996,0.6331472587890091,1.6088484233909082,4.968231040704037,-12.527446931244963,-2.079908682737324,-4.346596832002016,-0.8475049906503273,0.02,0.191,-0.1,0.2,0.3,-1.9935981,-4.3631372,-0.8529021
1753802126.355913,0.1514184133542663,0.3786288432136618,0.1599087669125605,0.3677258265613602,-0.3946265698533587,1.6879091207162835,1.1199903265849374,-0.0135008946482781,0.2319951548297432,0.5887234182377041,0.71273488033368,6.186880961975138,-14.238795137746898,-2.076708394518086,-4.34447110886456,-0.8450407290179449,0.02,0.191,-0.1,0.2,0.3,-1.9801594,-4.3644924,-0.8509028
1753802126.364256,0.1512736563606711,0.3782390810576588,0.1596623063627144,0.3673450209738903,-0.3947070039234148,1.6889704476479568,1.12226042182493,-0.0193041768134577,0.2547184636015754,0.5448228575982376,-0.0080623966382454,7.164240889922887,-15.628146637423662,-2.070097199241567,-4.3443252365008975,-0.8427792923931953,0.02,0.191,-0.1,0.2,0.3,-1.9654499,-4.3664427,-0.8491057
1753802126.3723686,0.1511365938215903,0.3778462301567023,0.1594237097454007,0.3669617274873448,-0.3948104855045056,1.690124459114143,1.1243493317203157,-0.0248355794617905,0.2769627518847911,0.5013383748925409,-0.5696280917777177,7.920435585548814,-16.723391371894422,-2.065347616491428,-4.345086306572177,-0.8407318006559641,0.02,0.191,-0.1,0.2,0.3,-1.9495443,-4.3689537,-0.8475126
1753802126.4697025,0.1510072473807876,0.3774503060198734,0.159193079872754,0.3665759759163884,-0.3949275273347598,1.6913583422302343,1.1262745555704643,-0.0280900392610042,0.2961319478618311,0.4620537240357267,-0.9460405638684772,8.42154228014907,-17.47368563744702,-2.0355769885922195,-4.351567321974932,-0.8390818829881164,0.02,0.191,-0.1,0.2,0.3,-1.9338068,-4.3715587,-0.84589255
1753802126.4783456,0.1508856374635655,0.3770513242775789,0.1589704676091441,0.3661876749796817,-0.3951847843540577,1.6928402583129227,1.1277892777301817,-0.0617416846315129,0.3556598598452452,0.363533318332178,-1.8840255423008256,9.662537390953798,-19.32811999029841,-2.399546387347622,-4.252828295659332,-0.8318828329458984,0.02,0.191,-0.1,0.2,0.3,-1.9387041,-4.3703566,-0.8457909
1753802126.4869866,0.1507717832735397,0.3766493006809349,0.158757117189864,0.3657982300236848,-0.3954929905614744,1.6944505873343416,1.129067585142954,-0.0739694897800199,0.3864789651405073,0.3067937790653671,-3.1566308577042648,11.339685434099785,-20.0,-2.1400467985299896,-4.3219798781299765,-0.8333966599641635,0.02,0.191,-0.1,0.2,0.3,-1.8956624,-4.3763933,-0.83840877
1753802126.4958246,0.1506657027896066,0.3762442511011448,0.1585523206932708,0.3654066214703204,-0.3957685759080936,1.6960781490764945,1.1302712246456927,-0.0661404831885959,0.3906148181166834,0.2888734806572552,-3.624302519798261,11.93919684866391,-20.0,-1.89655338874833,-4.386522370831829,-0.8348475855913756,0.02,0.191,-0.1,0.2,0.3,-1.8567783,-4.382433,-0.8334293
1753802126.50542,0.1505674127631043,0.3758361915288721,0.1583553906315846,0.3650119440101588,-0.3959422628950423,1.6976315639435624,1.1315329918988446,-0.0416848768676825,0.372819568096291,0.3028241407564554,-2.727950294855695,10.72715565647131,-18.854308711157277,-1.693878843346562,-4.439443890562565,-0.8357838655940658,0.02,0.191,-0.1,0.2,0.3,-1.8545359,-4.382238,-0.8319277
1753802126.6034124,0.1504769287151674,0.3754251380736104,0.1581657569259867,0.3646134773389913,-0.3959736833355796,1.6990581601635553,1.1329291575776088,-0.0075409057289502,0.3423830927982684,0.33507976290341,-0.4413406045900057,7.679709852261752,-14.91804990682412,-1.575146710923485,-4.46984878843755,-0.835474217807701,0.02,0.191,-0.1,0.2,0.3,-1.8516575,-4.383453,-0.8286095
1753802126.611971,0.1503942649342761,0.3750111069630459,0.1579830870352098,0.3642108448587166,-0.3958991615583772,1.70040603153768,1.1343889375416192,0.0178852265285617,0.3234891297899228,0.3503471913624773,2.1672202823016544,4.21714389410499,-10.287046983667857,-1.680432134494655,-4.442202910820216,-0.8317890077495544,0.02,0.191,-0.1,0.2,0.3,-1.840439,-4.38789,-0.82567596
1753802126.6204326,0.1503194344739996,0.3745941145424182,0.1578076820176518,0.3638045352468346,-0.3957502365558737,1.7017168479676577,1.1358505788569346,0.0357420006008388,0.3145959431946845,0.3507939156756889,4.19060214802694,1.5360775613005784,-6.727745926173472,-1.7718870763329937,-4.418015554181983,-0.8284029740294836,0.02,0.191,-0.1,0.2,0.3,-1.8269607,-4.3925405,-0.82325506
1753802126.6283395,0.150252449150935,0.3741741772738739,0.1576398554771157,0.3633949676113438,-0.395574930308157,1.703053472918407,1.1372213215825595,0.0420734994520034,0.3207899881798617,0.3289782541499934,5.167236385296553,0.2386715954795697,-5.136204793498781,-1.912018397437138,-4.381681672397561,-0.8243005690585843,0.02,0.191,-0.1,0.2,0.3,-1.8107928,-4.397132,-0.82197493
1753802126.6365576,0.1501933195428413,0.3737513117358174,0.1574800782212259,0.3629827262494183,-0.3954166872089926,1.7044723284768435,1.1384183794096234,0.0379783437994699,0.3405253340248252,0.2872938784953356,4.997115496043158,0.4474071617432947,-5.700822140409963,-2.039385626911687,-4.348576566204512,-0.8199864270744842,0.02,0.191,-0.1,0.2,0.3,-1.7931195,-4.401115,-0.8218632
1753802126.7351282,0.1501420549869693,0.373325534622256,0.157328743095172,0.3625682850089577,-0.3953060942480822,1.706012933358959,1.1393832643722277,0.0265423106184923,0.3697451717077153,0.2315723910249573,3.942039258295134,1.811613124704076,-7.916826120042881,-2.129040660266057,-4.325318268850684,-0.8165167087214376,0.02,0.191,-0.1,0.2,0.3,-1.7744046,-4.404521,-0.822644
1753802126.742875,0.1500986635785864,0.3728968627421411,0.1571861855631655,0.362151965763533,-0.395259749128125,1.7076968834442083,1.140083603243753,0.0111228287897206,0.4041480204598283,0.1680813291660759,2.3495608987835634,3.8748498664992663,-11.125432883601214,-2.176504286974472,-4.311381329835984,-0.8137101844223925,0.02,0.191,-0.1,0.2,0.3,-1.7548693,-4.4075522,-0.8239739
1753802126.7513752,0.1500631521696991,0.3724653130187046,0.1570526566732255,0.3617338765668582,-0.3952763452780288,1.7095219913297548,1.1405218351962578,-0.0039830759768952,0.4380258925311469,0.1051756686012108,0.6383989946184236,6.089551632516051,-14.533288594502435,-2.173270119689285,-4.31254758641369,-0.8118040564809429,0.02,0.191,-0.1,0.2,0.3,-1.8251883,-4.388067,-0.8202586
1753802126.7593842,0.1500355263679705,0.3720309024887906,0.1569282110279883,0.3613139881656028,-0.3953344556782149,1.7114596324011184,1.1407390486574558,-0.0139464960446844,0.4650338571272969,0.052131230687498,-0.7795154195926247,7.915742273133303,-17.356744500123895,-2.112678130202534,-4.330368953545737,-0.8109231729775217,0.02,0.191,-0.1,0.2,0.3,-1.8903543,-4.3715224,-0.81510025
1753802126.7669094,0.150015790535835,0.3715936483021831,0.1568126766377462,0.3608921099258916,-0.3953285439870886,1.71337269117915,1.1409352580786054,0.0014188058703114,0.4591341067276101,0.0470902610758893,-1.1611037084986489,8.389189649112561,-18.187607231534724,-1.806659572002786,-4.411115505684789,-0.8134868244272337,0.02,0.191,-0.1,0.2,0.3,-1.9010087,-4.366283,-0.81211156
1753802126.8674147,0.1500039477898092,0.3711535677209285,0.1567050903077812,0.3604671668396278,-0.3953073436962638,1.715323805737001,1.14101914916194,0.0050880697979621,0.4682674938842478,0.0201338600003067,-0.7080627024217807,7.772887611824053,-17.406448753767165,-1.950449359111432,-4.3751204535428325,-0.8091519372342088,0.02,0.191,-0.1,0.2,0.3,-1.8765811,-4.3736663,-0.81012434
1753802126.876922,0.15,0.3707106781186547,0.1566058113667398,0.3600396729968492,-0.3952351289127451,1.7172665713869857,1.141058115841694,0.0173315480444933,0.4662637559962337,0.0093520031410291,0.1086930225211789,6.681523883347181,-15.911870532000531,-1.8481162576349872,-4.40331598934292,-0.8088822510637259,0.02,0.191,-0.1,0.2,0.3,-1.8322552,-4.3852577,-0.8088876
1753802126.8854892,0.1500039477898092,0.3702649969798849,0.1565145068702357,0.3596092956131755,-0.3950866300596518,1.7191680614951153,1.1410998642813286,0.0356397247423899,0.4563576259511541,0.0100196255122751,1.239561832885152,5.18374170859039,-13.8090655967778,-1.777112178289601,-4.42431196017068,-0.8082225618728274,0.02,0.191,-0.1,0.2,0.3,-1.7718602,-4.400454,-0.80821764
1753802126.893787,0.150015790535835,0.3698165418993472,0.1564309191102287,0.3591758452587418,-0.394840262859616,1.7210008728847443,1.141184267844891,0.0591281280085754,0.4398747335109669,0.0202568552549406,2.552340150869408,3.456294203252269,-11.359765935763065,-1.7150876555065004,-4.440184810736219,-0.8071447748559839,0.02,0.191,-0.1,0.2,0.3,-1.702206,-4.417437,-0.8078424
1753802126.9021935,0.1500355263679705,0.3693653305812804,0.1563548496848135,0.35873909037331,-0.3944850960827753,1.7227506502249363,1.1413320175734387,0.0852400264417676,0.4199465616460927,0.035459934851463,4.100458180382709,1.4315831342600136,-8.467757912959382,-1.6868665627690014,-4.450411886988702,-0.8057214654541174,0.02,0.191,-0.1,0.2,0.3,-1.6221918,-4.4370584,-0.80776393
1753802127.0035124,0.1500631521696991,0.3689113808387348,0.156286146789713,0.3582990054140655,-0.3940053145360804,1.7243971847778168,1.1415723403290892,0.1151475712067861,0.3951682926913136,0.0576774613561212,5.721595761024741,-0.6812891137476087,-5.439969846501977,-1.6437281159597223,-4.463115825971608,-0.8044051930110262,0.02,0.191,-0.1,0.2,0.3,-1.6087214,-4.4402814,-0.8033501
1753802127.012072,0.1500986635785864,0.3684547105928689,0.156224641706336,0.3578554815080803,-0.3933861230970894,1.725921819673442,1.1419320490759233,0.148605945357836,0.3659123749500527,0.086330099240166,7.3654956015764945,-2.8152618331996218,-2.376760946588288,-1.6035025655637047,-4.474496613736131,-0.8030248547081248,0.02,0.191,-0.1,0.2,0.3,-1.5864419,-4.4490294,-0.7993154
1753802127.020556,0.1501420549869693,0.3679953378722418,0.1561701974557249,0.357408416103975,-0.3926195816386426,1.727314913168687,1.142425278782607,0.1839699500272421,0.3343424388587656,0.1183751296040779,8.97675791832349,-4.896917488729169,0.6148245265589325,-1.5830978858377007,-4.47925206623028,-0.800830646888146,0.02,0.191,-0.1,0.2,0.3,-1.5502237,-4.4644866,-0.79605174
1753802127.02923,0.1501933195428413,0.3675332808121024,0.1561227061354639,0.3569577231592111,-0.3916876365766327,1.7285532205818153,1.1430856358798474,0.2236668148823775,0.2971937791508243,0.158485703337685,10.569126776086083,-6.945100776507875,3.562408111227517,-1.5361184398732832,-4.494237406514144,-0.7993216451195732,0.02,0.191,-0.1,0.2,0.3,-1.5214621,-4.4770455,-0.7922988
1753802127.0377088,0.150252449150935,0.3670685576536719,0.1560819458343091,0.3565033329314688,-0.3906034462147005,1.7296540067084747,1.1438876316830064,0.260205686863726,0.2641886703982425,0.1924789927581769,12.011558085084452,-8.794304459840175,6.222658472826097,-1.5785340950578348,-4.482913335682915,-0.7960661710264819,0.02,0.191,-0.1,0.2,0.3,-1.4947835,-4.4886217,-0.78855306
1753802127.1380672,0.1503194344739996,0.3666011867434251,0.1560480116435707,0.3560453982767586,-0.3893330658202166,1.7305744523178268,1.1448937957062382,0.3048912946761249,0.2209069462445166,0.2414793655756378,13.374193259449807,-10.532795928740542,8.725088278991162,-1.4844816428251084,-4.507087446092893,-0.7946326539451964,0.02,0.191,-0.1,0.2,0.3,-1.4822582,-4.4944315,-0.783994
1753802127.1470337,0.1503942649342761,0.3661311865323651,0.1560205475995404,0.3555836120201218,-0.3878512795753447,1.7312829058066026,1.1461503160421649,0.3556286987692719,0.170028837306173,0.3015648806223802,14.879029492855729,-12.44335995360407,11.48330223663843,-1.4166412658972511,-4.524424626379771,-0.7926192902744552,0.02,0.191,-0.1,0.2,0.3,-1.4744145,-4.4988413,-0.77886456
1753802127.1557393,0.1504769287151674,0.3656585755752956,0.1559992592455673,0.355117777631673,-0.3861593171850882,1.7317816328531637,1.1476537840882566,0.4060709736615618,0.1196944911746668,0.3608323310620543,16.45130579032659,-14.429146876540178,14.356067562210615,-1.4257186953995915,-4.520350033165641,-0.7891280704186457,0.02,0.191,-0.1,0.2,0.3,-1.4658006,-4.5039425,-0.7735781
1753802127.164938,0.1505674127631043,0.3651833725300878,0.1559841032336112,0.3546479310949744,-0.384269104103812,1.732086148098703,1.1493812016652898,0.4536511395062832,0.0730836589294772,0.4145802184879619,17.872815500641337,-16.214469240215877,16.938488398749893,-1.467629539963729,-4.50885462316997,-0.7850709883248356,0.02,0.191,-0.1,0.2,0.3,-1.4602617,-4.507733,-0.768226
1753802127.1726594,0.1506657027896066,0.3647055961569444,0.1559751306499223,0.3541742529867235,-0.3821759863334246,1.7321912105058346,1.151339727339325,0.5023482648929838,0.0252149777115751,0.4700461617684828,18.999332826736577,-17.61697531664545,18.960342296178176,-1.461003882764841,-4.508742826857358,-0.7816050739468601,0.02,0.191,-0.1,0.2,0.3,-1.4672569,-4.506037,-0.7624524
1753802127.2744002,0.1507717832735397,0.3642252653176584,0.1559722756057365,0.3536967426206309,-0.3798552466163212,1.7320659934506293,1.1535738985522948,0.556977532104812,-0.0300520932492547,0.5362010911126953,20.0,-18.865934607683386,20.0,-1.39722871193792,-4.524003355627912,-0.7788229476791624,0.02,0.191,-0.1,0.2,0.3,-1.3375996,-4.5332456,-0.76123524
1753802127.2829978,0.1508856374635655,0.363742398974869,0.1559752577054226,0.3532152509129122,-0.3772417649419519,1.731630057324219,1.15620119798258,0.6272356018486335,-0.1046246703384704,0.6305518632684949,20.0,-20.0,20.0,-1.2119828952194127,-4.564218561575592,-0.7770914092981419,0.02,0.191,-0.1,0.2,0.3,-1.2595216,-4.5409055,-0.76490706
1753802127.2917385,0.1510072473807876,0.3632570161913124,0.1559834386787035,0.3527291138735927,-0.3743255460492949,1.7308717909409197,1.159237997120454,0.6998925342376705,-0.1819839319918455,0.7288317930897551,20.0,-20.0,20.0,-1.191129245023629,-4.565296144129025,-0.7728945584973106,0.02,0.191,-0.1,0.2,0.3,-1.2415243,-4.530557,-0.7571821
1753802127.2998853,0.1511365938215903,0.36276913612907,0.1559966458087215,0.3522383400937924,-0.3711947676757372,1.7299017376424437,1.162521773113397,0.7513868096538409,-0.232812791634239,0.7881062383062973,20.0,-20.0,20.0,-1.4626088694755155,-4.497287711733705,-0.764291611658112,0.02,0.191,-0.1,0.2,0.3,-1.2508634,-4.518669,-0.7501896
1753802127.3082178,0.1512736563606711,0.3622787780488112,0.1560156017879678,0.351743977362578,-0.3678552980147653,1.728728116537917,1.1660407356680804,0.8014727186332677,-0.281669065086363,0.8445510131239985,20.0,-20.0,20.0,-1.4899373814726578,-4.484577238844098,-0.7581266699834448,0.02,0.191,-0.1,0.2,0.3,-1.2671999,-4.5054545,-0.74305737
1753802127.4093475,0.1514184133542663,0.3617859613090334,0.1560402638476767,0.3512460542071349,-0.3642769816279477,1.7273136735856118,1.1698483777450042,0.8587959328362172,-0.3394663085532175,0.913834098461714,20.0,-20.0,20.0,-1.4133832742208985,-4.500015192664162,-0.7541209807943887,0.02,0.191,-0.1,0.2,0.3,-1.2832361,-4.4906435,-0.73532605
1753802127.418197,0.1515708419435684,0.3612907053652976,0.1560703058754781,0.3507443989721704,-0.3605059170399189,1.7257167729414629,1.1738592309871374,0.9050555011269108,-0.383256154595769,0.9626047781119615,20.0,-20.0,20.0,-1.560802474797933,-4.457890143211383,-0.7459023622198632,0.02,0.191,-0.1,0.2,0.3,-1.315344,-4.4746103,-0.7279154
1753802127.4267995,0.1517309180583363,0.3607930297694605,0.1561061044116702,0.3502394398973981,-0.3565437248150684,1.723939885677564,1.1780690365810784,0.9509261339641214,-0.42645294333571,1.0103533425458384,20.0,-20.0,20.0,-1.5791038498342065,-4.449002573192016,-0.7397482073531043,0.02,0.191,-0.1,0.2,0.3,-1.3511173,-4.458215,-0.7201384
1753802127.435379,0.1518986164206957,0.3602929541689024,0.1561476401343677,0.3497312412431846,-0.3523975387391136,1.721992530164643,1.1824636979827334,0.9950846582291504,-0.4673653231010603,1.0547187363972022,20.0,-20.0,20.0,-1.6136696120151173,-4.434623305890223,-0.7327682840216296,0.02,0.191,-0.1,0.2,0.3,-1.3659314,-4.451145,-0.7121126
1753802127.4438398,0.1520739105491312,0.3597904983057519,0.1561949213174881,0.3492198539199311,-0.3480742854609334,1.7198837341804307,1.1870293654416426,1.0375807867632691,-0.5061110362109442,1.0957601901382144,20.0,-19.964943868459027,20.0,-1.6490091752281388,-4.421256176428546,-0.7259369821007954,0.02,0.191,-0.1,0.2,0.3,-1.3643886,-4.4489465,-0.7069307
1753802127.5457053,0.1522567727626678,0.3592856820161059,0.1562480004710369,0.3487053765260531,-0.3435653839601499,1.7176032033178454,1.1917799557474034,1.0821363601880296,-0.5473274070204684,1.1401416733825769,20.0,-19.856252245399325,20.0,-1.6393436406050126,-4.419005720155544,-0.7198510413828757,0.02,0.191,-0.1,0.2,0.3,-1.3651525,-4.4459367,-0.70092756
1753802127.554557,0.1524471741852423,0.3587785252292473,0.1563068014411288,0.3481878037264841,-0.3388572475692514,1.7151348231389802,1.1967387014802937,1.129952733815625,-0.5924112429276267,1.190098975893693,20.0,-19.87164887905555,20.0,-1.6141706917997989,-4.4175101422300855,-0.7130986007556566,0.02,0.191,-0.1,0.2,0.3,-1.3572103,-4.4450054,-0.6960934
1753802127.5636165,0.1526450847502628,0.3582690479668576,0.1563711337746727,0.3476670060485377,-0.3339315039769147,1.712456567968928,1.2019365511072186,1.1821784621608222,-0.6427812408125857,1.247483910462003,20.0,-20.0,20.0,-1.5754205676959738,-4.419598171619215,-0.7068907130971465,0.02,0.191,-0.1,0.2,0.3,-1.3391987,-4.4463406,-0.69230574
1753802127.5721884,0.1528504732053568,0.3577572703422267,0.1564408193776157,0.3471428889751681,-0.3287571438057798,1.70953101854387,1.2074269963872146,1.2418464410723755,-0.7021318620138897,1.3177068671990606,20.0,-20.0,20.0,-1.4990286866118836,-4.428613063901948,-0.7007746362569044,0.02,0.191,-0.1,0.2,0.3,-1.3156608,-4.448015,-0.6872206
1753802127.580882,0.1530633071173063,0.357243212559459,0.1565155171152386,0.3466152603687899,-0.3233091240084995,1.7063282169987155,1.213252372648634,1.307524751347278,-0.768672370837012,1.3980903027406606,20.0,-20.0,20.0,-1.4406270716386202,-4.432472549052858,-0.6941745592461015,0.02,0.191,-0.1,0.2,0.3,-1.285035,-4.450866,-0.6820358
1753802127.6848,0.1532835528771694,0.3567268949126756,0.1565949428229683,0.346084021142725,-0.3175481317882857,1.7028012301671374,1.2194796267935133,1.3826381328513044,-0.8464768395788054,1.4945409947710613,20.0,-20.0,20.0,-1.3384108236166237,-4.442793175735337,-0.6877317916518645,0.02,0.191,-0.1,0.2,0.3,-1.2408608,-4.4560485,-0.67678577
1753802127.6934326,0.1535111757055874,0.356208337785213,0.1566786591975516,0.3455489509123513,-0.3114325771206973,1.6989007135332486,1.2261792878633355,1.467733120221225,-0.936123992133332,1.6079186567573245,20.0,-20.0,20.0,-1.2286801719847664,-4.451610122412888,-0.6807198169645885,0.02,0.191,-0.1,0.2,0.3,-1.1831189,-4.463534,-0.67143583
1753802127.70229,0.1537461396582771,0.3556875616488188,0.1567661577427208,0.3450098319578261,-0.3048968623772495,1.6945491776430084,1.2334619260961972,1.5685715384274648,-1.044368613657625,1.747833175886816,20.0,-20.0,20.0,-1.0434445299099686,-4.4707231618477685,-0.674571170038652,0.02,0.191,-0.1,0.2,0.3,-0.998742,-4.4757743,-0.66150063
1753802127.7107084,0.1539884076317065,0.355164587062843,0.1568567453044319,0.3444662668678534,-0.2978744158752111,1.6896689143504358,1.241438909373084,1.6853871604892103,-1.1712631902174095,1.914475986452821,20.0,-20.0,20.0,-0.8524073019192896,-4.483896012260886,-0.6671776674541905,0.02,0.191,-0.1,0.2,0.3,-0.6614722,-4.509038,-0.65966904
1753802127.7191224,0.1542379413689541,0.3546394346734269,0.1569496164494407,0.3439178397336174,-0.2902924582652924,1.6841750355432423,1.250229239462157,1.819669826380503,-1.3185309137264132,2.1096792213775206,20.0,-20.0,20.0,-0.6416158576574604,-4.499109381735326,-0.6609426507022841,0.02,0.191,-0.1,0.2,0.3,-0.49388063,-4.5196705,-0.65932477
1753802127.8218272,0.1544947014657502,0.3541121252126876,0.1570440487236667,0.3433643503931377,-0.282105008829577,1.678015448568443,1.259906510861486,1.9649878645716847,-1.4783008739517944,2.3225451358389235,20.0,-20.0,20.0,-0.5112637418599819,-4.490838694107221,-0.6508214274104747,0.02,0.191,-0.1,0.2,0.3,-1.3360871,-4.31782,-0.6120967
1753802127.8305418,0.154758647376699,0.3535826794978996,0.1571392927184691,0.342805790744554,-0.2738414391078984,1.6718127922499482,1.2695723295295094,1.983256733202854,-1.4886375164387986,2.3197964803256057,20.0,-20.0,20.0,-2.205035022345574,-4.207560249473368,-0.6125864337490275,0.02,0.191,-0.1,0.2,0.3,-2.2386649,-4.1440883,-0.5771205
1753802127.839314,0.1550297374216814,0.3530511184306734,0.1572394420301839,0.3422479284690895,-0.2658071156637795,1.665929674733859,1.2787035467926977,1.928237626588523,-1.4119482038613995,2.191492143165146,20.0,-20.0,20.0,-3.189932703887447,-4.036355945542868,-0.5865287884828794,0.02,0.191,-0.1,0.2,0.3,-3.0333314,-4.0337734,-0.55446154
1753802127.8476765,0.1553079287924368,0.3525174629961295,0.1573477518843498,0.3416929217843149,-0.2581899875974047,1.6605914301848117,1.2869748829773595,1.8281107359299664,-1.281178691771408,1.985120684318866,13.798536091520972,-12.266035399446508,8.91655209112993,-3.8062369497833073,-3.9281250289082337,-0.5674939687021123,0.02,0.191,-0.1,0.2,0.3,-3.8918822,-3.9063914,-0.5386536
1753802127.856643,0.1555931775593227,0.3519817342620709,0.157466917430873,0.3411411871910801,-0.2510926917661574,1.655922278223625,1.2942088692070304,1.7033509994993568,-1.1205964706847555,1.7361566951210288,3.3387950000041924,0.4653512137756816,-9.38355454432108,-4.15769496733279,-3.8661625085703712,-0.5521039517181769,0.02,0.191,-0.1,0.2,0.3,-4.1971164,-3.8556256,-0.52040154
1753802127.9593277,0.1558854386782523,0.3514439533781506,0.1575987375145559,0.3405921305979094,-0.2445639792417971,1.651981675263918,1.300319962100672,1.5668910058464602,-0.9457447103296384,1.4666622944740064,-8.158629014345449,14.408423219751436,-20.0,-4.343428159354497,-3.838105800410065,-0.5410722092773287,0.02,0.191,-0.1,0.2,0.3,-4.2847366,-3.790068,-0.52193505
1753802127.9682596,0.1561846659978068,0.3509041415750371,0.1577445391836134,0.3400449030616758,-0.2386157509130932,1.6487847481064732,1.3052861454010718,1.4275747988889496,-0.7672625177867514,1.1918839920959703,-18.978808312198204,20.0,-20.0,-4.414707052863262,-3.83176634215146,-0.5326592087726422,0.02,0.191,-0.1,0.2,0.3,-4.4681854,-3.8503244,-0.5283392
1753802127.9767933,0.1564908122665237,0.350362320163576,0.1579051488817388,0.3394985629026684,-0.2334142924364761,1.6465317439492388,1.3088160633706176,1.2483500343881022,-0.5407209977362515,0.8471803126910082,-20.0,20.0,-20.0,-4.961107447550084,-3.7478847961119377,-0.5205045826190371,0.02,0.191,-0.1,0.2,0.3,-4.9002657,-3.7249835,-0.515274
1753802127.985514,0.1568038291403582,0.3498185105339491,0.1580834614440716,0.3389530173956918,-0.2288932243052982,1.6451436879791796,1.3110232648443416,1.0850563514826954,-0.3331334328142049,0.5297283536937551,-20.0,20.0,-20.0,-4.78936160207725,-3.786745610245944,-0.517171445850259,0.02,0.191,-0.1,0.2,0.3,-4.724138,-3.7795415,-0.5077878
1753802127.994233,0.1571236671903174,0.3492727341548291,0.1582791314484543,0.3384071913710633,-0.2250001500339031,1.6445576943357925,1.3119970213965937,0.9343378251348088,-0.1406384744129477,0.2337015725405079,-20.0,20.0,-20.0,-4.659422452555874,-3.820277656408496,-0.5146849178870271,0.02,0.191,-0.1,0.2,0.3,-4.5563755,-3.830446,-0.50286895
1753802128.0979328,0.1574502759102654,0.3487250125725332,0.158491866236019,0.3378604333940744,-0.2216458770440767,1.6446657776885572,1.3118914626211131,0.8050255175583411,0.0259400046635046,-0.0253341061153402,-20.0,20.0,-20.0,-4.415930169274719,-3.8753700909861566,-0.5144345614744873,0.02,0.191,-0.1,0.2,0.3,-4.4124756,-3.8431518,-0.5015556
1753802128.1069498,0.1577836037248992,0.3481753674101715,0.1587207115607671,0.3373122753320453,-0.218714994170083,1.6453274986638105,1.3109079645836212,0.7034118897584899,0.1588130340608163,-0.2360395289980617,-20.0,20.0,-20.0,-4.091658015450538,-3.945921690235064,-0.5155395811322284,0.02,0.191,-0.1,0.2,0.3,-4.0776544,-3.9248118,-0.502246
1753802128.1158254,0.1581235979978929,0.3476238203667939,0.1589641611746129,0.3367624167770192,-0.2160917603468039,1.646401422581919,1.3092494361498386,0.6295761175869767,0.2577417403460499,-0.3980468241078659,-20.0,20.0,-20.0,-3.7653535342841,-4.017677433143895,-0.5172295671006732,0.02,0.191,-0.1,0.2,0.3,-3.6781707,-4.0325947,-0.5100649
1753802128.1247122,0.1584702050402094,0.3470703932165332,0.1592206002986862,0.3362107292462817,-0.213626954873075,1.6477050017714725,1.3071782967498653,0.5915533136949488,0.3128590054928254,-0.4970734559935782,-20.0,20.0,-20.0,-3.336278473770768,-4.109113697023903,-0.5206682619812354,0.02,0.191,-0.1,0.2,0.3,-3.397345,-4.109669,-0.5165872
1753802128.133453,0.1588233701185786,0.3465151078077458,0.1594879008916817,0.3356571163200013,-0.2112875404462882,1.6491960252930873,1.3047542868510034,0.5614594624288155,0.3578456451875316,-0.581762375726866,-20.0,20.0,-20.0,-3.260239657750402,-4.136474482342236,-0.5202499420629789,0.02,0.191,-0.1,0.2,0.3,-3.2663107,-4.159664,-0.5166856
1753802128.2366943,0.1591830374641408,0.3459579860621488,0.1597655055368715,0.335101813970244,-0.209001667431914,1.6507854928350996,1.302105224745438,0.5486095234498172,0.3814722100829335,-0.6357749053357198,-19.190353740543596,20.0,-20.0,-3.0643673540480543,-4.184416885595295,-0.5213198761330877,0.02,0.191,-0.1,0.2,0.3,-2.983584,-4.2164717,-0.51473665
1753802128.2458873,0.1595491502812526,0.3453990499739546,0.1600523103458332,0.3345449128511054,-0.2065212489797656,1.6521713296425309,1.2996681055551107,0.5953004285156198,0.3326008337834504,-0.5849086056785447,-15.872825151191083,17.41872983948113,-19.94451353037399,-2.3287250373812647,-4.327807758502914,-0.5284126436884168,0.02,0.191,-0.1,0.2,0.3,-2.3853784,-4.3567376,-0.5196402
1753802128.2546575,0.1599216507564561,0.3448383216090032,0.160344770298046,0.333985867935303,-0.2038552524222501,1.653361719887273,1.2974306584925297,0.6398391738037145,0.2856936587381461,-0.5369872950194792,-10.617982402359264,12.156719357542327,-15.286880328235265,-2.3772183042947237,-4.329611344569969,-0.5265758067851652,0.02,0.191,-0.1,0.2,0.3,-2.3508675,-4.332868,-0.5196089
1753802128.2635827,0.1603004800676082,0.3442758231038901,0.1606429023430454,0.3334249598488352,-0.2010166087142407,1.6543696505878536,1.2953739499960348,0.681274489922261,0.2419033681393246,-0.4936100391587267,-4.930161050839601,6.096355957588418,-8.89064210173784,-2.438493720312253,-4.32849058189657,-0.5241754133897573,0.02,0.191,-0.1,0.2,0.3,-2.3961685,-4.3173714,-0.5157288
1753802128.2720904,0.160685578393169,0.3437115766650933,0.1609467466627663,0.3328624704253142,-0.1981105921801337,1.6553206578796589,1.2933159063435882,0.6974439681856773,0.228241750033299,-0.493930476587178,-0.4351692343781095,1.260526753287445,-3.798115916982344,-2.779858139673941,-4.2737105193074605,-0.5184145091127222,0.02,0.191,-0.1,0.2,0.3,-2.5596428,-4.292372,-0.5083351
1753802128.3772604,0.1610768849216488,0.3431456045680958,0.1612576525490415,0.3322989141502386,-0.1951277592748747,1.6562018952163018,1.2912755668851572,0.7158798972621562,0.2114969607943245,-0.4896814700234202,2.205340658118246,-1.4991248658377232,-1.3319424549130852,-2.7715631663734297,-4.281312809065324,-0.5161662817251006,0.02,0.191,-0.1,0.2,0.3,-2.6577437,-4.2819376,-0.50510335
1753802128.3859615,0.1614743378612105,0.3425779291565072,0.1615753540609528,0.3317343475721159,-0.1920634866334948,1.657006725056696,1.2892632703129276,0.73542543393116,0.1931591616946046,-0.4829511773350817,3.7823501250484775,-3.0955818053970097,-0.2382261310688684,-2.7768708245027964,-4.284534905803064,-0.5135367983859177,0.02,0.191,-0.1,0.2,0.3,-2.7311156,-4.274802,-0.5030896
1753802128.3946304,0.1618778744494276,0.3420085728411806,0.1618996496807241,0.3311687784882882,-0.1889205722369158,1.657737423854467,1.287275999009031,0.7542994551789736,0.1753677114650535,-0.4769451129352132,4.81899196706693,-4.129435376424446,0.2939860859107044,-2.805282545424503,-4.284113801609878,-0.5109270645113099,0.02,0.191,-0.1,0.2,0.3,-2.7937825,-4.268213,-0.5010998
1753802128.4034803,0.1622874309631948,0.3414375580993284,0.1622304809691051,0.3306022673581651,-0.1857010553429798,1.658395659202737,1.2853118939021582,0.7726840545446337,0.1579764835847013,-0.4713852256494742,5.666212752324512,-5.002474627792822,0.7973595852667807,-2.8307205240743087,-4.282758748322904,-0.5081232871295223,0.02,0.191,-0.1,0.2,0.3,-2.8320143,-4.2683907,-0.4995012
1753802128.4126594,0.1627029427287909,0.3408649074736349,0.1625677710830246,0.3300348196922561,-0.182423896443753,1.659003993163403,1.283338634677281,0.7865181358144321,0.1460001505599316,-0.4735822139704985,6.21435667947411,-5.562544293227275,1.0102249486523536,-2.906898070296696,-4.270878614835333,-0.5048197180075407,0.02,0.191,-0.1,0.2,0.3,-2.852422,-4.2714486,-0.49802238
1753802128.5137498,0.1631243441320913,0.3402906435713662,0.1629117098241408,0.3294664674218808,-0.1790910436100881,1.6595640570151573,1.281355032817859,0.7998846800795751,0.1344153244210134,-0.4760644462613742,6.458027971405064,-5.790106122690631,0.8750248720401533,-2.9328482289449687,-4.268811220956007,-0.5015424764046094,0.02,0.191,-0.1,0.2,0.3,-2.8788126,-4.270789,-0.4964075
1753802128.5226507,0.1635515686289294,0.3397147890634781,0.1632621562549464,0.328897189267758,-0.1756707861723431,1.6600366576514765,1.2794178460878376,0.8208617850588037,0.1134241527165715,-0.4649248152050342,6.703701633033768,-6.049053487218866,0.8920016082370391,-2.856187858432064,-4.286637302573141,-0.5003433460383695,0.02,0.191,-0.1,0.2,0.3,-2.9206088,-4.263279,-0.4935728
1753802128.531243,0.1639845487556046,0.3391373666837202,0.1636186523880104,0.3283268671849835,-0.172165024940779,1.6604234847358124,1.277525244196045,0.8413826955753758,0.0928385002406147,-0.4542244540302361,7.0974449756779885,-6.510732454189238,1.285499237979718,-2.881491610395409,-4.284051985497484,-0.4974315098958635,0.02,0.191,-0.1,0.2,0.3,-2.9515138,-4.258813,-0.4905815
1753802128.5400083,0.1644232161395357,0.3385583992277396,0.1639811308257224,0.3277554694803122,-0.1685771730355297,1.660728218230197,1.2756727196353062,0.8610844572598475,0.0731360386523083,-0.4446058945773069,7.553400090249513,-7.065334565178812,1.8820221774084596,-2.9112885479042867,-4.279786590599434,-0.4942655509910889,0.02,0.191,-0.1,0.2,0.3,-2.9718077,-4.258675,-0.4871974
1753802128.5486553,0.1648675015100575,0.3379779095521801,0.1643495313735751,0.3271829423205369,-0.1649187183700472,1.6609642559375029,1.2738412405836783,0.8780291197158023,0.0566490497533851,-0.4395549723906651,7.902882503931982,-7.503193722772503,2.363592255582859,-2.966461771092093,-4.271666353808913,-0.491070178200817,0.02,0.191,-0.1,0.2,0.3,-2.9884346,-4.259504,-0.4840321
1753802128.65051,0.1653173347093597,0.33739592057378,0.1647239376194271,0.3266093005403969,-0.161178306120206,1.6611176466937407,1.272051925559988,0.897698939961872,0.0368137814971056,-0.4294356056856888,8.123482744091822,-7.792019924560781,2.6748215650727047,-2.95103995726916,-4.274525589780162,-0.4883052543092938,0.02,0.191,-0.1,0.2,0.3,-3.016058,-4.2563887,-0.48027995
1753802128.6592236,0.1657726447035656,0.3368124552684677,0.165104105141517,0.3260343809420491,-0.1573618170133139,1.6611944185564491,1.2702961552216971,0.9159573856541182,0.0184252470500686,-0.4213848811898203,8.28819545990245,-8.02112769623741,2.934016687252707,-2.991560572543181,-4.2712735688918055,-0.4854212826359957,0.02,0.191,-0.1,0.2,0.3,-3.0429716,-4.2534623,-0.4765689
1753802128.6678016,0.1662333595939488,0.3362275366704546,0.1654900403575478,0.3254582552627018,-0.1534733130153072,1.661199280951798,1.2685672230636087,0.9332409595215868,0.0011669748836425,-0.4149437179412469,8.378077821039199,-8.166978234015273,3.095103216778324,-3.0240073630727946,-4.266200881162259,-0.4825650009437968,0.02,0.191,-0.1,0.2,0.3,-3.0710478,-4.250205,-0.47288686
1753802128.6764748,0.1666994066282874,0.3356411878713251,0.1658817756600337,0.3248808710942887,-0.1495171598165271,1.6611369417407336,1.2668592069455364,0.9494767677072308,-0.0149614106554461,-0.4099238683373393,8.388570852082431,-8.221309683945929,3.1430906292256435,-3.059055339081443,-4.261271600404768,-0.4791073000028589,0.02,0.191,-0.1,0.2,0.3,-3.1005905,-4.2464323,-0.46925014
1753802128.6851175,0.1671707122123522,0.3350534320191258,0.1662792448960313,0.3243021979762159,-0.1454862554258106,1.6609979575974532,1.265186364716985,0.9674170537719636,-0.0333561943873208,-0.4014821348523286,8.359819763028923,-8.2340053814876,3.148985304677628,-3.060001382916712,-4.2635910805583705,-0.4762740465756008,0.02,0.191,-0.1,0.2,0.3,-3.1364937,-4.2406826,-0.46520546
1753802128.7863483,0.1676472019215278,0.3344642923174517,0.1666822587178074,0.3237221834705311,-0.1413875390739977,1.660790475930381,1.263537488332632,0.983691924435104,-0.049795600097278,-0.3957303322447004,8.321365287533977,-8.238142775511784,3.1589042612622285,-3.1024372534512152,-4.256283077029055,-0.4728705191151585,0.02,0.191,-0.1,0.2,0.3,-3.1693783,-4.2359715,-0.46131623
1753802128.7952929,0.1681288005125655,0.3338737920245291,0.1670908322409553,0.3231407808901084,-0.1372295017291205,1.6605243503624634,1.261898765136784,0.9979289627705143,-0.063870136300269,-0.3932935670035519,8.210073057731405,-8.155137130873728,3.0555104675591123,-3.150745555719885,-4.248889413346316,-0.4694757305925728,0.02,0.191,-0.1,0.2,0.3,-3.2012823,-4.2316127,-0.4576462
1753802128.803975,0.168615431935465,0.3332819544522986,0.1675050012801079,0.3225579875432482,-0.1330205151196873,1.6602093499798898,1.2602564408143402,1.0101567862639864,-0.0756000918176588,-0.3941578373864645,7.97993991879538,-7.927595082245483,2.750733497941943,-3.199013422351276,-4.24155822458168,-0.4661177026660196,0.02,0.191,-0.1,0.2,0.3,-3.2337635,-4.2270865,-0.45424297
1753802128.812446,0.1691070193454832,0.3326888029654942,0.1679248075197119,0.3219738019054988,-0.1287681653146846,1.659854299641641,1.25859815526182,1.0205639532006288,-0.0852120811797303,-0.3979885326048586,7.610912955288253,-7.530103946503408,2.205040376406346,-3.24532840128774,-4.234733668076888,-0.4627719649538344,0.02,0.191,-0.1,0.2,0.3,-3.2577527,-4.2254148,-0.45168
1753802128.8206077,0.1696034851152697,0.3320943609807209,0.1683502783955463,0.3213882227149769,-0.1244789341239695,1.6594673572563368,1.2569123806431428,1.029415485771639,-0.092866172473039,-0.4045859084825079,7.140137379522233,-7.004226332129959,1.4762889459031834,-3.2864401933980862,-4.226656182126354,-0.4595670310359422,0.02,0.191,-0.1,0.2,0.3,-3.2821486,-4.223519,-0.44937223
1753802128.9238474,0.1701047508471241,0.3314986519655304,0.1687814744973246,0.3208011639587458,-0.1201584551007982,1.659054639898394,1.2551901545724162,1.0369149655611154,-0.0990521659062475,-0.4133342569743721,6.607258479522674,-6.398839405558479,0.6312573314860213,-3.328707225064907,-4.222766738575417,-0.4567144385577626,0.02,0.191,-0.1,0.2,0.3,-3.3037338,-4.2225575,-0.4478147
1753802128.932553,0.1706107373853763,0.3309016994374947,0.1692184378130347,0.3202126914294168,-0.1158114742269334,1.6586208277860588,1.2534252918871231,1.0432754097275403,-0.1041149069604421,-0.4235670444703494,6.045761500977453,-5.762315136727227,-0.2598269441060622,-3.369783395077773,-4.219869892484301,-0.4534363292603326,0.02,0.191,-0.1,0.2,0.3,-3.3231745,-4.2222443,-0.44673657
1753802128.9409523,0.1711213648288866,0.3303035269632773,0.1696610963002132,0.3196228884236268,-0.1114411494241101,1.6581692607869924,1.2516135269404776,1.0488779526775984,-0.1083760797759389,-0.4348235871949232,5.486252127374209,-5.134691872821419,-1.1355278048663309,-3.4042741477913023,-4.216097597767217,-0.4502785500791581,0.02,0.191,-0.1,0.2,0.3,-3.3421352,-4.2219415,-0.44563755
1753802128.9495175,0.1716365525436622,0.3297041581577035,0.1701093971454645,0.3190317566907555,-0.1070488130935016,1.6577012545166592,1.249753182921434,1.0541607193460414,-0.1123215048800066,-0.4464825645704198,4.960124065612007,-4.551583628611816,-1.944040320795464,-3.432686370169283,-4.213095872645776,-0.4474766736672705,0.02,0.191,-0.1,0.2,0.3,-3.358605,-4.2220783,-0.44440544
1753802128.9579191,0.1721562191755906,0.3291036166828271,0.1705633105246584,0.3184392744321468,-0.1026351866434552,1.657217157832551,1.2478441429948306,1.0592703480111263,-0.1161832041859491,-0.4581695823848274,4.491696301314097,-4.039004030200769,-2.648394345041529,-3.4601272452326173,-4.210979096644833,-0.4446386823469527,0.02,0.191,-0.1,0.2,0.3,-3.3695672,-4.2232404,-0.44292483
1753802129.0629418,0.1726802826632865,0.3285019262469976,0.1710227714351157,0.317845441174623,-0.0982002306355889,1.6567162998918556,1.2458877749614798,1.0643894418879154,-0.1202059057668686,-0.4695283280041716,4.09417884148061,-3.6125935134002,-3.2269519819229653,-3.4856644076471195,-4.209555938731829,-0.4418777389003532,0.02,0.191,-0.1,0.2,0.3,-3.436594,-4.2109857,-0.43925497
1753802129.072268,0.1732086602510502,0.3278991106039229,0.1714877008219791,0.317250264010387,-0.0937433255608349,1.6561971489742735,1.2438865245682424,1.0696572179409638,-0.1245962202196498,-0.4803000943769602,3.772081366005403,-3.2802854990914425,-3.669394976833433,-3.510031124402671,-4.209087432840225,-0.439314552352152,0.02,0.191,-0.1,0.2,0.3,-3.5119412,-4.1972675,-0.43473077
1753802129.0807016,0.1737412685019352,0.3272951935517325,0.171958023699401,0.3166537725359759,-0.0892638204607356,1.6556583565673633,1.241843289957532,1.075081224023822,-0.1293101776584991,-0.4903763065704966,3.5216549737266165,-3.038299927719039,-3.977982772169161,-3.5336525061987887,-4.207147366729942,-0.4362884014755628,0.02,0.191,-0.1,0.2,0.3,-3.5598128,-4.1913667,-0.42997095
1753802129.0895803,0.1742780233109246,0.3266901989320375,0.1724336018096045,0.3160559406672495,-0.0847604857997599,1.6550976472751922,1.239761722086834,1.0808003186341757,-0.1345702301210587,-0.4995762889675071,3.337702220407299,-2.8802236349130195,-4.16075677460995,-3.556308630204834,-4.206789077342588,-0.4337557888342502,0.02,0.191,-0.1,0.2,0.3,-3.6017542,-4.1869154,-0.4252859
1753802129.098014,0.1748188399182119,0.3260841506289896,0.1729143418266833,0.3154567878102138,-0.0802321983768171,1.6545128436895755,1.2376453414093378,1.086788981506274,-0.1403528605480055,-0.5079313625991086,3.213166549854113,-2.7981426787950414,-4.231416842257112,-3.579477232714846,-4.206410490733482,-0.4312588475793638,0.02,0.191,-0.1,0.2,0.3,-3.6387677,-4.1837015,-0.4206638
1753802129.2022817,0.1753636329225854,0.3254770725683382,0.1734001504639156,0.3148563371934595,-0.0756782267996992,1.653902239016313,1.2354970021876346,1.0929531785083069,-0.1465451215830311,-0.5156014132087625,3.136412174970401,-2.7781118516143546,-4.211711463025726,-3.603977678150599,-4.205790056296423,-0.428781569993961,0.02,0.191,-0.1,0.2,0.3,-3.6719294,-4.181474,-0.41609415
1753802129.2108176,0.1759123162949142,0.3248689887164854,0.1738909384584487,0.3142546154323224,-0.0710985157075441,1.6532649723047812,1.2333183533633914,1.0991306621172028,-0.1529440107675961,-0.5228757178184025,3.091657482917623,-2.800887978779405,-4.13099585892204,-3.630626386448819,-4.204707831322465,-0.4263083586232312,0.02,0.191,-0.1,0.2,0.3,-3.7046669,-4.1792135,-0.41201568
1753802129.2192214,0.1764648033917334,0.3242599230795407,0.1743866244673996,0.3136516522147123,-0.0664939007899947,1.6526013202097267,1.2311094194864198,1.1051075802118675,-0.1592765028130747,-0.5301441304731862,3.058966113040269,-2.841056032723327,-4.025455655010392,-3.660033287478049,-4.2029906026822985,-0.4238278503629025,0.02,0.191,-0.1,0.2,0.3,-3.7372847,-4.1769447,-0.40981185
1753802129.2277772,0.1770210069689256,0.3236498997023724,0.174887138075698,0.3130474798776642,-0.0618661541855069,1.6519127759325425,1.228868487276785,1.1106591850770715,-0.1652506265242708,-0.5378237303123693,3.017810429242944,-2.8720739817344643,-3.932961693668133,-3.6923036118947232,-4.200580344976341,-0.4213382323671372,0.02,0.191,-0.1,0.2,0.3,-3.769481,-4.174706,-0.407657
1753802129.2362185,0.1775808391954984,0.323038942667659,0.1753924207263335,0.3124421325613439,-0.0572177645527894,1.6512017906208931,1.2265924787235325,1.115613511852199,-0.1706364747958059,-0.5462420527806674,2.950585798723459,-2.8707544768137394,-3.88660824741474,-3.726751342330013,-4.197594930006743,-0.4188505438796675,0.02,0.191,-0.1,0.2,0.3,-3.801558,-4.1724153,-0.40550634
1753802129.3401248,0.1781442116674533,0.3224270760949381,0.1759024232705243,0.311835644401661,-0.0525513226464498,1.6504710062015313,1.2242780526342296,1.1199460575215006,-0.1753882606468347,-0.5554622614326531,2.847767032847473,-2.823905853265396,-3.9051625624359794,-3.7615184692413375,-4.194420815154015,-0.4163969808100338,0.02,0.191,-0.1,0.2,0.3,-3.8337588,-4.170009,-0.403323
1753802129.3487666,0.1787110354217463,0.3218143241396543,0.1764170989591262,0.3112280463813783,-0.0478690475175428,1.6497219856264116,1.2219233184981866,1.123746030937674,-0.1797649380287451,-0.5651361926503243,2.7109077333464997,-2.7361790734663995,-3.982426847953729,-3.797438486721276,-4.193616271151767,-0.4141210153211314,0.02,0.191,-0.1,0.2,0.3,-3.8664591,-4.167464,-0.4010821
1753802129.3574305,0.1792812209503358,0.3212007109922054,0.176936381954049,0.3106194581076948,-0.0431713150964114,1.6489551258167274,1.2195280238337405,1.1274557810715522,-0.1840463543242197,-0.5748707194670541,2.5579922502372856,-2.6279306752963976,-4.090136523067899,-3.824017051130335,-4.190343129760637,-0.4119478788187058,0.02,0.191,-0.1,0.2,0.3,-3.899278,-4.164834,-0.39881176
1753802129.3662868,0.1798546782143169,0.3205862608769881,0.1774602381686616,0.3100098357755219,-0.0384521809048579,1.648161832868394,1.217105571762064,1.1325922059728428,-0.1903903076000385,-0.5813884972023358,2.446408912660185,-2.570792092872051,-4.121795702551289,-3.8348432752503063,-4.1932390225062335,-0.4096480485165694,0.02,0.191,-0.1,0.2,0.3,-3.9306843,-4.1626964,-0.39647588
1753802129.3749666,0.1804313166581398,0.3199709980514407,0.1779884461803303,0.3093992015936099,-0.0337139363713431,1.647344287559524,1.2146530841626155,1.137178688043549,-0.1962108741287628,-0.5885970238675945,2.386747680478722,-2.579983708590818,-4.054797018690955,-3.869394659028476,-4.190743536074047,-0.4075706850869477,0.02,0.191,-0.1,0.2,0.3,-3.9548407,-4.1619825,-0.39464206
1753802129.4775426,0.1810110452239099,0.319354946805086,0.1785209826274791,0.3087876107225807,-0.028934250267362,1.6464723534276935,1.2122145538167393,1.1471246649554483,-0.2092641916393642,-0.5852472830103399,2.481006144051504,-2.790438856326509,-3.696191781775485,-3.832901623313009,-4.2059818697665605,-0.4063961871041956,0.02,0.191,-0.1,0.2,0.3,-3.9823215,-4.1614957,-0.39232388
1753802129.4858928,0.1815937723657661,0.3187381314585724,0.1790574543710917,0.3081750645102359,-0.0241323505572593,1.6455706135250494,1.2097553077427918,1.1524559304246578,-0.2164175766345821,-0.5902190577473803,2.6425231238430458,-3.089772791327296,-3.206903321037779,-3.915414628711986,-4.189402998302952,-0.4032590960167355,0.02,0.191,-0.1,0.2,0.3,-4.026088,-4.163109,-0.38752806
1753802129.4951828,0.1821794060643374,0.3181205763627137,0.179598019953122,0.3075615895793641,-0.0192857225778861,1.6446082665225,1.2073206301163306,1.1631907150495633,-0.2309632806118416,-0.5843226303506963,2.8573201176977534,-3.461563406943034,-2.6091008292522524,-3.8796120507964345,-4.205255717233567,-0.4019218560922487,0.02,0.191,-0.1,0.2,0.3,-4.0775895,-4.164201,-0.38172537
1753802129.503841,0.1827678538412741,0.3175023058975276,0.1801422470889213,0.3069472087357606,-0.0143980509360191,1.6435889722029462,1.204906238337775,1.173041194048095,-0.2446306366929387,-0.5794540268532453,3.156021930823369,-3.9492336646945456,-1.8372884965842655,-3.918981252909311,-4.201156425965013,-0.3993627355213353,0.02,0.191,-0.1,0.2,0.3,-4.1275907,-4.1661725,-0.37605476
1753802129.5125382,0.1833590227738507,0.3168833444712733,0.1806900476308061,0.3063319738684743,-0.0095628643476886,1.6426371551405308,1.2023329350880585,1.1604447811993135,-0.2284360949797261,-0.6175927799320766,2.898730896863334,-3.697680264954873,-2.128038184575198,-4.211837841859142,-4.126005592567148,-0.3933838658231047,0.02,0.191,-0.1,0.2,0.3,-4.217885,-4.1684904,-0.3652041
1753802129.6159742,0.1839528195096395,0.3162637165194883,0.1812426802881481,0.3057159329366625,-0.0049268190170544,1.641950767509174,1.1993153561775118,1.1126508793522123,-0.1647330315256358,-0.7242189385311192,1.0836891220677378,-1.3488321810635209,-5.446849852176081,-4.652355598958769,-4.00629185734867,-0.3852579131775022,0.02,0.191,-0.1,0.2,0.3,-4.280942,-4.1523404,-0.36612314
1753802129.624967,0.1845491502812526,0.3156434465040231,0.181802184796622,0.3050990577537198,-0.0005312821028983,1.641588570132168,1.1957688240232351,1.0549288593974644,-0.0869273704814701,-0.8511677170263954,-2.4230658081437744,3.3062411327003485,-12.099699107115564,-4.793721444670421,-3.968650946651893,-0.3820926230986258,0.02,0.191,-0.1,0.2,0.3,-4.7394915,-4.0093474,-0.37165383
1753802129.6336825,0.1851479209211483,0.3150225589120757,0.1823691362751775,0.3044812714859185,0.0037416058219718,1.6413930526624043,1.1919218578165585,1.0254931019688438,-0.0469241927432262,-0.9232718896023984,-6.021114141688654,8.129280992924816,-18.997108296669467,-4.491585410602212,-4.062913374981315,-0.3855959255020224,0.02,0.191,-0.1,0.2,0.3,-4.4890246,-4.0903206,-0.38712025
1753802129.6420455,0.1857490368765012,0.3144010782552252,0.1829416808681695,0.3038626717277782,0.0079433401280904,1.6412945529242131,1.1878751512648873,1.008416233468452,-0.023639937165942,-0.971209572401054,-8.245278725869833,11.134133953280514,-20.0,-4.376568238799352,-4.106828571315341,-0.3873806875214326,0.02,0.191,-0.1,0.2,0.3,-4.256166,-4.135183,-0.37964845
1753802129.650592,0.1863524032241337,0.3137790290684638,0.1835190062143775,0.3032434409711966,0.012123027020213,1.6412264005090602,1.1837261162891863,1.0031248541094326,-0.0163565796366806,-0.9957683941682384,-8.737105769070304,11.814085142356758,-20.0,-4.265987900074414,-4.146504745332601,-0.38856001468208,0.02,0.191,-0.1,0.2,0.3,-4.150172,-4.162607,-0.37721223
1753802129.753399,0.1869579246855051,0.3131564359092282,0.1841002551399812,0.3026236424686264,0.0163092216405695,1.641149574557053,1.1795325920194155,1.0046867088855649,-0.0184382284817453,-1.006445824744946,-7.905763690706613,10.702369679371012,-19.15613037553939,-4.211437527982959,-4.168200704459842,-0.3887504874797994,0.02,0.191,-0.1,0.2,0.3,-4.132293,-4.174652,-0.38115728
1753802129.762025,0.1875655056417572,0.3125333233564304,0.1846848471346717,0.3020032707002624,0.0205027357690364,1.6410617977735185,1.175297703256161,1.0064433908320414,-0.021066428048274,-1.016373303181195,-6.558139340530264,8.878091243107477,-17.112215199659254,-4.237176473987312,-4.171543778537867,-0.3890731796229598,0.02,0.191,-0.1,0.2,0.3,-4.120694,-4.189196,-0.3830738
1753802129.77052,0.1881750501488138,0.3119097160094869,0.1852727431341838,0.3013824868575421,0.0247153258105233,1.6409460908645963,1.1710464041034694,1.011021609956859,-0.0277696581413064,-1.020311796645896,-5.099405701036501,6.884421005927757,-14.692649421632384,-4.231198172123025,-4.182280922932276,-0.3895056644729264,0.02,0.191,-0.1,0.2,0.3,-4.1383715,-4.191531,-0.3820871
1753802129.7790427,0.1887864619525309,0.3112856384873481,0.1858637099440676,0.30076137901638,0.0289618279901525,1.6407813459078775,1.16681014063295,1.0191605231110106,-0.0395387896124352,-1.0167032329246983,-3.658472132607104,4.895704790348484,-12.17568842211686,-4.215576295144708,-4.194102083538261,-0.3897242413308428,0.02,0.191,-0.1,0.2,0.3,-4.16817,-4.1895676,-0.38060594
1753802129.7874253,0.1893996445038973,0.310661115427526,0.1864574216302907,0.3001399644633352,0.0332473437507819,1.640559594012451,1.162601545099773,1.0285237825510538,-0.0532204549023306,-1.010062927962351,-2.278101163621848,2.972099215329539,-9.66492870902185,-4.227290013164111,-4.197787464274413,-0.3894322979189575,0.02,0.191,-0.1,0.2,0.3,-4.2049656,-4.184666,-0.37877733
1753802129.8922577,0.1900145009742796,0.3100361714851214,0.1870536776199279,0.2995182677088114,0.0375640328562999,1.640291097935297,1.1584065016993972,1.0360053853243338,-0.0644390585170611,-1.006810416090295,-1.055572579299754,1.2529950186503844,-7.375488095911304,-4.2737460369582285,-4.18964485963321,-0.388800376340389,0.02,0.191,-0.1,0.2,0.3,-4.227211,-4.184014,-0.37729812
1753802129.901306,0.1906309342707138,0.3094108313318514,0.187652511143469,0.2988962875169486,0.0418908033314575,1.6400048683902306,1.1541839695643576,1.0384249140378214,-0.0686950908159367,-1.013407712409505,-0.1946664900671679,0.0267919650059604,-5.738965077245357,-4.356327212085046,-4.169168403095462,-0.3874062835713714,0.02,0.191,-0.1,0.2,0.3,-4.2380104,-4.192575,-0.37962478
1753802129.9100084,0.1912488470512362,0.3087851196550743,0.1882541212382404,0.2982740124444673,0.0462105444692771,1.639724807109742,1.1499004588143351,1.0367378730766887,-0.0672147073173064,-1.0280425800053563,0.1827984384038714,-0.5296808570199034,-5.022167607110763,-4.427665247562348,-4.151430715465077,-0.3860661955334178,0.02,0.191,-0.1,0.2,0.3,-4.2343493,-4.2088017,-0.384655
1753802129.918489,0.1918681417402558,0.3081590611568157,0.1888586305503038,0.2976514193201763,0.0505198140415092,1.6394556595812646,1.1455497226246951,1.034224697335722,-0.0645954068345296,-1.0441766855136445,0.173036980742183,-0.5443556866283705,-5.051112820534533,-4.462485549448158,-4.146992801248498,-0.3857583437235521,0.02,0.191,-0.1,0.2,0.3,-4.2012553,-4.22756,-0.38886225
1753802129.9270854,0.1924887205439621,0.3075326805527932,0.189466008557265,0.2970285315744927,0.055158343930585,1.638717143605689,1.1418268983689717,1.1132471733781868,-0.1772438341380424,-0.8934778213736553,1.933040044432764,-3.060295170826421,-1.4353496934972112,-3.564000860457285,-4.454145044641092,-0.4019973003465376,0.02,0.191,-0.1,0.2,0.3,-3.7802808,-4.434591,-0.3852681
1753802130.0322597,0.1931104854657681,0.3069060025714406,0.1900715182324664,0.2964052270366012,0.0600355816004388,1.637632181971549,1.138556501822939,1.1705370407649105,-0.2603907921936897,-0.7848951710477527,5.685637281039522,-8.418478699352928,6.320026018714361,-3.837145302373641,-4.371766435055365,-0.3964074945351389,0.02,0.191,-0.1,0.2,0.3,-4.1370583,-4.2575207,-0.37913033
1753802130.0413923,0.1937333383217848,0.3062790519529313,0.1906761927467086,0.2957815297516812,0.0650649891816798,1.6363199284112688,1.1355680012505065,1.2070578194978376,-0.3149408544672115,-0.7172401373838531,9.353825056471482,-13.709405593541153,14.011880507897857,-4.099326974382983,-4.290951778382379,-0.3906818731800534,0.02,0.191,-0.1,0.2,0.3,-4.357056,-4.1980863,-0.3763049
1753802130.0503104,0.1943571807563259,0.3056518534482024,0.1912810404952336,0.2951574767740589,0.0701864685690929,1.6348640926971068,1.1327416962556365,1.2291550529791375,-0.3494005713988882,-0.6783131987688835,11.651368212904714,-17.105668044017637,18.99370212247947,-4.288180364468262,-4.231565413994502,-0.3860656181997878,0.02,0.191,-0.1,0.2,0.3,-4.527084,-4.1797833,-0.37919143
1753802130.0574014,0.1949819142574392,0.3050244318179769,0.1918867564177997,0.2945330303785393,0.0753093687916826,1.633393244976723,1.129893740080118,1.2294960534215351,-0.3530034528920926,-0.6835094821244185,11.688756084499053,-17.31851839182367,19.398333299434068,-4.559656662805141,-4.142181905769386,-0.3792307901403272,0.02,0.191,-0.1,0.2,0.3,-4.5871043,-4.176632,-0.3817948
1753802130.0658746,0.1956074401724628,0.3043968118317864,0.1924943710410453,0.2939081563658297,0.0803875984903109,1.6319736939241694,1.1269283017208274,1.218775127670783,-0.3406922526128602,-0.7117052062297226,10.074561613853822,-15.170683594155218,16.40100999094677,-4.711187699641628,-4.095898093237035,-0.3759892302847403,0.02,0.191,-0.1,0.2,0.3,-4.632538,-4.1580114,-0.38132444
1753802130.1705658,0.1962336597236034,0.3037690182669934,0.1931045152154448,0.2932828628945648,0.0853902950399652,1.630650911367921,1.1237803947935725,1.200647171917041,-0.3174678134996112,-0.755497662541141,7.511975838359309,-11.635942885570856,11.397155436339215,-4.8206163973262095,-4.062014513539134,-0.3730495277036237,0.02,0.191,-0.1,0.2,0.3,-4.7462454,-4.113866,-0.37941137
1753802130.1796534,0.1968604740235343,0.3031410759078128,0.1937175392862562,0.2926571017299221,0.0903706946827803,1.6293484896989834,1.1205619329492058,1.1952959142756274,-0.3125812005450576,-0.7724308426479892,4.975333867449531,-8.103161560687312,6.395746820502238,-4.707075324676056,-4.109486820930802,-0.3741102126058293,0.02,0.191,-0.1,0.2,0.3,-4.8697414,-4.056205,-0.37329257
1753802130.188094,0.1974877840910115,0.3025130095443337,0.1943325544964743,0.2920308652613935,0.0953549545835598,1.6280285555173963,1.117328728077256,1.196222376187068,-0.316784203580906,-0.7759691692679334,3.2461348576444773,-5.702362312977514,3.032715492938906,-4.665094217046488,-4.131332582418341,-0.3741871176967649,0.02,0.191,-0.1,0.2,0.3,-4.7998238,-4.0708594,-0.3707067
1753802130.1967282,0.1981154908665033,0.3018848439715408,0.1949490922537668,0.2914041355933431,0.1002874074669141,1.6267722677756795,1.113963731406795,1.1837886920050302,-0.3015090580119979,-0.8075992009106703,1.985886442119712,-3.950622485750489,0.6077660783060708,-4.8402825736028,-4.074651200931026,-0.3706592022126416,0.02,0.191,-0.1,0.2,0.3,-4.870441,-4.0552063,-0.36878583
1753802130.2050476,0.1987434952278331,0.3012566039883352,0.1955678803531853,0.2907769290812313,0.1051758738938258,1.625568804447387,1.1104834404238026,1.1732319424588291,-0.2888311987902223,-0.8352698359181533,0.8457545282111978,-2.348556844202803,-1.6046815168341078,-4.847092526186567,-4.079038828221576,-0.3700908498788173,0.02,0.191,-0.1,0.2,0.3,-4.88033,-4.0566034,-0.36665192
1753802130.3088782,0.1993716980058323,0.3006283143965559,0.1961887165074188,0.2901492450231616,0.1099714904722282,1.6244904451816968,1.1067837820646529,1.150947978816577,-0.2588062237656413,-0.8879180061960007,-0.5255453659399514,-0.3856756855647627,-4.3450248392700335,-5.003881978108702,-4.028593942718372,-0.3670114144965363,0.02,0.191,-0.1,0.2,0.3,-4.875117,-4.062265,-0.36548814
1753802130.3176062,0.2,0.3,0.1968122047336917,0.2895211327620408,0.1146336811917837,1.6235987302331745,1.1027761121718345,1.1189257726933175,-0.2140115876453712,-0.9618407742763716,-2.3937581301245343,2.3350001874691024,-8.189156055239872,-5.136595279039328,-3.984385920570972,-0.3644755625323185,0.02,0.191,-0.1,0.2,0.3,-5.0759635,-4.0150104,-0.3654561
1753802130.326213,0.2006283019941676,0.299371685603444,0.1974388427732265,0.2888925953331515,0.119096951472598,1.6229935630630838,1.09831530464434,1.0711848673954265,-0.1452401208217298,-1.070593806598677,-4.875083773654813,6.003855965323653,-13.41822097757872,-5.332187081496573,-3.914081237999973,-0.3613980953996517,0.02,0.191,-0.1,0.2,0.3,-5.1942477,-4.0027595,-0.37475228
1753802130.3347154,0.2012565047721669,0.2987433960116647,0.1980695563728614,0.2882636275938128,0.123466981933113,1.6225188909345365,1.0936287929840127,1.048807310523598,-0.1139213108513739,-1.1247627984785478,-7.191741485237076,9.465879984380006,-18.355666228045944,-5.087826233513656,-4.021714704147904,-0.3665082203330778,0.02,0.191,-0.1,0.2,0.3,-5.2272367,-4.006361,-0.37505317
1753802130.3436203,0.2018845091334967,0.2981151560284591,0.1987026509946785,0.2876344590861633,0.1277006924485348,1.6222411457477446,1.0886196686482077,1.0160905237012292,-0.0666588448300717,-1.2021898405932,-8.874236319940838,12.022531168158704,-20.0,-5.22318345247973,-3.974423114395025,-0.3653530434542169,0.02,0.191,-0.1,0.2,0.3,-5.113601,-4.0313864,-0.3660038
1753802130.4459722,0.2025122159089885,0.2974869904556662,0.1993387536742704,0.2870051173927015,0.1318303367349439,1.6221131178142374,1.0833566871157767,0.991114628738176,-0.0307267040417116,-1.2631155677834247,-9.9865670891698,13.758754131386723,-20.0,-5.16739516700519,-4.007742514065998,-0.3678940621696638,0.02,0.191,-0.1,0.2,0.3,-5.0183244,-4.0558076,-0.36056823
1753802130.45462,0.2031395259764657,0.2968589240921871,0.1999773136454715,0.2863757847845518,0.1359085047952428,1.622055939207764,1.0779555839390276,0.9787603344717388,-0.0137228655536316,-1.2962647624197825,-10.238622518599035,14.218777401359786,-20.0,-5.059585972203825,-4.062696453559381,-0.3711628569174034,0.02,0.191,-0.1,0.2,0.3,-5.00498,-4.0731373,-0.3641773
1753802130.4629614,0.2037663402763966,0.2962309817330065,0.2006173955915201,0.2857466193627533,0.139988576035623,1.6219882892952708,1.072536324916897,0.9792170976912484,-0.0162359789983682,-1.3006221653113257,-9.616713212184443,13.3563663551613,-19.689290634247133,-4.9499306979233575,-4.119223032622411,-0.3743975667564371,0.02,0.191,-0.1,0.2,0.3,-5.0357795,-4.081549,-0.36793908
1753802130.4710925,0.2043925598275371,0.2956031881682135,0.2012580236124491,0.2851177385709731,0.1440731689139409,1.6219056559883354,1.0671058757611374,0.980302290796299,-0.0198319936645152,-1.3033077973823386,-8.247096261275129,11.347594461305237,-17.499443578752853,-4.9682233941324885,-4.122207909738883,-0.3760622106519151,0.02,0.191,-0.1,0.2,0.3,-5.055983,-4.091739,-0.3768707
1753802130.4792328,0.2050180857425607,0.294975568182023,0.2018991124071172,0.2844892126116443,0.1481968385587001,1.6217543092168123,1.061743371845512,0.9896807147422064,-0.0363232251654901,-1.2870009397500797,-6.470817096465517,8.696560824222779,-14.207241039417871,-4.906037775623923,-4.15994013251517,-0.3791306395872992,0.02,0.191,-0.1,0.2,0.3,-5.065005,-4.097541,-0.3864269
1753802130.5821187,0.2056428192436741,0.2943481465517975,0.2025400779791808,0.2838611039370758,0.1523648353738298,1.6215252151418595,1.0564632931376232,1.000319235631113,-0.0549825779887348,-1.2672188898933014,-4.552180120630657,5.799278144260885,-10.420720764613138,-4.91677410682937,-4.164503483463284,-0.3803784402598349,0.02,0.191,-0.1,0.2,0.3,-5.0626273,-4.1030626,-0.3934397
1753802130.59105,0.2062666616782152,0.2937209480470686,0.2031807306099974,0.2832334024193622,0.156621938390722,1.621147442890554,1.0513703552033304,1.0217047240541466,-0.0906653403133621,-1.2223051042302917,-2.507401130388704,2.6723577859636816,-6.1873549626121935,-4.830419331191186,-4.214986824870548,-0.3838526002481179,0.02,0.191,-0.1,0.2,0.3,-4.985648,-4.1445613,-0.3995083
1753802130.5991392,0.2068895145342319,0.2930939974285594,0.2038203303663241,0.282606154692864,0.1610447023613369,1.6205000359979205,1.0466430280188597,1.061463352947558,-0.1553776542320919,-1.134558524273003,0.086029361044766,-1.345507994734723,-0.5566182790966794,-4.663404271320626,-4.299715344515836,-0.3884716645058901,0.02,0.191,-0.1,0.2,0.3,-4.91407,-4.1974945,-0.4041677
1753802130.6075149,0.2075112794560379,0.2924673194472067,0.204457645142618,0.2819792808630679,0.1654908382993577,1.619802529974439,1.041962135600787,1.0670726251250044,-0.1674014456355091,-1.1234141803374205,2.2756706340770325,-4.774919220214056,4.296361963832604,-5.0410142514761205,-4.136654737400473,-0.3815168936876202,0.02,0.191,-0.1,0.2,0.3,-5.053326,-4.1669497,-0.4015783
1753802130.6158495,0.2081318582597442,0.2918409388431842,0.2050946172655728,0.2813527262840467,0.1699771978245802,1.6190278789245305,1.0373683124938546,1.076726286053392,-0.185916251978103,-1.1025175456638077,3.4649911224492707,-6.67843590086156,6.984688531844805,-5.024092775345201,-4.153803518113159,-0.3829416703250315,0.02,0.191,-0.1,0.2,0.3,-5.0905476,-4.1723228,-0.40178865
1753802130.7185843,0.2087511529487638,0.2912148803449256,0.2057309096054286,0.2807264719353997,0.1745240483895031,1.6181432227808434,1.0329110622101343,1.0912441355814997,-0.2123174744848576,-1.0697400680928144,4.079679159035605,-7.708029849891508,8.447112349371185,-4.998967239687185,-4.174830961372422,-0.3843133765610281,0.02,0.191,-0.1,0.2,0.3,-5.1504397,-4.1752324,-0.4049301
1753802130.7270818,0.2093690657292862,0.2905891686681485,0.2063661097952722,0.2801004801431892,0.179148511349833,1.6171202797675976,1.0286338191562097,1.1098711104791747,-0.2455063231790052,-1.0265383329419475,4.53243243619522,-8.502041107879174,9.609772075067202,-4.981430310761995,-4.191447865727081,-0.3850273189037537,0.02,0.191,-0.1,0.2,0.3,-5.203496,-4.157387,-0.3953473
1753802130.7354674,0.2099854990257203,0.2899638285148785,0.2069997968459775,0.2794746735533041,0.1838716009379093,1.6159242563337837,1.0245886199476215,1.13354150113831,-0.2870456241153631,-0.9708478100610785,5.328878740906963,-9.84918167803848,11.617071752413027,-4.954738575072748,-4.213736771014153,-0.3865145595796808,0.02,0.191,-0.1,0.2,0.3,-5.0349255,-4.1845093,-0.38108912
1753802130.7440026,0.2106003554961027,0.289338884572474,0.2076316009153314,0.2788489866347605,0.1887159180715165,1.6145175005175003,1.0208322478416398,1.1626361120657405,-0.3376213959079729,-0.9015293054356296,6.434769310594269,-11.701925737902902,14.392331711125214,-4.923909339415334,-4.236835508813036,-0.387523892616139,0.02,0.191,-0.1,0.2,0.3,-4.763131,-4.2537365,-0.38716966
