sinayanaik/E2NN/triangle/3_poor/run_20250730_125449_lr0.001_bs100_hs128_nl10_sl100/predictions_lr0.001_bs100.csv
timestamp,target_x,target_z,actual_x,actual_z,joint1_angle,joint2_angle,joint3_angle,joint1_velocity,joint2_velocity,joint3_velocity,joint1_acceleration,joint2_acceleration,joint3_acceleration,joint1_torque,joint2_torque,joint3_torque,kp,kd,radius,center_x,center_z,predicted_joint1_torque,predicted_joint2_torque,predicted_joint3_torque
1753814331.6828172,0.2365234077287351,0.2493373493975904,0.2336032458786605,0.2390042690952279,0.4893220793860438,1.4776646584546558,0.8935362907804052,0.0466960723492935,0.0524080127872831,0.0292962598566257,0.0594210043015866,0.0780446299108971,-0.33871582448889,-7.254823542033043,-4.288920392781151,-0.4309972413726613,0.1,0.4,0.09,0.26,0.2,-7.139907,-4.237098,-0.41858283
1753814331.691415,0.2362886418060224,0.2489307228915663,0.2333440798364857,0.23860579675719,0.4902503049673199,1.4786936754943365,0.8941186876146816,0.0471470180517958,0.0519570372887838,0.0294950317857906,0.0873742704435369,0.024153994256365,-0.2493205440915639,-7.254951439646817,-4.282836886072075,-0.4277524653553079,0.1,0.4,0.09,0.26,0.2,-7.1422586,-4.234696,-0.4169196
1753814331.7000258,0.2360538758833098,0.2485240963855421,0.2330849097236963,0.2382073779251695,0.4911869987869097,1.4797146487292157,0.8947040751464431,0.0475690616786885,0.0515614056268878,0.0296329070807091,0.111742931997208,-0.0216761697140192,-0.1802791123366736,-7.2550975713200865,-4.276735166974213,-0.424493491961417,0.1,0.4,0.09,0.26,0.2,-7.144382,-4.2324376,-0.4153204
1753814331.708533,0.2358191099605971,0.248117469879518,0.2328257078140752,0.2378090047703274,0.4921315378324455,1.480728713808232,0.8952911094297292,0.0479587744943943,0.0512239535385779,0.0297005095606765,0.1301863574051422,-0.0560237283792914,-0.1299889056494814,-7.255223755499664,-4.270661830574552,-0.4212397445384686,0.1,0.4,0.09,0.26,0.2,-7.146412,-4.230144,-0.41369888
1753814331.8100884,0.2355843440378845,0.247710843373494,0.2325664654745713,0.2374106772582824,0.4930834174219974,1.481736775650888,0.8958785627071167,0.0483250158167827,0.0509285616736915,0.0297083905377154,0.1425089345022985,-0.0789635285073599,-0.0956740215638018,-7.255316100297413,-4.264603983393792,-0.4179878338890487,0.1,0.4,0.09,0.26,0.2,-7.1485095,-4.227658,-0.4119644
1753814331.818834,0.2353495781151718,0.2473042168674699,0.2323129129005356,0.2370102672753161,0.4935645144456757,1.4836391809484235,0.8951369917287384,0.0171284135371198,0.1101191958977201,-0.0581280932071231,-0.6071089884044362,1.3339238613726987,-2.181054148895526,-7.240369054681422,-4.266814586473879,-0.415743179358125,0.1,0.4,0.09,0.26,0.2,-7.150754,-4.2248974,-0.4100594
1753814331.8274012,0.2351148121924592,0.2468975903614458,0.2320605011088475,0.2366091368344141,0.4941902836626845,1.4852783368461218,0.8947744061528395,0.0361914076782814,0.0746632411899531,-0.006300065903999,-1.1377866678777435,2.3359201783597894,-3.6620837054470887,-7.209514133656677,-4.281551289049414,-0.414251027668072,0.1,0.4,0.09,0.26,0.2,-7.1521535,-4.2228184,-0.40858582
1753814331.8360136,0.2348800462697465,0.2464909638554217,0.2318035178243978,0.2362098977320469,0.4950764674806646,1.4864330369141991,0.8951173188054115,0.0475758025677027,0.0534631347017039,0.024524946709207,-0.6950596267175164,1.50054973648829,-2.432038716879916,-7.235676125560537,-4.258033386959482,-0.4107372522427173,0.1,0.4,0.09,0.26,0.2,-7.1557307,-4.218545,-0.40577993
1753814331.8444462,0.2346452803470338,0.2460843373493976,0.2315446749807124,0.2358117494239984,0.4960471612857621,1.4874341628612182,0.8956783452363979,0.0496854691770841,0.0497807576292317,0.029543062455561,-0.0124248546977707,0.2082036035762653,-0.5256608911791021,-7.2489645042098685,-4.242365331072277,-0.4071547783065631,0.1,0.4,0.09,0.26,0.2,-7.1618724,-4.210741,-0.40066925
1753814331.9465885,0.2344105144243212,0.2456777108433735,0.2312857191362965,0.2354138157144414,0.4970209028539225,1.4884367807644716,0.896228349477447,0.0492438000087448,0.0510013438202886,0.0272856339414123,0.5573894611794208,-0.8709826353738067,1.067681799940329,-7.2505202198895,-4.234849083660238,-0.4038490623390871,0.1,0.4,0.09,0.26,0.2,-7.166422,-4.2033906,-0.39583957
1753814331.9551938,0.2341757485016086,0.2452710843373494,0.2310270321970925,0.2350157970863606,0.497989112111267,1.4894581838117866,0.8967411066171349,0.049013525126331,0.0518687676413603,0.0255131114189635,0.6117296190036003,-0.9748051613136008,1.220672402175108,-7.249374092368569,-4.229484631701556,-0.4006457191940888,0.1,0.4,0.09,0.26,0.2,-7.16711,-4.1999755,-0.39369896
1753814331.9638057,0.2339409825788959,0.2448644578313253,0.2307685367901339,0.2346177008924119,0.4989586108760025,1.490485549449912,0.8972354824553297,0.0491692489761535,0.0519965632000976,0.0248395848568561,0.4995471111041584,-0.7604442343669061,0.9026015780580304,-7.248704414454743,-4.22389466099537,-0.3974450134050087,0.1,0.4,0.09,0.26,0.2,-7.1659455,-4.199894,-0.39385542
1753814331.9725356,0.2337062166561833,0.2444578313253012,0.2305108266682715,0.2342195140124603,0.4999295018245189,1.4915204711941512,0.8977007097076313,0.0492141389599979,0.0524549397340294,0.0231200564020165,0.3954944798911995,-0.5572885045662147,0.5869359405858521,-7.248440782888671,-4.217927347691823,-0.3941853402082025,0.1,0.4,0.09,0.26,0.2,-7.1656885,-4.2000637,-0.39421493
1753814331.9817908,0.2334714507334706,0.2440512048192771,0.2302532491265111,0.2338213567320632,0.5009061145653297,1.4925513085556668,0.8981663481910341,0.0495785513834043,0.0520440474336557,0.0236719662493441,0.3277315952998859,-0.4257144843778387,0.383456656670356,-7.248184851285525,-4.211834243344689,-0.3908478659209078,0.1,0.4,0.09,0.26,0.2,-7.167217,-4.198374,-0.39324084
1753814332.0838635,0.233236684810758,0.243644578313253,0.2299936874952948,0.233422869093506,0.5018869176654439,1.493582331439573,0.8986460672857008,0.0497444577609763,0.0521810324049975,0.0244334998618012,0.2822319223544022,-0.3395414874843107,0.2955598848776098,-7.248175518916209,-4.206151128290274,-0.3879789034179364,0.1,0.4,0.09,0.26,0.2,-7.169756,-4.1946235,-0.39082965
1753814332.092661,0.2330019188880453,0.2432379518072289,0.2297423770771382,0.2330218257272846,0.5022606111320881,1.495753161029397,0.8974077632113732,0.0096084541490416,0.1274578493469393,-0.0893411491956424,-0.7222213412424324,1.5355809787856725,-2.47411696455032,-7.228820886911527,-4.211281794396856,-0.3864028552243693,0.1,0.4,0.09,0.26,0.2,-7.1722775,-4.18967,-0.38770658
1753814332.1010296,0.2327671529653327,0.2428313253012048,0.2294937791430525,0.2326211023474122,0.5028404430755768,1.4975398760902094,0.8967232851604677,0.0354532577217987,0.0791104505996079,-0.0180473805863438,-1.3940432151348188,2.776449554710209,-4.339230766218161,-7.188018923817233,-4.229181504052455,-0.3846410985006863,0.1,0.4,0.09,0.26,0.2,-7.1732664,-4.1858983,-0.38537237
1753814332.109533,0.23253238704262,0.2424246987951807,0.2292382207834163,0.2322229309859819,0.5037766722026038,1.498670139153618,0.8970071172971492,0.051108476729709,0.0504769391263676,0.0242105832152045,-0.7703695974543217,1.6017364397691738,-2.6120709858317808,-7.223689047003977,-4.198777989671937,-0.3810967820370782,0.1,0.4,0.09,0.26,0.2,-7.176773,-4.1792154,-0.38154694
1753814332.1177895,0.2322976211199074,0.2420180722891566,0.2289788813684232,0.2318254065714766,0.5049241393042292,1.4994223778516724,0.8978385528572308,0.0602845978773453,0.0342287415595629,0.0475188339605945,0.306162356267538,-0.3963897694572764,0.3367825840135205,-7.247187085509606,-4.1790046765090345,-0.3773644483635771,0.1,0.4,0.09,0.26,0.2,-7.1826963,-4.1673975,-0.37480986
1753814332.2215073,0.2320628551971947,0.2416114457831325,0.2287191358092369,0.2314279962453622,0.5060453767747629,1.500229150659454,0.8985827833993577,0.0557549087029937,0.0427885880325878,0.0346506917523732,1.1524206052074315,-1.9639836729439384,2.669404035596292,-7.257047298192214,-4.167394867650685,-0.3736471473809019,0.1,0.4,0.09,0.26,0.2,-7.1859183,-4.1563334,-0.36859748
1753814332.2299464,0.2318280892744821,0.2412048192771084,0.2284602696313345,0.231030579649512,0.507105370805928,1.5011541837039528,0.8991462939227625,0.053092251801391,0.0479909400232434,0.026630673628478,1.103053443889018,-1.8717348968327168,2.5462832575155216,-7.2496040312171,-4.165225452269882,-0.3705248326084587,0.1,0.4,0.09,0.26,0.2,-7.1841497,-4.1526427,-0.36671674
1753814332.2384477,0.2315933233517694,0.2407981927710843,0.2282015244242349,0.2306329609002295,0.5081299974001133,1.502151650943104,0.8996011260542207,0.0515690199827507,0.0511894157330811,0.0218935495977011,0.7514304565933472,-1.2228818842155256,1.605478572760913,-7.245052963702525,-4.161639767532947,-0.3674791878380993,0.1,0.4,0.09,0.26,0.2,-7.180843,-4.1558204,-0.3687917
1753814332.2469945,0.2313585574290568,0.2403915662650602,0.2279428694808682,0.2302353478300055,0.5091672559184519,1.5031332638082886,0.90006716377179,0.0528678726462802,0.0491640604787278,0.0240794805313304,0.4592204479976511,-0.6841943024707104,0.8194105940357259,-7.243380182503843,-4.156723055862639,-0.3644419578611212,0.1,0.4,0.09,0.26,0.2,-7.179815,-4.159667,-0.37119347
1753814332.2552795,0.2311237915063441,0.2399849397590361,0.2276850030748439,0.2298385777999959,0.5102247977129428,1.5040790031711777,0.9005674651458907,0.0538112964234496,0.0474097238126976,0.025678951178593,0.3682677784706483,-0.5231806701940398,0.5626780901481492,-7.244503899009247,-4.148766423975305,-0.3609288392872454,0.1,0.4,0.09,0.26,0.2,-7.181848,-4.1592097,-0.3709428
1753814332.3570416,0.2308890255836315,0.2395783132530121,0.2274265779810969,0.2294414181613124,0.5112923751419203,1.5050208953289417,0.9010741765653666,0.054186887423369,0.0476899956669557,0.0256150351639137,0.3504853448537068,-0.4852009492165508,0.5018062851054486,-7.244941049191182,-4.141289793007698,-0.3575044912294269,0.1,0.4,0.09,0.26,0.2,-7.185035,-4.1539145,-0.3678065
1753814332.3658395,0.2306542596609189,0.2391716867469879,0.2271675944852351,0.2290436321378613,0.5123626003104962,1.505967050863693,0.9015666218420386,0.0542475623746994,0.0478841588486373,0.0246927928101278,0.3335941533264125,-0.4398193992965551,0.441628701802895,-7.246570595792403,-4.136543033337143,-0.3546552537023201,0.1,0.4,0.09,0.26,0.2,-7.187366,-4.14619,-0.363405
1753814332.3741171,0.2304194937382062,0.2387650602409639,0.2269097472274368,0.2286478638151147,0.5134211880889816,1.5069214427169797,0.9020303863919744,0.0534601674147864,0.0483680641612097,0.0230795633580273,0.2704974111952101,-0.3475774328851365,0.2990443932704603,-7.244606413229675,-4.129346702571914,-0.3512105206043918,0.1,0.4,0.09,0.26,0.2,-7.1885185,-4.138442,-0.35922557
1753814332.3824997,0.2301847278154936,0.2383584337349397,0.2266524169133756,0.2282509718542112,0.5144917784314649,1.5078848905105242,0.902467193676498,0.0544940212101119,0.0488176008734462,0.0217909672600557,0.218827492318074,-0.241829295350371,0.1273321393224196,-7.242013551155328,-4.12190017831716,-0.34768748220835,0.1,0.4,0.09,0.26,0.2,-7.1891875,-4.131695,-0.35577065
1753814332.390885,0.2299499618927809,0.2379518072289157,0.2263941089911772,0.227852366818035,0.5155926175591065,1.5088049424063752,0.9029662512173886,0.0561765811983897,0.0458106801639467,0.0262986982329963,0.2344927905828954,-0.2355025259858543,0.113877380185689,-7.247902037217557,-4.118080194282798,-0.344762819758354,0.1,0.4,0.09,0.26,0.2,-7.189899,-4.125883,-0.35287538
1753814332.4923048,0.2297151959700683,0.2375451807228916,0.2261361924121559,0.2274543692845437,0.5166223133095682,1.509855066676575,0.9032662750518958,0.0509659163094922,0.0553225759596331,0.0117710726403309,0.1384741862796344,-0.0517699223896461,-0.1455678548260818,-7.24631627772696,-4.111504776130507,-0.3417370079010882,0.1,0.4,0.09,0.26,0.2,-7.1907315,-4.1205406,-0.35022926
1753814332.5006542,0.2294804300473556,0.2371385542168675,0.2258776911246718,0.2270573598520274,0.5177284717351389,1.5107655970022054,0.9037685042429736,0.0576035516805095,0.0431948798518146,0.0295640778967748,0.1352863471903887,-0.0568240523357995,-0.119694288867252,-7.241253669737403,-4.106746540463582,-0.3385698846269185,0.1,0.4,0.09,0.26,0.2,-7.191251,-4.1158967,-0.34792757
1753814332.508872,0.2292456641246429,0.2367319277108434,0.2256193674757004,0.2266610458369177,0.5187821819979562,1.5117743342298784,0.9041147161614066,0.0521167049184419,0.0533834015952265,0.0138293955980411,0.1106343913451054,-0.0453293293257403,-0.1274098595801121,-7.245727667571646,-4.096255366679186,-0.335265786408858,0.1,0.4,0.09,0.26,0.2,-7.1919346,-4.111225,-0.34563053
1753814332.5173872,0.2290108982019303,0.2363253012048193,0.2253637477083986,0.2262632909175645,0.5197186650112782,1.5130165112939151,0.904096164730928,0.0460498087911891,0.0656999417696582,-0.005479030534538,-0.1578492071747723,0.4491983264491893,-0.879078058557734,-7.235208961631589,-4.095573354856476,-0.3324066492763206,0.1,0.4,0.09,0.26,0.2,-7.192398,-4.1067348,-0.34341562
1753814332.525797,0.2287761322792177,0.2359186746987952,0.2251104138109549,0.2258641278318726,0.520550925139009,1.5144590221112304,0.9037687928481078,0.0410180341153894,0.0751797822621196,-0.020001112759444,-0.5174829163775283,1.1292624478060302,-1.911012073109064,-7.225534639354008,-4.096463467047896,-0.3299129905721781,0.1,0.4,0.09,0.26,0.2,-7.192571,-4.102914,-0.3415523
1753814332.6268797,0.228541366356505,0.2355120481927711,0.2248543929998595,0.2254657121006283,0.5216283885895451,1.5154609020992438,0.9040901646888544,0.0587430354446075,0.0431682605008485,0.0273025119480193,-0.3811778577284559,0.8942669188102307,-1.5685360403714492,-7.226213611088589,-4.0897727857551125,-0.3270296483493669,0.1,0.4,0.09,0.26,0.2,-7.1931477,-4.098661,-0.33948496
1753814332.635327,0.2283066004337924,0.235105421686747,0.2246102160411895,0.2250645384988812,0.5217223795313626,1.5182605045499618,0.9017100510967976,-0.0115935975520843,0.1717268606142235,-0.16566548124638,-1.5484867759977443,3.023719808275678,-4.763361266482756,-7.212959823867655,-4.087404655166224,-0.3254095234895813,0.1,0.4,0.09,0.26,0.2,-7.195029,-4.091272,-0.33587256
1753814332.6433196,0.2280718345110797,0.2346987951807229,0.2243716720692675,0.2246590244521046,0.5219427120092291,1.520868436449596,0.8995985672098583,0.0181855819312912,0.1198482204390038,-0.0890663424586002,-2.691189165286452,5.0,-5.0,-7.133942287639867,-4.127804671549516,-0.3257703614952378,0.1,0.4,0.09,0.26,0.2,-7.194261,-4.0864615,-0.33347458
1753814332.6520293,0.227837068588367,0.2342921686746988,0.224091881506619,0.224268588427289,0.5251243845580625,1.518030826539812,0.905623574472809,0.2046767886949911,-0.2242174637629633,0.4252657773806594,1.919508915531169,-3.423939325569375,5.0,-7.263166906287939,-4.054715259334127,-0.3180997342124758,0.1,0.4,0.09,0.26,0.2,-7.1947,-4.0813584,-0.3311117
1753814332.660615,0.2276023026656544,0.2338855421686747,0.2237993122612148,0.2238875085433728,0.5278527973819523,1.51601578209305,0.9104156228821112,0.117839986202047,-0.0648518276889086,0.1870458341227342,5.0,-5.0,5.0,-7.45688503250224,-3.922285473707067,-0.3070315013831754,0.1,0.4,0.09,0.26,0.2,-7.202006,-4.060882,-0.32162282
1753814332.765381,0.2273675367429417,0.2334789156626506,0.2235661745532527,0.2234827422871266,0.5266103194069155,1.5212799743547023,0.9043332144002512,-0.11782499489647,0.3675143804277366,-0.459091926673977,0.0510546800189075,3.233831790515608,-5.0,-7.239526816740414,-4.039950010508294,-0.3094924028431838,0.1,0.4,0.09,0.26,0.2,-7.1990924,-4.05096,-0.31698385
1753814332.7738247,0.2271327708202291,0.2330722891566265,0.2233633122545188,0.2230643567910065,0.5247002428879807,1.5277896347470867,0.8963707318266911,-0.0900967137372987,0.3179563126024132,-0.3862927207894616,-5.0,5.0,-5.0,-6.947951977488716,-4.211124534758151,-0.3187082576029875,0.1,0.4,0.09,0.26,0.2,-7.187061,-4.0729856,-0.3280439
1753814332.782152,0.2268980048975165,0.2326656626506024,0.2231403209321494,0.2226529550663716,0.5241882729338933,1.531758240193443,0.8921790260891844,-0.0062486084668803,0.1651649136952308,-0.1592546830134171,-5.0,5.0,-5.0,-7.010021103487463,-4.167556467665584,-0.3202736786202409,0.1,0.4,0.09,0.26,0.2,-7.187346,-4.0922546,-0.3377952
1753814332.7905457,0.2266632389748038,0.2322590361445783,0.22291360417498,0.2222429399651426,0.5234523886444581,1.5361519488626991,0.8873205090817733,-0.0465648695639897,0.2398396645781068,-0.2725828602498874,-4.111559501957656,4.29070453012244,-4.552979082069851,-7.0882300226157575,-4.108804032267527,-0.3196114513158179,0.1,0.4,0.09,0.26,0.2,-7.201925,-4.076859,-0.32982522
1753814332.7989054,0.2264284730520911,0.2318524096385542,0.2226992178206497,0.2218291961543543,0.5221096469138201,1.541669687076619,0.8807441590981714,-0.0743395782837724,0.2913348448135894,-0.3515613906696018,-3.06213210993675,3.0950485938568155,-3.2951789990027045,-7.015232917706296,-4.1432536593132046,-0.3231162424373284,0.1,0.4,0.09,0.26,0.2,-7.2076097,-4.0445457,-0.3139222
1753814332.9017067,0.2261937071293785,0.2314457831325301,0.2223662753020894,0.2214536115182993,0.5309081114844578,1.5286621514246843,0.9018898897439308,0.6041308752152279,-0.9489377608115804,1.5040873409304685,5.0,-5.0,5.0,-7.3165034246233,-3.9796453172666064,-0.300569274110967,0.1,0.4,0.09,0.26,0.2,-7.2001486,-4.0249376,-0.30467072
1753814332.9103312,0.2259589412066658,0.231039156626506,0.2220029770136974,0.2211058235106377,0.5363546297842436,1.5216966382949195,0.9140561815920868,0.1752314867550788,-0.1706492098577167,0.3459234002734653,5.0,-5.0,5.0,-7.978053383266056,-3.556573405858815,-0.2747449116772654,0.1,0.4,0.09,0.26,0.2,-7.2114143,-3.975886,-0.28458446
1753814332.918358,0.2257241752839532,0.230632530120482,0.2217310049086375,0.2207220305805054,0.5372938163110614,1.522963986008482,0.9139380342682546,0.0086807953085875,0.1357031663294925,-0.1132816721258967,0.5123998000574566,2.2222444906538303,-5.0,-7.363437701077441,-3.9138494624954094,-0.2820752318374147,0.1,0.4,0.09,0.26,0.2,-7.202058,-3.9606333,-0.2780312
1753814332.9264145,0.2254894093612406,0.2302259036144578,0.2215441552486176,0.2202957536994041,0.5332003296866958,1.5334726749485703,0.8999223683141291,-0.2726659895652479,0.6527449840792283,-0.8919914070216661,-5.0,5.0,-5.0,-7.025764448097381,-4.109559721144198,-0.2911475940258691,0.1,0.4,0.09,0.26,0.2,-7.1863523,-4.005951,-0.2996765
1753814332.934729,0.2252546434385279,0.2298192771084337,0.221299122500592,0.2198903714783394,0.5359889335058601,1.5314812997438587,0.9045758512856872,0.267297544735248,-0.3307859391186167,0.5795743434342302,-5.0,5.0,-5.0,-6.91735305584617,-4.191545775684044,-0.2931980682005503,0.1,0.4,0.09,0.26,0.2,-7.182908,-4.0606184,-0.32547486
1753814333.0362115,0.2250198775158153,0.2294126506024096,0.2209424862179827,0.2195348384921273,0.543911451304864,1.52020406472366,0.9230244952957312,0.4418963859876544,-0.6446006621902156,1.0423259906827678,5.0,-5.0,5.0,-7.697670619241222,-3.724287345371333,-0.2616957359402515,0.1,0.4,0.09,0.26,0.2,-7.214245,-4.0363812,-0.31359917
1753814333.0445333,0.2247851115931026,0.2290060240963855,0.2206502946685426,0.2191592565537022,0.5449782331702745,1.5212861186312272,0.9231165212847308,-0.0643116973686777,0.2680945389640212,-0.3115238798706057,5.0,-5.0,5.0,-7.69013784140678,-3.710770003203113,-0.2548524298881354,0.1,0.4,0.09,0.26,0.2,-7.2367263,-3.9302938,-0.26815033
1753814333.053044,0.22455034567039,0.2285993975903614,0.2204293611858891,0.2187486838383031,0.5438544801806161,1.5263496132038852,0.9172748964818864,-0.0544874144588481,0.2527045479727578,-0.2911208691324473,-3.317773609328345,5.0,-5.0,-7.046173775814998,-4.078336116524523,-0.2681434666707031,0.1,0.4,0.09,0.26,0.2,-7.205256,-3.8926063,-0.25002852
1753814333.0617568,0.2243155797476773,0.2281927710843374,0.2201943975156553,0.2183427487661441,0.5440306708372068,1.5290980144982451,0.9148309979102484,0.0283403429270847,0.1044195295527939,-0.072760263488826,-5.0,5.0,-5.0,-7.09263366479756,-4.049244772260468,-0.2676676564355173,0.1,0.4,0.09,0.26,0.2,-7.179273,-3.9302917,-0.26751432
1753814333.070404,0.2240808138249647,0.2277861445783133,0.219952512297429,0.2179394321083286,0.5442956889874623,1.531701128137985,0.9125811987238548,0.0089698926291821,0.1400377694083552,-0.1265263038854872,-5.0,5.0,-5.0,-7.185289841080979,-3.986957259529436,-0.2645606034618099,0.1,0.4,0.09,0.26,0.2,-7.18933,-3.953024,-0.27716678
1753814333.1715574,0.223846047902252,0.2273795180722892,0.2196711780989672,0.2175519853991026,0.5480340007695786,1.5280659071217977,0.9196043164840264,0.2442578791450456,-0.2831189831113094,0.5026617501436802,3.055333037836576,-5.0,5.0,-7.276089765711838,-3.937091437641691,-0.2563763974774732,0.1,0.4,0.09,0.26,0.2,-7.205039,-3.9265306,-0.2653494
1753814333.1801782,0.2236112819795394,0.226972891566265,0.2193847854485544,0.2171708740919903,0.5503359076625038,1.526988587585933,0.9228327344703822,0.0776002720005894,0.0150746019568245,0.0601462828967223,5.0,-5.0,5.0,-7.503326978223853,-3.79401592953229,-0.2452891752715557,0.1,0.4,0.09,0.26,0.2,-7.2090173,-3.8638976,-0.24016386
1753814333.1888103,0.2233765160568267,0.2265662650602409,0.2191409876770568,0.216770601268833,0.5502818744546019,1.5301591604745943,0.9197342303173528,-0.0271082137454236,0.2047830853869265,-0.2231488950326534,0.901788757701155,1.559629482570057,-4.274320279255418,-7.238210402455755,-3.934061402802703,-0.2482398060306427,0.1,0.4,0.09,0.26,0.2,-7.1891356,-3.8383431,-0.2291093
1753814333.196972,0.2231417501341141,0.2261596385542169,0.2189024525388042,0.2163660392779272,0.5506981092353752,1.5325101678126918,0.9178228347116194,0.0358499369088782,0.0927661358358576,-0.0582918973089997,-2.7134055982688885,5.0,-5.0,-7.13173788257019,-3.9929794754108,-0.2495560517625793,0.1,0.4,0.09,0.26,0.2,-7.173108,-3.8682406,-0.24171308
1753814333.2053368,0.2229069842114014,0.2257530120481928,0.2186284512932347,0.2159768629370286,0.5536353512515408,1.5303476022794875,0.9226245052165584,0.1831453885000958,-0.1713623276301661,0.3350789186931381,-0.882035160508809,1.7596333161170037,-0.7335183751656698,-7.284644166215195,-3.903936169413227,-0.2412599990030459,0.1,0.4,0.09,0.26,0.2,-7.1805763,-3.8942478,-0.252679
1753814333.3079443,0.2226722182886888,0.2253463855421687,0.2183499344785388,0.2155920039551933,0.5558280890789794,1.529514156134978,0.9254398580533176,0.0890461080124585,-0.0029269805357448,0.0839154802489418,2.59311918392458,-4.470374689681572,5.0,-7.433308692639445,-3.80972866031349,-0.2326478945507873,0.1,0.4,0.09,0.26,0.2,-7.1984806,-3.8666058,-0.24146949
1753814333.3167372,0.2224374523659761,0.2249397590361446,0.2180943583520203,0.2151972955621432,0.5567806962658248,1.5309014351787111,0.9249526310326877,0.0358621389953656,0.0924321206143059,-0.0577977935494994,1.7010946392153357,-2.907295346542269,2.976181201581496,-7.287564773524558,-3.883520293330931,-0.2317043533914279,0.1,0.4,0.09,0.26,0.2,-7.1950817,-3.82844,-0.2259932
1753814333.3254745,0.2222026864432635,0.2245331325301204,0.2178453976334693,0.2147986326075734,0.5575682815810565,1.5325982514341845,0.923992277254692,0.0411801578227574,0.0837970629569382,-0.0458584890153749,-0.9169520339943582,1.7727567490650125,-3.7416623172947583,-7.220064404663813,-3.915283557234989,-0.2309484668269731,0.1,0.4,0.09,0.26,0.2,-7.177737,-3.8324745,-0.22742279
1753814333.3341594,0.2219679205205508,0.2241265060240964,0.2175943346303513,0.2144003197361364,0.558546502671415,1.5339666228224211,0.9235043258855457,0.0521468657434487,0.0647249802407573,-0.0182752954160132,-2.684518581574669,4.959455931132705,-5.0,-7.231253607166618,-3.9030972258869143,-0.2283695934901182,0.1,0.4,0.09,0.26,0.2,-7.172707,-3.8619382,-0.23950084
1753814333.3424425,0.2217331545978382,0.2237198795180723,0.217340069691331,0.2140025254102251,0.5598451499314295,1.5347875452361552,0.9238005240633944,0.0699625303465318,0.034362647794786,0.0251424574476544,-1.8358126059885664,3.4893416184441266,-3.3789949384572617,-7.253969312972272,-3.884592381701036,-0.2248529027252831,0.1,0.4,0.09,0.26,0.2,-7.1818466,-3.8770888,-0.24541718
1753814333.443412,0.2214983886751255,0.2233132530120482,0.2170838341342528,0.2136057730443297,0.5610646091359006,1.5357386624898417,0.9239234550499256,0.059301779489666,0.0522291658540741,0.0004515402971198,-0.7561269636193484,1.5658750830464956,-0.927470558492429,-7.272763953594143,-3.8679840146872686,-0.2213349341399828,0.1,0.4,0.09,0.26,0.2,-7.1903334,-3.86605,-0.24079634
1753814333.4521923,0.2212636227524129,0.2229066265060241,0.2168279037712514,0.2132098133597099,0.5622367625740889,1.5367738079490023,0.9239144506047466,0.0594283244559421,0.0523306856102251,-0.0007392488217344,-0.4264750770297308,0.9407702194217098,-0.2864040111453265,-7.25587348510464,-3.867858993920596,-0.2192541365587805,0.1,0.4,0.09,0.26,0.2,-7.188496,-3.8498902,-0.23414129
1753814333.4608233,0.2210288568297002,0.2225,0.2165731040122267,0.2128137241519799,0.5634174558930825,1.5378027363680151,0.9238943364298828,0.0599539454443728,0.0518876026919916,-0.0011087161902585,-0.3660795844432882,0.8100853407924589,-0.352427811288411,-7.255468300421132,-3.8603564939685207,-0.2160569761036432,0.1,0.4,0.09,0.26,0.2,-7.181832,-3.8475256,-0.23312561
1753814333.4694557,0.2207940909069876,0.2220933734939759,0.216319273005426,0.2124173042443606,0.5645760164499017,1.5388788789065604,0.9237896686597316,0.058332543124134,0.0551417747668664,-0.0065830573182538,-0.4377468987486178,0.9270521082336372,-0.751497206028402,-7.254832376972737,-3.853420270202224,-0.2130023765601995,0.1,0.4,0.09,0.26,0.2,-7.179227,-3.8563645,-0.23677935
1753814333.477897,0.2205593249842749,0.2216867469879518,0.2160665283962314,0.2120204285788501,0.5656733019232767,1.5400702077083006,0.923503449552548,0.0547810969316843,0.061760057423723,-0.0169119671610897,-0.4796692678286335,1.0082149120831696,-1.0693245679294434,-7.250110001716278,-3.848620669420807,-0.2103086627607386,0.1,0.4,0.09,0.26,0.2,-7.181495,-3.8641343,-0.23993011
1753814333.5802858,0.2203245590615623,0.2212801204819277,0.2158153949704194,0.2116228533043791,0.5666684585914599,1.5414487716620835,0.9229287357978878,0.0491205522236939,0.072113365427125,-0.032828874107349,-0.6800467540074275,1.3660926321732152,-1.745123970890048,-7.241386110799768,-3.8457895580084136,-0.207962346843011,0.1,0.4,0.09,0.26,0.2,-7.1845784,-3.8641186,-0.23987183
1753814333.5886009,0.2200897931388497,0.2208734939759036,0.2155673526160641,0.2112246908741613,0.5674993837232892,1.5431189986829088,0.92190368485861,0.040002349758171,0.0882282587055126,-0.0577383176305953,-1.071345408327805,2.0502394812054026,-2.880520401099289,-7.227323886576489,-3.8450793456123793,-0.2059832939797357,0.1,0.4,0.09,0.26,0.2,-7.1856318,-3.8577564,-0.23721868
1753814333.596433,0.219855027216137,0.2204668674698795,0.2153278209278473,0.2108217304913878,0.5677127569260808,1.5459064084464718,0.9191980222687668,0.0020103778763452,0.1571354625437199,-0.1612215876642966,-2.275609367886055,4.201999419067176,-5.0,-7.193512019262056,-3.854103271689755,-0.2053313911063805,0.1,0.4,0.09,0.26,0.2,-7.184966,-3.8483882,-0.23342432
1753814333.6051152,0.2196202612934243,0.2200602409638554,0.215108994356173,0.2104078491184084,0.56649788944779,1.5512514326969813,0.9126487494528528,-0.0806921841346391,0.3051134744283781,-0.3837234575895323,-5.0,5.0,-5.0,-7.099538123248418,-3.8984231830420906,-0.2086730463368667,0.1,0.4,0.09,0.26,0.2,-7.1828995,-3.8412454,-0.23056011
1753814333.6136353,0.2193854953707117,0.2196536144578313,0.2149225559528121,0.209978415684807,0.5632624144360079,1.5602386378217092,0.9005953525017469,-0.1888512817304929,0.5006232287634175,-0.6797101869283688,-5.0,5.0,-5.0,-6.928017740012179,-3.983502873345044,-0.2172725661807543,0.1,0.4,0.09,0.26,0.2,-7.1791935,-3.8444128,-0.23178396
1753814333.714432,0.219150729447999,0.2192469879518072,0.2147307625163052,0.2095507532015104,0.5612210138633295,1.5671268093102766,0.8916555389964895,-0.0771397679709521,0.3023639069872134,-0.3835296880331615,-5.0,5.0,-5.0,-6.823823470001692,-4.039229978146668,-0.2264310097926699,0.1,0.4,0.09,0.26,0.2,-7.175906,-3.861952,-0.23887236
1753814333.723318,0.2189159635252864,0.2188403614457831,0.2145032365347652,0.2091392378656816,0.5613082373334742,1.57019601163382,0.8884489024806229,0.0293720132516207,0.1104524163594956,-0.0949521653201715,-1.0103518417470845,-1.27524111235173,3.8146545621043177,-7.006140902932517,-3.924650260119104,-0.2255150470972695,0.1,0.4,0.09,0.26,0.2,-7.1810503,-3.871797,-0.24304605
1753814333.7321508,0.2186811976025737,0.218433734939759,0.2142605864746213,0.2087358218224219,0.5618913638986028,1.5723705604832463,0.8865796308726419,0.0296650237006973,0.1098554743225981,-0.0945832777643016,4.416342060471529,-5.0,5.0,-7.135057873744149,-3.834015347755882,-0.2220186934495029,0.1,0.4,0.09,0.26,0.2,-7.1896987,-3.855362,-0.23654857
1753814333.7407124,0.2184464316798611,0.2180271084337349,0.2140208848695953,0.2083324012352979,0.5622838357247388,1.5748866712405647,0.8841770856334608,0.0169891156071303,0.1326071714924713,-0.129940991224075,5.0,-5.0,5.0,-7.124170436425809,-3.829584782282333,-0.2211382096502943,0.1,0.4,0.09,0.26,0.2,-7.1898794,-3.8297746,-0.22649367
1753814333.748973,0.2182116657571484,0.2176204819277108,0.2137752631292865,0.2079319170922423,0.5632527076511681,1.5763681335218829,0.8833344716276408,0.0589065485097245,0.0572973495486266,-0.0160566693410361,5.0,-5.0,5.0,-7.1231390396441,-3.821274230903878,-0.2194116056477674,0.1,0.4,0.09,0.26,0.2,-7.1847453,-3.8112912,-0.21950912
1753814333.8523054,0.2179768998344358,0.2172138554216867,0.2135563640601642,0.2075193264629989,0.5617642192530645,1.58230040582377,0.8757216766760932,-0.1160657359852498,0.3743257833563194,-0.4982934287960568,1.0089870877573173,1.4364062490404033,-4.31800511149522,-7.089177410525612,-3.82792579964158,-0.2213824800025229,0.1,0.4,0.09,0.26,0.2,-7.184111,-3.7881474,-0.21099661
1753814333.8610249,0.2177421339117232,0.2168072289156626,0.2133333395324761,0.207107726507618,0.5618047305652046,1.5854799980016303,0.8722862464113381,0.0381410088958181,0.0958037879092894,-0.0750507176315118,-0.9369432019281352,4.343205364966749,-5.0,-6.928790642205351,-3.92307222926894,-0.2267113566486256,0.1,0.4,0.09,0.26,0.2,-7.1811996,-3.7646985,-0.20196478
1753814333.8699005,0.2175073679890105,0.2164006024096386,0.2130733096983412,0.2067123511204636,0.5637166841187936,1.585275137656679,0.8739788226985437,0.1147308081713137,-0.042919074900533,0.1347537560528446,2.943717803739579,-3.176611703496929,5.0,-7.156708917121598,-3.773019038796264,-0.2198457706049289,0.1,0.4,0.09,0.26,0.2,-7.1841288,-3.7150745,-0.18467736
1753814333.8786256,0.2172726020662978,0.2159939759036144,0.2126712499285496,0.2063747794782919,0.5779086418413242,1.5631832294329713,0.9085627714006896,0.9031115306200568,-1.4477751671291337,2.243261564571778,5.0,-5.0,5.0,-7.682720540892312,-3.487118160722242,-0.1751629243343306,0.1,0.4,0.09,0.26,0.2,-7.185268,-3.6346157,-0.15696673
1753814333.8880062,0.2170378361435852,0.2155873493975904,0.2122377302326133,0.2060847236091885,0.5878710774219224,1.5486070671843963,0.9318334298960456,0.3820014109625826,-0.521272743343518,0.8548775371225084,5.0,-5.0,5.0,-8.47455379964926,-3.0169117187166665,-0.1400266728741906,0.1,0.4,0.09,0.26,0.2,-7.19125,-3.5191245,-0.120641425
1753814333.990305,0.2168030702208725,0.2151807228915663,0.2119228456003396,0.205732797987668,0.5910890791710492,1.5460698219593665,0.9370642787002614,0.0960388351562656,-0.0087597322309069,0.0852192078814559,-1.782851196944896,5.0,-5.0,-7.6807734649399295,-3.4746866870440205,-0.146870955694246,0.1,0.4,0.09,0.26,0.2,-7.174538,-3.4706175,-0.10412803
1753814333.999139,0.2165683042981599,0.2147740963855421,0.2116648420093329,0.2053403453705361,0.5921687218936174,1.5473859754999522,0.9364561606431766,0.0421235232871678,0.0894840994885994,-0.066162539037837,-5.0,5.0,-5.0,-7.302764187729984,-3.6989813528431794,-0.1486370394246015,0.1,0.4,0.09,0.26,0.2,-7.144375,-3.552409,-0.13126843
1753814334.007672,0.2163335383754472,0.2143674698795181,0.2114143211950997,0.204942279903103,0.5932334275481614,1.5487412365660878,0.93577405729543,0.0575733007281968,0.0621008348954338,-0.0248931439482419,-5.0,5.0,-5.0,-7.2432173960208415,-3.7294640663995104,-0.1462232672268614,0.1,0.4,0.09,0.26,0.2,-7.1481237,-3.6545136,-0.16800638
1753814334.0162091,0.2160987724527346,0.213960843373494,0.2111593313454271,0.204547128111351,0.594590551621865,1.5495899058905378,0.9358279420116804,0.0721724251139285,0.036974053577531,0.0111676377017334,-5.0,5.0,-5.0,-7.268563327388447,-3.70741624082784,-0.1432008347340589,0.1,0.4,0.09,0.26,0.2,-7.174237,-3.6729305,-0.1741903
1753814334.024618,0.2158640065300219,0.2135542168674699,0.2109030017327299,0.2041532212472867,0.5960786554534826,1.5502169519931748,0.9361911013956982,0.0763707661908988,0.0299915219560298,0.0206145721964314,-3.649860420110849,3.4495827440375724,-3.301200913609368,-7.289843991173724,-3.688202196958759,-0.1392489021305463,0.1,0.4,0.09,0.26,0.2,-7.1855288,-3.6251767,-0.15658692
1753814334.127246,0.2156292406073093,0.2131475903614458,0.2106476984615132,0.2037581548579988,0.5976060494068373,1.5507986823684785,0.9365889234284483,0.0776860118962188,0.0291245157478175,0.0200281891782198,-2.201405845840158,1.555844981111264,-0.9542527808408936,-7.297024708936396,-3.6775873158365338,-0.1355050720907771,0.1,0.4,0.09,0.26,0.2,-7.17521,-3.5782373,-0.13918476
1753814334.1360536,0.2153944746845966,0.2127409638554217,0.2103938816508938,0.2033619974067999,0.5989626165664301,1.551677499662257,0.9365508928412184,0.066005037901295,0.0490222292082989,-0.0086000448640661,-1.718169528682711,1.2219067497140603,-0.8121338226707396,-7.294696260207313,-3.672893434402093,-0.1322726456514199,0.1,0.4,0.09,0.26,0.2,-7.160717,-3.5650234,-0.13353966
1753814334.1446643,0.215159708761884,0.2123343373493976,0.2101447567730156,0.2029641406631203,0.5999088313943034,1.5532692474044012,0.935448343635746,0.0424712402967298,0.0900652403531592,-0.0702284763951533,-2.2779158394216688,2.5742768233701168,-3.060115818905683,-7.264934678429359,-3.678906226286269,-0.1308803161325896,0.1,0.4,0.09,0.26,0.2,-7.152942,-3.5816286,-0.13891977
1753814334.1531253,0.2149249428391714,0.2119277108433735,0.2098959109431375,0.2025665223117107,0.6010303486675587,1.5545595963756045,0.9347829384392772,0.0612193804941361,0.0576284384066524,-0.0225418914687386,-2.484154447978262,3.2256276617479065,-4.216352365243138,-7.240093485245179,-3.6835679798751055,-0.129044344228626,0.1,0.4,0.09,0.26,0.2,-7.1520753,-3.6114008,-0.1493961
1753814334.161637,0.2146901769164587,0.2115210843373494,0.2096524104050809,0.2021661012996072,0.6016013573087501,1.556819229411292,0.9326552960573786,0.0191581853542204,0.1315734675386366,-0.1337290734206556,-3.026842025082609,4.411262787494126,-5.0,-7.241980168688076,-3.6730096824268617,-0.1273846072263798,0.1,0.4,0.09,0.26,0.2,-7.1570888,-3.6326842,-0.15706857
1753814334.2634132,0.2144554109937461,0.2111144578313253,0.2094097797455834,0.2017639995199664,0.6024038955223836,1.558690690912396,0.9310966001799316,0.0472640146907419,0.0833687316225398,-0.0622148894744125,-3.0935869475435687,4.748150503782568,-5.0,-7.196922810382171,-3.690231720067864,-0.1268318942383242,0.1,0.4,0.09,0.26,0.2,-7.1609273,-3.6431112,-0.16047487
1753814334.2721589,0.2142206450710334,0.2107078313253012,0.2091635449311716,0.2013639802732084,0.6033277013711846,1.560350524234886,0.9298406000320408,0.0467051109593869,0.0840849412849863,-0.0640163467961222,-2.260964392461704,3.4657780177548263,-3.564977701385312,-7.231918319831705,-3.664115558826876,-0.1246443726376596,0.1,0.4,0.09,0.26,0.2,-7.1632886,-3.643704,-0.16056962
1753814334.2804563,0.2139858791483208,0.2103012048192771,0.2089367511732092,0.2009538477357688,0.6025890458000802,1.5649246418526574,0.9242152240119942,-0.0628686891302038,0.2764105710503756,-0.3522796275822398,-4.288857688050795,5.0,-5.0,-7.171816365204701,-3.683053331849762,-0.1260895207659573,0.1,0.4,0.09,0.26,0.2,-7.1641784,-3.63802,-0.15839945
1753814334.2886813,0.2137511132256081,0.209894578313253,0.2087906800488524,0.2004970933374974,0.5962146574737603,1.5795054455065742,0.9034345581467704,-0.4013401143570727,0.8789474835622906,-1.2663796628715849,-5.0,5.0,-5.0,-6.853435066049084,-3.840199831492103,-0.1391549297634279,0.1,0.4,0.09,0.26,0.2,-7.1594305,-3.6471171,-0.16111097
1753814334.2973056,0.2135163473028954,0.2094879518072289,0.2086330766527039,0.2000486061977651,0.5930349478779896,1.5884815376488792,0.8910756611682785,-0.0876753664263257,0.3250572051994759,-0.4303658334974152,-5.0,5.0,-5.0,-6.531756654125211,-4.02765141159121,-0.1593853966393296,0.1,0.4,0.09,0.26,0.2,-7.150521,-3.6942954,-0.17781824
1753814334.4031858,0.2132815813801828,0.2090813253012048,0.2084074257376774,0.1996360527676743,0.5930006956461247,1.5918738590919437,0.887158288907971,0.0245633042168019,0.1248678153542869,-0.1276141195773278,0.5474592144220152,-3.9758019198752352,5.0,-6.974667610617878,-3.758703317461973,-0.1568110115633395,0.1,0.4,0.09,0.26,0.2,-7.1612782,-3.7253034,-0.18968832
1753814334.412179,0.2130468154574701,0.2086746987951807,0.2081596847166983,0.1992362562164973,0.5942429833474309,1.5930057693847597,0.8866182447508993,0.0746537112668886,0.0365382493230199,0.0032556260355665,5.0,-5.0,5.0,-7.136585648898287,-3.649904309578776,-0.1521152911649896,0.1,0.4,0.09,0.26,0.2,-7.1798983,-3.6954813,-0.17912516
1753814334.4208786,0.2128120495347575,0.2082680722891566,0.2079064805767279,0.1988399393270236,0.5957643968601081,1.5936471491216169,0.8868031058544816,0.0778155082613629,0.0310645617857132,0.0112583044847944,5.0,-5.0,5.0,-7.202242829895902,-3.6012929995764438,-0.1470617189975677,0.1,0.4,0.09,0.26,0.2,-7.1831365,-3.6351929,-0.15805478
1753814334.4291306,0.2125772836120449,0.2078614457831325,0.2076497874213299,0.1984464835190346,0.5974265062603702,1.5940237320120518,0.8874057794126167,0.0861405408218062,0.0152361791537433,0.0364302640225672,5.0,-5.0,5.0,-7.209690071377556,-3.588471532351445,-0.1437257504448183,0.1,0.4,0.09,0.26,0.2,-7.173169,-3.587731,-0.14151989
1753814334.4372838,0.2123425176893322,0.2074548192771084,0.2073921082843338,0.1980540099537834,0.5990110414986561,1.594542365119998,0.8877905482570363,0.0784805684858169,0.0294512546261743,0.0143542832530013,4.792829848580638,-5.0,5.0,-7.215339960615582,-3.5752109902504747,-0.1406294004160995,0.1,0.4,0.09,0.26,0.2,-7.1653976,-3.5582457,-0.13141654
1753814334.5393577,0.2121077517666196,0.2070481927710843,0.2071367474738198,0.1976597677885712,0.6004929819714113,1.5952565391130789,0.8878620386544377,0.0740424002466265,0.0380355848437698,0.0003823113481501,3.689731182412656,-3.727798791385149,3.570096536876482,-7.204346533271392,-3.5753069333219902,-0.1377328632341218,0.1,0.4,0.09,0.26,0.2,-7.1634483,-3.5322104,-0.122854784
1753814334.5479977,0.2118729858439069,0.2066415662650602,0.2068829386957833,0.1972644950872069,0.6019343941737461,1.596052255065018,0.8877939339200127,0.07271976167181,0.0408044930250439,-0.0045818489725513,2.676328618185251,-2.455528129169398,2.0061863692133977,-7.198521075511101,-3.571850074058935,-0.1347757859500565,0.1,0.4,0.09,0.26,0.2,-7.16236,-3.505859,-0.11449532
1753814334.5562935,0.2116382199211943,0.2062349397590361,0.2066298667754143,0.1968689202390806,0.6033598915546454,1.5968826716663518,0.8876605147961606,0.0720723220967828,0.0422521863086719,-0.0073836475091159,1.879473650281713,-1.4533923391111148,0.7587570639966925,-7.196291884445812,-3.5653968324533203,-0.1318640066050615,0.1,0.4,0.09,0.26,0.2,-7.160255,-3.483571,-0.1073273
1753814334.565266,0.2114034539984816,0.2058283132530121,0.20637730026428,0.1964731906086224,0.6047688794179615,1.5977482613256082,0.8874625077185008,0.0711797735777634,0.0441341794505885,-0.0107969069928938,1.3738485864020464,-0.8959633187105593,0.1374191657153085,-7.194525766666014,-3.5583955397749443,-0.1290484925716027,0.1,0.4,0.09,0.26,0.2,-7.15834,-3.4662817,-0.10167973
1753814334.5735004,0.211168688075769,0.2054216867469879,0.2061252445445901,0.1960772364508824,0.6061556485502391,1.5986593171720322,0.8871848328495014,0.0699850086866822,0.0465639033459997,-0.0150204017880728,1.0068625523525387,-0.5227339913872185,-0.24111897265402,-7.192216085985544,-3.551720173325451,-0.126336162499934,0.1,0.4,0.09,0.26,0.2,-7.157239,-3.4525619,-0.09722857
1753814334.6754498,0.2109339221530563,0.2050150602409639,0.2058737282071023,0.1956810001356028,0.6075155458406037,1.599624065899644,0.8868153572772393,0.0685751574506236,0.0493702098485165,-0.019798745483155,0.6994516367809094,-0.2008256220050331,-0.5751610494810768,-7.189310354337209,-3.545387288485401,-0.1237306014636983,0.1,0.4,0.09,0.26,0.2,-7.1560135,-3.4432423,-0.09420027
1753814334.6837947,0.2106991562303437,0.2046084337349398,0.2056227918535941,0.1952844529565111,0.6088448062703133,1.6006490599038097,0.8863441817765699,0.0669822945161189,0.0524946641162189,-0.0250621682778407,0.4311930148843227,0.0962507301043029,-0.9007943485699093,-7.185877801858543,-3.5392842606458736,-0.1212327353456521,0.1,0.4,0.09,0.26,0.2,-7.154391,-3.4399338,-0.093088195
1753814334.6921604,0.210464390307631,0.2042018072289156,0.2053720064205423,0.1948873080745806,0.6101644308359553,1.601701683788283,0.8858218607866992,0.0668319756780913,0.0533665370379457,-0.0268363632660321,0.235830085794245,0.3069139306475069,-1.1180615654053283,-7.182974597649197,-3.533153468862354,-0.118819589701649,0.1,0.4,0.09,0.26,0.2,-7.15303,-3.4421022,-0.093748376
1753814334.700444,0.2102296243849184,0.2037951807228916,0.2051195702280492,0.194490731040524,0.6115624095455987,1.602617397750925,0.8855081105876432,0.0720509020294742,0.044052715090016,-0.012510080893697,0.2533598976387748,0.1620494234049148,-0.7981517663765542,-7.184839441604373,-3.524835833423503,-0.1163425732073292,0.1,0.4,0.09,0.26,0.2,-7.1525216,-3.4469702,-0.09532219
1753814334.7092016,0.2099948584622057,0.2033885542168675,0.2048698215902709,0.1940933124688519,0.6128252461373876,1.6037832764567663,0.8847792936684136,0.0615379860285575,0.0634238612500339,-0.0443086291521256,0.1155372754120837,0.3176678577727624,-0.9916821591522884,-7.185201968742313,-3.5154432705645,-0.1138758139811935,0.1,0.4,0.09,0.26,0.2,-7.152926,-3.4512513,-0.09675953
1753814334.811916,0.2097600925394931,0.2029819277108434,0.2046196791173132,0.1936968579928253,0.6142455250851008,1.6046664043122718,0.8844802910075534,0.0751369484724591,0.0388301855149478,-0.0062042843209643,0.1637903493271646,0.148178078647198,-0.7010487515996434,-7.1769871449169,-3.5117252830308594,-0.1109630357608527,0.1,0.4,0.09,0.26,0.2,-7.152926,-3.4558363,-0.09821309
1753814334.8211837,0.2095253266167804,0.2025753012048193,0.2043657496133838,0.1933024410424519,0.6158339896153663,1.6052589900617418,0.8846148785605431,0.0820962207388819,0.0271309018373457,0.0108339995477483,0.597934594030932,-0.6944710273425169,0.6285864557569317,-7.19655036326896,-3.491075938871366,-0.1079604775416211,0.1,0.4,0.09,0.26,0.2,-7.1535964,-3.458316,-0.09910047
1753814334.8300898,0.2092905606940678,0.2021686746987952,0.2041125963473816,0.1929072343935849,0.617317259179555,1.6060461870409055,0.8844430103175062,0.073029428927547,0.0435597777002019,-0.0146146297687346,0.711498579986567,-0.9402524772809912,1.038401977130338,-7.201817919573245,-3.48057774165208,-0.1049279216165681,0.1,0.4,0.09,0.26,0.2,-7.1546273,-3.4573736,-0.09882413
1753814334.8386655,0.2090557947713551,0.2017620481927711,0.2038601658704437,0.1925115274898446,0.6187836671102611,1.6068676360818177,0.884213307433201,0.0746801325583444,0.0408111034507393,-0.0106761155327723,0.6126213296413014,-0.8026375498325569,0.8752662187970185,-7.190579216266182,-3.479645564310838,-0.1024343561068232,0.1,0.4,0.09,0.26,0.2,-7.1541915,-3.4576054,-0.09883042
1753814334.8472502,0.2088210288486425,0.201355421686747,0.2036066749809037,0.1921165813238143,0.620322784676096,1.6075641083120873,0.8841647991535296,0.0789775279460455,0.0333898728708395,9.943865123340778e-05,0.5185681474516094,-0.6652702301869721,0.6943050907773568,-7.1941834617035045,-3.469303659405327,-0.0995774983837222,0.1,0.4,0.09,0.26,0.2,-7.1534514,-3.4603508,-0.09971993
1753814334.9524674,0.2085862629259298,0.2009487951807229,0.2033457464875741,0.1917265664433862,0.622499456201868,1.6071317225936552,0.8858241093647322,0.1197635521321246,-0.0389488972680007,0.1096845627232316,1.479240717787544,-2.4043326399909657,3.3625477908393493,-7.219826753949439,-3.4467517940015626,-0.0950840115051817,0.1,0.4,0.09,0.26,0.2,-7.1541033,-3.4613757,-0.10009447
1753814334.9610703,0.2083514970032172,0.2005421686746988,0.2030835826588888,0.1913383226783235,0.6245554823317028,1.60691758190668,0.8871331436923955,0.0993612206138459,-0.0024573535976934,0.0531245390319935,2.2849794213645893,-3.862958413814793,5.0,-7.264431025568677,-3.410741991677937,-0.0897709770203673,0.1,0.4,0.09,0.26,0.2,-7.156942,-3.4531472,-0.09768741
1753814334.9695923,0.2081167310805045,0.2001355421686747,0.2028275000665942,0.1909463757858022,0.6262647842778227,1.6073268947984072,0.8874834204850593,0.08268961277022,0.0276102254907944,0.0070051533904105,1.723814339304929,-2.8802345110880254,3.616323519653463,-7.231881929642019,-3.422992580043952,-0.0866242083507831,0.1,0.4,0.09,0.26,0.2,-7.1565676,-3.4459417,-0.09525043
1753814334.9785426,0.2078819651577919,0.1997289156626506,0.2025744318982454,0.1905512416381116,0.6277512683814119,1.6081433591861882,0.8872138653398001,0.0730613082881227,0.0453433374487393,-0.0198975690333066,0.5475706152973361,-0.7884282682728863,0.5446765147308348,-7.206867291277075,-3.4317175437127228,-0.0843961030743211,0.1,0.4,0.09,0.26,0.2,-7.1530814,-3.450526,-0.096588686
1753814334.987328,0.2076471992350792,0.1993222891566265,0.2023213835421339,0.1901563224876892,0.6293383627186193,1.608783583714652,0.8871949670877616,0.082638920572127,0.028286124260857,0.0048745083778316,-0.3236463407678978,0.75779672152593,-1.7238124772946808,-7.199364529272602,-3.429696719008299,-0.0818828468653721,0.1,0.4,0.09,0.26,0.2,-7.1524825,-3.4587095,-0.09926987
1753814335.088952,0.2074124333123666,0.1989156626506024,0.2020667004342627,0.1897634279701566,0.6310583718356708,1.609190072366398,0.8875215860914463,0.0884948696825907,0.0180426993102467,0.0201572144352677,-0.2047188534328808,0.5327411396948674,-1.3195682155245092,-7.213592695486429,-3.411242298103573,-0.0781012901963086,0.1,0.4,0.09,0.26,0.2,-7.1574883,-3.4510193,-0.09711483
1753814335.0980587,0.2071776673896539,0.1985090361445783,0.201811369302956,0.1893699898898463,0.6327401051407374,1.6096780588349229,0.887719146120001,0.084182873153036,0.0265523252555877,0.0069682539742018,0.0578742095520113,0.0650848632082701,-0.5503150166347761,-7.219703035582357,-3.399943774923873,-0.0749036440158257,0.1,0.4,0.09,0.26,0.2,-7.1637154,-3.421523,-0.08805817
1753814335.106864,0.2069429014669413,0.1981024096385542,0.2015581302073401,0.1889770390219551,0.6343841189065488,1.610221852596366,0.8878085732462528,0.0830063045833792,0.027644080066357,0.0038451200905074,0.1183039729650583,-0.0659122170118801,-0.3259599288027324,-7.214198016673172,-3.3958940968788203,-0.0719390704428751,0.1,0.4,0.09,0.26,0.2,-7.165736,-3.3849838,-0.07651314
1753814335.1156602,0.2067081355442286,0.1976957831325301,0.2013042502051672,0.1885837091304642,0.6360581009249368,1.6107337757461282,0.8879479669918354,0.0853444699774982,0.0252041044724413,0.0081000375294534,0.0751861519395087,0.0093239086050752,-0.4042253226968281,-7.212210273632001,-3.386208940707806,-0.0684738317668519,0.1,0.4,0.09,0.26,0.2,-7.163551,-3.3578815,-0.06771931
1753814335.1244287,0.206473369621516,0.197289156626506,0.2010526564698213,0.1881867631624528,0.637423605549871,1.6118032583622617,0.8872286019885753,0.0642653707610342,0.0627930879262441,-0.0499538480489205,-0.4415571094816666,0.950073235196918,-1.7967192229778397,-7.208044092056571,-3.385236152406807,-0.066642802774512,0.1,0.4,0.09,0.26,0.2,-7.16077,-3.3438687,-0.06307581
1753814335.2272134,0.2062386036988033,0.1968825301204819,0.2008032227689222,0.1877891348036602,0.6388201519962776,1.6128191339567748,0.8865757750541812,0.0727399816316873,0.0477838276801376,-0.0278509109075694,-0.8667054518593877,1.7075813900631331,-2.9322043558809376,-7.183522900379881,-3.39142773776078,-0.0646132826784269,0.1,0.4,0.09,0.26,0.2,-7.1587334,-3.3399239,-0.061677184
1753814335.2354956,0.2060038377760907,0.1964759036144578,0.2005534358120212,0.1873953664732119,0.640364361463971,1.6135536478519508,0.8863279860364929,0.0799049451679743,0.0337689893993019,-0.0078197975457203,-0.6941596417388183,1.362231520214892,-2.4115452715453563,-7.195149321266161,-3.372860973980966,-0.0614010192583508,0.1,0.4,0.09,0.26,0.2,-7.159407,-3.3362143,-0.060710277
1753814335.244385,0.205769071853378,0.1960692771084337,0.2003006421115892,0.1870015580062495,0.6420287179136562,1.6141086238896003,0.8863588695896987,0.085654796290513,0.0261781026949142,0.0044900757229997,-0.2089511288456881,0.4939153126956005,-1.0788553133084964,-7.205087199923889,-3.355694892717557,-0.0579583507957031,0.1,0.4,0.09,0.26,0.2,-7.162272,-3.3258824,-0.0577009
1753814335.2528515,0.2055343059306654,0.1956626506024096,0.2000457451677884,0.1866070305714711,0.6437309060385707,1.614600475287538,0.886477372249581,0.0863994902713024,0.0243208956556483,0.0065288819135419,0.3313608481925138,-0.4391798818371926,0.3749845019807322,-7.217453110137426,-3.347414997021975,-0.0555726233667488,0.1,0.4,0.09,0.26,0.2,-7.1644797,-3.31155,-0.053323533
1753814335.2616558,0.2052995400079527,0.1952560240963856,0.1997956505491038,0.186210821139099,0.6450967537051628,1.6156882842314333,0.8856704054053559,0.0639665198321514,0.0642708629381371,-0.0552589924469278,-0.0225176393008205,0.1902365156210713,-0.5737140414156978,-7.2056323233497865,-3.3428025190478365,-0.0529095946266506,0.1,0.4,0.09,0.26,0.2,-7.1642294,-3.3011112,-0.04996177
1753814335.3635845,0.2050647740852401,0.1948493975903614,0.1995484476375819,0.1858123037367617,0.6463737548943759,1.616941873749906,0.8846024613679894,0.0649388970173906,0.063039326747022,-0.0536642226052229,-0.7153931257949424,1.4251675566846569,-2.4484104061109004,-7.1758600466565285,-3.352461388557922,-0.0513338137764736,0.1,0.4,0.09,0.26,0.2,-7.1612954,-3.3015845,-0.049762573
1753814335.3724957,0.2048300081625274,0.1944427710843373,0.199302943853648,0.185412611131767,0.6475280862111464,1.618418769793201,0.8831759990276691,0.0565440889376545,0.078171066487878,-0.0778450539686136,-1.268239278651161,2.3954732265566667,-3.940099873673491,-7.171571709276006,-3.346436289507748,-0.0497192408147468,0.1,0.4,0.09,0.26,0.2,-7.1600986,-3.3059592,-0.051111218
1753814335.3809705,0.2045952422398148,0.1940361445783132,0.1990551171545763,0.1850139050106389,0.6489576461462027,1.6194205071344303,0.8824658062186674,0.0772736207265946,0.0421542068068733,-0.0231278126404098,-1.065154343680938,2.046559318375142,-3.412556052268688,-7.168854955251312,-3.3396237963665305,-0.0475639902107105,0.1,0.4,0.09,0.26,0.2,-7.162361,-3.3036897,-0.050593104
1753814335.3896248,0.2043604763171022,0.1936295180722891,0.19880241298985,0.1846200123353858,0.6506899658468425,1.619873250137994,0.882584971179179,0.0909434589104409,0.0168605101613996,0.0150004146012251,0.0324089181786083,0.0819751061797389,-0.4063494148212934,-7.201296287674521,-3.311241704060317,-0.0442182222607656,0.1,0.4,0.09,0.26,0.2,-7.1674323,-3.287962,-0.046142157
1753814335.3979082,0.2041257103943895,0.1932228915662651,0.1985484575068495,0.1842286405534481,0.6524915827788275,1.620204724837358,0.8828770369566112,0.0913515653562737,0.016562092526051,0.0148017372277716,0.9246069298390704,-1.5349787729954687,2.065812207395144,-7.216777401791688,-3.289387031548048,-0.0404238705428028,0.1,0.4,0.09,0.26,0.2,-7.171958,-3.2639296,-0.03891998
1753814335.5015662,0.2038909444716768,0.192816265060241,0.1982948071651234,0.1838356983819822,0.6542499775474987,1.6206312009837245,0.8830128478197199,0.0883740205931655,0.0229300362792391,0.0045366153772661,1.259746799486232,-2.1251464388558348,2.970818805797344,-7.217249112905857,-3.28224463713947,-0.0372957139942979,0.1,0.4,0.09,0.26,0.2,-7.1719933,-3.246548,-0.03327727
1753814335.5099297,0.2036561785489642,0.1924096385542169,0.1980410243140782,0.1834418164806018,0.6559508934131396,1.6211625596948167,0.882991248672464,0.0854866299995424,0.0279184098654266,-0.0027365770106909,1.00514106677628,-1.6618365928954484,2.2853245106454447,-7.213814465883716,-3.2786329500574736,-0.034615678215307,0.1,0.4,0.09,0.26,0.2,-7.1679473,-3.2454426,-0.032448348
1753814335.5183978,0.2034214126262515,0.1920030120481927,0.1977878682193213,0.1830475204902429,0.6576188254823405,1.6217598871535917,0.8828533476259304,0.0841893026325685,0.0307551463243235,-0.0082035957738829,0.6024671382786154,-0.9325565117477526,1.1864691793397186,-7.209105202647124,-3.2730033005339894,-0.032020535933375,0.1,0.4,0.09,0.26,0.2,-7.1642857,-3.2555046,-0.035307225
1753814335.526685,0.2031866467035389,0.1915963855421687,0.1975374680758397,0.182652449623319,0.659148739684006,1.622598576663151,0.8823301905035342,0.0754722441870809,0.0458401762142953,-0.0319980365043053,0.1210326113158757,-0.0857456884118341,-0.1164419890503125,-7.202904549919592,-3.2677194760515045,-0.0292575180582359,0.1,0.4,0.09,0.26,0.2,-7.1644816,-3.2632906,-0.037881847
1753814335.5354075,0.2029518807808262,0.1911897590361446,0.1972904894593896,0.1822553705618486,0.6604688156761753,1.6238149747426298,0.881218222507259,0.0642800774388801,0.0661738834098609,-0.0636576153704395,-0.551384560872523,1.0904156560508675,-1.9280701092947703,-7.184352470473087,-3.268693267999893,-0.027341002563102,0.1,0.4,0.09,0.26,0.2,-7.167615,-3.2607996,-0.03743669
1753814335.637119,0.2027171148581136,0.1907831325301205,0.1970483099037907,0.1818539799797754,0.6614321300409485,1.6256744746761886,0.8791109956915671,0.0441390730157802,0.1024704532058633,-0.1197832181890317,-1.5521870888830334,2.8715452138512,-4.6658861969513,-7.158874532639852,-3.2757967031773823,-0.0265424800747571,0.1,0.4,0.09,0.26,0.2,-7.171311,-3.2485917,-0.033895787
1753814335.646058,0.202482348935401,0.1903765060240964,0.196805528654981,0.1814533415274179,0.6626453226431952,1.6270938028931394,0.8776608028240708,0.066769233262692,0.0623341170336062,-0.0592356977140298,-1.7969186877148091,3.3096699469761117,-5.0,-7.141062165513883,-3.2783156299236835,-0.0254759740080076,0.1,0.4,0.09,0.26,0.2,-7.1742983,-3.231454,-0.028647361
1753814335.6548018,0.2022475830126883,0.1899698795180723,0.1965614075683853,0.181054159156427,0.6638438797577023,1.628543546942085,0.8761523640300831,0.0589104942557918,0.0765620266071593,-0.0815514779892291,-1.4291490245814342,2.6594198465957533,-4.082797403544539,-7.163288261911434,-3.2533007889239034,-0.0233098003032662,0.1,0.4,0.09,0.26,0.2,-7.179347,-3.2068129,-0.02134305
1753814335.66349,0.2020128170899757,0.1895632530120482,0.1963132750594336,0.1806565111992967,0.6654031563225501,1.6293691153408845,0.8755946751428902,0.0851165816701642,0.0309968212630944,-0.011905017851046,-0.4958559331199322,1.0184624630848156,-1.618457711849475,-7.164212140457741,-3.244850972367119,-0.0212370724275718,0.1,0.4,0.09,0.26,0.2,-7.1846886,-3.1783266,-0.012658474
1753814335.6722212,0.201778051167263,0.1891566265060241,0.1960601260263157,0.1802624088714921,0.6672110198203041,1.6297546329956254,0.8757002466952593,0.0935407789835479,0.0158146349838791,0.0106927013383103,0.8318673227400071,-1.3301160969214627,1.945843175134804,-7.202289288191462,-3.213827672590428,-0.0178521952736133,0.1,0.4,0.09,0.26,0.2,-7.1892424,-3.1504924,-0.0041981316
1753814335.7772963,0.2015432852445504,0.18875,0.1958071310211367,0.179869719946335,0.6689821709290209,1.6301996969849837,0.8757063109634066,0.0885525533615972,0.0243565356244231,-0.0027746568664776,1.3836887764091368,-2.3284759815907865,3.450701514023764,-7.20971014972988,-3.198689624362067,-0.0145584879673064,0.1,0.4,0.09,0.26,0.2,-7.191144,-3.1306953,0.0022144043
1753814335.786318,0.2013085193218377,0.1883433734939759,0.1955540559752286,0.1794765392474475,0.6706853953747769,1.6307710850050765,0.8755258182136889,0.085588575710675,0.0300991415660122,-0.0109980972684445,1.3728932196086274,-2.328604754444852,3.456476528402189,-7.201213662977138,-3.194684441166545,-0.0119648156121,0.1,0.4,0.09,0.26,0.2,-7.1882954,-3.1269658,0.004040482
1753814335.7947886,0.2010737533991251,0.1879367469879518,0.1953020489433497,0.1790823619464832,0.6723739287826782,1.631378696725028,0.8752612104536953,0.0855223726228298,0.0307394598201469,-0.0140466986030701,0.9713954589792044,-1.6179629715369672,2.3439269695772924,-7.198037293091879,-3.1897761188666536,-0.0095816131855597,0.1,0.4,0.09,0.26,0.2,-7.183023,-3.1382847,0.0010825122
1753814335.804296,0.2008389874764124,0.1875301204819277,0.1950513645156994,0.1786877883945314,0.6740733214346916,1.6319736817252477,0.8749985363847752,0.0862595133312619,0.0297094881732395,-0.0129877948335589,0.6614302619377648,-1.0557128893218355,1.4318347499789188,-7.19816171016572,-3.1804815810993614,-0.006285119708479,0.1,0.4,0.09,0.26,0.2,-7.1800933,-3.1529303,-0.0034041083
1753814335.8135924,0.2006042215536997,0.1871234939759036,0.1947994382996305,0.1782933104816088,0.6757873780786721,1.6325489514764944,0.8747692924565303,0.0870029427522639,0.0287207477319928,-0.0111010760566315,0.5363669752384636,-0.8211001519377548,1.0570218694771796,-7.199435338294908,-3.1715565866225366,-0.0036467256004746,0.1,0.4,0.09,0.26,0.2,-7.1817074,-3.1582885,-0.005484996
1753814335.916404,0.2003694556309871,0.1867168674698795,0.1945537624244925,0.1778959602977963,0.677181685797811,1.6336947802048791,0.8736132477958818,0.065666440484659,0.066728285967536,-0.0729283725155595,-0.0393220751274453,0.2026706397417905,-0.5814852690103789,-7.189667924719626,-3.1683493563443195,-0.0015891222090727,0.1,0.4,0.09,0.26,0.2,-7.1861773,-3.1505358,-0.0036002672
1753814335.9265175,0.2001346897082745,0.1863102409638554,0.1943074048786925,0.1774989016619893,0.678729527909743,1.634570016175287,0.8728960718315498,0.0823060018548677,0.0372511740633854,-0.025067375744481,-0.3735342742454886,0.7868677722205658,-1.4843188693434357,-7.168061016189979,-3.1713060942990783,0.0009102305293463,0.1,0.4,0.09,0.26,0.2,-7.1897583,-3.1366563,0.00056863076
1753814335.9357822,0.1998999237855618,0.1859036144578313,0.1940536507222962,0.1771055586922758,0.6806883445042291,1.6347333562868795,0.8732541509871776,0.1043640090346371,-0.0007814400813408,0.0314054893322001,0.3264340608750948,-0.4441485178883222,0.4296750604332837,-7.2001236522885,-3.145092201606462,0.0034505132581713,0.1,0.4,0.09,0.26,0.2,-7.1942463,-3.1173413,0.0063115084
1753814335.9455717,0.1996651578628492,0.1854969879518072,0.1937980914093477,0.1767141300001826,0.6826807424147681,1.6348327683141146,0.8737080493705026,0.0998601545649792,0.00657316937064,0.0205167968158204,1.0904544455737335,-1.7993425235463596,2.5221709357127864,-7.227871676701085,-3.1198027242231063,0.0076393713449514,0.1,0.4,0.09,0.26,0.2,-7.201307,-3.0903914,0.014330897
1753814335.9546616,0.1994303919401365,0.1850903614457831,0.1935433500187384,0.1763222625507789,0.6845999289401884,1.6350685043699125,0.8739433271428739,0.096399653738218,0.0133381818808153,0.0093893584956883,1.3562396844660018,-2.278855860644809,3.288366021390681,-7.220163266206379,-3.1151368275635183,0.0105698230389751,0.1,0.4,0.09,0.26,0.2,-7.2064323,-3.0647042,0.02239138
1753814336.0603154,0.1991956260174238,0.184683734939759,0.1932890194738163,0.1759284407302565,0.6864923068433839,1.6353710173953484,0.8740636680501805,0.0956851453544644,0.0156862237512901,0.0051879220115556,1.099869095484754,-1.8030719761473168,2.5456163224956674,-7.217267324555189,-3.1105924449314672,0.013593439204835,0.1,0.4,0.09,0.26,0.2,-7.206175,-3.052265,0.026863368
1753814336.0695145,0.1989608600947112,0.1842771084337349,0.193035058484314,0.1755359692629415,0.6883702565826426,1.6356798755110338,0.8741710915387613,0.0949492534121838,0.0153901647281911,0.0056153979902653,0.6994132944797755,-1.114417876467159,1.4977779381770628,-7.216930595737111,-3.103229487681275,0.0165767895306164,0.1,0.4,0.09,0.26,0.2,-7.2032113,-3.053313,0.027156861
1753814336.0785167,0.1987260941719986,0.1838704819277108,0.1927828022200408,0.1751446351014708,0.690256774961679,1.6359770738020674,0.8742676719431227,0.0957393736280023,0.0147091715160892,0.004770837259792,0.4933271997101435,-0.7810031080822378,0.9589782927830706,-7.213478650497131,-3.0919376676150554,0.0199229546987254,0.1,0.4,0.09,0.26,0.2,-7.2025156,-3.056581,0.026176931
1753814336.0873442,0.1984913282492859,0.1834638554216867,0.1925303383493283,0.1747522182479031,0.6921550932445659,1.6362684645108725,0.8743687332764005,0.0962778654285877,0.0145328511999665,0.0053252361782002,0.4097943835318542,-0.6324788437970806,0.7099262076506536,-7.21618583313035,-3.0828511662901974,0.0233359290398552,0.1,0.4,0.09,0.26,0.2,-7.2056203,-3.0522637,0.02707732
1753814336.0964792,0.1982565623265733,0.1830572289156626,0.1922768295365087,0.1743586093547246,0.6940626303784434,1.6365601186991787,0.8744590469290644,0.0967227010349734,0.0146027345711414,0.004447625288253,0.3680294480720913,-0.5305499508775157,0.5516969200376404,-7.219241537419478,-3.075575121130202,0.0259972612838641,0.1,0.4,0.09,0.26,0.2,-7.210539,-3.0393336,0.030684503
1753814336.2016466,0.1980217964038606,0.1826506024096386,0.1920275047578558,0.1739636095844387,0.6956861576017392,1.637340707682129,0.8737824174130655,0.0778355175778246,0.0468956798529569,-0.0459739805166502,-0.1204495168801407,0.3407029212916895,-0.7971841500495496,-7.211070583448757,-3.0717278449825542,0.0285457177098693,0.1,0.4,0.09,0.26,0.2,-7.215215,-3.0221572,0.03589419
1753814336.2116086,0.1977870304811479,0.1822439759036144,0.1917787646398635,0.1735690133531182,0.6974005910758935,1.6379650176232936,0.8733424162945557,0.0895946228080698,0.0267146750596221,-0.0149564216952699,-0.4769417362753013,0.9503256092534004,-1.7229135916408649,-7.18936335219136,-3.073193340583924,0.0308864857526583,0.1,0.4,0.09,0.26,0.2,-7.217995,-3.007207,0.040788922
1753814336.2214773,0.1975522645584353,0.1818373493975904,0.1915267501151998,0.1731758917777152,0.6992780803828377,1.638310924275329,0.8733201529260202,0.0967754998508947,0.014471347691268,0.0031951532415555,-0.2338389273985592,0.5157737452198399,-1.046710827256233,-7.20862358882669,-3.0541590726810623,0.0337614052951297,0.1,0.4,0.09,0.26,0.2,-7.221378,-2.9924371,0.045405094
1753814336.2305856,0.1973174986357227,0.1814307228915663,0.1912737990634332,0.172783415387139,0.7012125787818935,1.6385619107227154,0.8734308763994972,0.0983502494585741,0.0119331652035186,0.0064504489621153,0.1648067462472526,-0.1858859404491114,0.0335772752684553,-7.219284365027025,-3.039387746435988,0.0370176409975773,0.1,0.4,0.09,0.26,0.2,-7.2267046,-2.9741905,0.050948802
1753814336.2395804,0.19708273271301,0.1810240963855421,0.1910208977290696,0.172391073881905,0.7031545980838779,1.6388038818332158,0.8735439716753931,0.0983666177159862,0.012111489579065,0.0056156731315987,0.5023795328428898,-0.7718154512656706,0.9318663505628948,-7.22178416848848,-3.0292637172402404,0.0401888095983161,0.1,0.4,0.09,0.26,0.2,-7.231735,-2.955077,0.056916896
1753814336.3406725,0.1968479667902974,0.1806174698795181,0.1907681257858866,0.1719987504042268,0.7050988615617323,1.6390462073663996,0.8736458275658002,0.0985096889857662,0.012080209565053,0.0051285641049457,0.5298911091140721,-0.8196197119553903,0.9996965304473864,-7.222320529074669,-3.0203935969719624,0.0432828283315718,0.1,0.4,0.09,0.26,0.2,-7.234266,-2.9410028,0.06166384
1753814336.3494787,0.1966132008675847,0.180210843373494,0.1905153918771308,0.1716064642107582,0.707049678908834,1.639281465706585,0.8737479370179101,0.0988986759728663,0.0116223632396562,0.005295044992164,0.4576889741637838,-0.6939885667181479,0.8052457694059576,-7.223172749470795,-3.0113958737528312,0.0463638296698431,0.1,0.4,0.09,0.26,0.2,-7.2346544,-2.9340398,0.06431475
1753814336.3582456,0.1963784349448721,0.1798042168674699,0.1902619657064059,0.1712139386408619,0.7090072692085729,1.6395136086552204,0.8738513637346803,0.0992273239815187,0.0115558245141793,0.0053320799759117,0.3916723926379533,-0.5718810783299806,0.629370840468698,-7.224562102235401,-3.002510608957639,0.0493713888728663,0.1,0.4,0.09,0.26,0.2,-7.2349253,-2.9308474,0.06554526
1753814336.367116,0.1961436690221594,0.1793975903614458,0.1900095538349438,0.170821731204664,0.710974381546704,1.6397268507958145,0.8739584494772803,0.099755415377417,0.0103263596261937,0.0055649317320336,0.3488959788511722,-0.5007710860704744,0.5085686069102057,-7.225993763734736,-2.9935890640683707,0.0524009240755298,0.1,0.4,0.09,0.26,0.2,-7.23629,-2.927084,0.06667426
1753814336.3760395,0.1959089030994468,0.1789909638554217,0.1897547319145359,0.1704323795251559,0.7132427598519,1.6394130755205742,0.8748650240095371,0.1194852979799063,-0.024130186500835,0.058334821214027,0.7842006518458798,-1.2789257971887575,1.6846015065729605,-7.235866136544217,-2.977307641317378,0.0566408232534674,0.1,0.4,0.09,0.26,0.2,-7.2386312,-2.9206865,0.06853318
1753814336.4774482,0.1956741371767341,0.1785843373493976,0.1894980260574509,0.1700426575765053,0.715426525211987,1.6392649796265704,0.8755151800420108,0.1078836247675834,-0.0026669626617761,0.0252965167555648,1.0758141076759578,-1.7787645482040064,2.460510781558936,-7.258274911115624,-2.9564966131377277,0.0604440199612815,0.1,0.4,0.09,0.26,0.2,-7.2424836,-2.9095392,0.07176235
1753814336.4871025,0.1954393712540215,0.1781777108433735,0.1892437317654444,0.1696512992884206,0.7174516117497804,1.639389758619962,0.8757389558451413,0.1009436785285325,0.0088188287006766,0.0071914760737164,0.7562866199704432,-1.2163872733627366,1.6137802570194513,-7.2423393233357585,-2.960238533559742,0.0631493605095689,0.1,0.4,0.09,0.26,0.2,-7.2453027,-2.8984277,0.075372726
1753814336.4955227,0.1952046053313088,0.1777710843373494,0.1889901587428746,0.1692595944332125,0.7194307496197713,1.6396016220106848,0.8758260043415799,0.1000257962651355,0.0110697014691286,0.003676560125904,0.2914804911831163,-0.4039615645859726,0.3952041251023472,-7.2320530952894,-2.955979588301766,0.0661264814253158,0.1,0.4,0.09,0.26,0.2,-7.24587,-2.8920343,0.07773048
1753814336.504033,0.1949698394085962,0.1773644578313253,0.1887379622877444,0.1688682612512169,0.721416328000551,1.6397965353164143,0.8759118083792041,0.1007302945229162,0.0092622008118533,0.0046686065998564,-0.0887301986341578,0.2476998309884611,-0.6175451885304184,-7.232009368124351,-2.948028583433366,0.0691060104374102,0.1,0.4,0.09,0.26,0.2,-7.246511,-2.8878782,0.0792135
1753814336.5128715,0.1947350734858835,0.1769578313253012,0.1884870339422244,0.1684766856340094,0.723424890801448,1.6399637662694448,0.8760189600538576,0.1020333235469322,0.0079836230060414,0.0057788462074197,-0.119658054240977,0.2942544165816554,-0.7332951981102062,-7.232651979132853,-2.936236956284389,0.0728285404681915,0.1,0.4,0.09,0.26,0.2,-7.2494736,-2.8798635,0.081530035
1753814336.62364,0.1945003075631709,0.1765512048192771,0.1882353510300746,0.1680844036333656,0.7254422407831469,1.6401242975271229,0.8761319417639936,0.102216215316578,0.0079306168454745,0.0058264209840948,-0.0385346250307363,0.1717330418493073,-0.5638956139745737,-7.236571967572425,-2.9276581966722133,0.0758424606121137,0.1,0.4,0.09,0.26,0.2,-7.254394,-2.8656826,0.08566183
1753814336.633391,0.1942655416404582,0.176144578313253,0.1879829703989807,0.1676923677965436,0.7274670289073976,1.6402743123779204,0.876256153244218,0.1026554400513134,0.0072264557285017,0.0065549563462212,0.026024472986061,0.0662024696649011,-0.3933686422593727,-7.237911905339074,-2.919193840650458,0.0786393465934244,0.1,0.4,0.09,0.26,0.2,-7.2593102,-2.8483229,0.09105626
1753814336.6428895,0.1940307757177456,0.1757379518072289,0.1877305256070264,0.1673005681598673,0.7294953619774953,1.640421083417578,0.8763757357872385,0.1027553754428062,0.0072269418836769,0.0060279208990483,0.0590558689948422,0.011008761721755,-0.2866518215721352,-7.238850394272323,-2.9097759968329675,0.0816833169549482,0.1,0.4,0.09,0.26,0.2,-7.2630715,-2.8317952,0.09649736
1753814336.6518416,0.1937960097950329,0.1753313253012048,0.1874781538089551,0.1669087186339312,0.7315230843568503,1.6405735266080614,0.8764762961453405,0.1026844315173799,0.007601649978078,0.0049325646131488,0.061875809948783,0.0002815644951851,-0.2565275382063871,-7.239469854629193,-2.9007816507088937,0.0847474893234241,0.1,0.4,0.09,0.26,0.2,-7.265766,-2.8181071,0.10116348
1753814336.6609273,0.1935612438723203,0.1749246987951807,0.1872258239487952,0.1665168571469696,0.7335576056183611,1.64071808652108,0.8765779171462594,0.1031572251516176,0.0069512270067395,0.005337915739301,0.065962860078035,-0.0103336739970045,-0.2388328562164723,-7.240413411775715,-2.892181638995232,0.0877100775120743,0.1,0.4,0.09,0.26,0.2,-7.267911,-2.8071666,0.104923666
1753814336.76302,0.1933264779496077,0.1745180722891566,0.1869735764150345,0.1661251609921492,0.7356003168449219,1.640851189414288,0.8766863310254521,0.1035535782884322,0.0063926053951073,0.0056643903966975,0.0787999046662185,-0.0360902567172316,-0.201251228881845,-7.241647897341652,-2.882625835440762,0.0908169190747828,0.1,0.4,0.09,0.26,0.2,-7.2698646,-2.7980282,0.108026505
1753814336.7732005,0.193091712026895,0.1741114457831325,0.1867214014257553,0.1657334514152727,0.737646529766736,1.6409829695018257,0.876785583880797,0.1036637688825982,0.0064756942749551,0.004960573665233,0.0904489310348755,-0.0581021044555067,-0.1695553453974927,-7.242677524693995,-2.873247075364131,0.09389487653745,0.1,0.4,0.09,0.26,0.2,-7.2717357,-2.7898526,0.110759914
1753814336.782944,0.1928569461041824,0.1737048192771084,0.1864689643940264,0.1653419556873419,0.7397120836511889,1.6410836711358423,0.8769245539837861,0.1049068947123684,0.0043963359998534,0.0078012015969068,0.1213470250267636,-0.1146070768275616,-0.0801070029992035,-7.244069330753964,-2.8639648013723105,0.0969671183212653,0.1,0.4,0.09,0.26,0.2,-7.273514,-2.7821858,0.1133033
1753814336.7925572,0.1926221801814697,0.1732981927710843,0.1861953077333309,0.1649671394725006,0.743835135738644,1.6375978202877786,0.8825425289568084,0.2403828803160119,-0.2319671849225915,0.3690314873639412,3.40065461628234,-5.0,5.0,-7.315213274721618,-2.816982658973268,0.1050885701510948,0.1,0.4,0.09,0.26,0.2,-7.2752767,-2.774625,0.11578867
1753814336.8014288,0.192387414258757,0.1728915662650602,0.1859183275334825,0.164597157004912,0.7472967174251168,1.6352619202924052,0.8863906915554263,0.1553807605526874,-0.0838704906051538,0.1419503354565055,5.0,-5.0,5.0,-7.459520556209527,-2.723008249511514,0.1145590237266218,0.1,0.4,0.09,0.26,0.2,-7.283942,-2.7511582,0.12203246
1753814336.9073308,0.1921526483360444,0.1724849397590361,0.1856600379137547,0.1642125390350717,0.7496090793797138,1.6349351177977858,0.887153106824519,0.1054315193557974,0.0037149662776796,0.007236147454146,3.007483064239644,-2.2641448408241382,1.2955524128645988,-7.32825657149588,-2.793638061111289,0.1168208694678668,0.1,0.4,0.09,0.26,0.2,-7.2901006,-2.7255447,0.13036808
1753814336.9167418,0.1919178824133318,0.1720783132530121,0.1854092995015605,0.1638207652881072,0.7515701204608954,1.63523165178772,0.8869490539936606,0.0974665737379029,0.0181833243710757,-0.0155602170331578,0.0023160263981441,2.4069595819133687,-5.0,-7.261096946032971,-2.8269783405732336,0.1186235561098091,0.1,0.4,0.09,0.26,0.2,-7.287783,-2.7166069,0.13468435
1753814336.9255962,0.1916831164906191,0.1716716867469879,0.1851581366523341,0.1634283107281183,0.7535514266883677,1.635498767284517,0.8867898246381635,0.1012326253844999,0.0118234778438801,-0.005644742263866,-2.413307207492614,5.0,-5.0,-7.253377162249974,-2.8241806887660315,0.1211154433004771,0.1,0.4,0.09,0.26,0.2,-7.284133,-2.7200067,0.1347512
1753814336.9352195,0.1914483505679065,0.1712650602409638,0.1849061569742812,0.1630363974438535,0.7555857158948104,1.6356786815444908,0.8867482217682073,0.1035825277101522,0.0080001260134437,-0.000892474883383,-2.5292198400930923,5.0,-5.0,-7.259803481657522,-2.8120936158960457,0.1238690536936259,0.1,0.4,0.09,0.26,0.2,-7.285089,-2.7200177,0.13456663
1753814336.9450965,0.1912135846451938,0.1708584337349397,0.1846548947792872,0.1626442431683444,0.7576417184031492,1.6358276850021882,0.8867323453984616,0.104299631722968,0.0071236384428865,-0.0006394338699294,-1.9267629999398197,3.862307612878976,-3.8584303693643696,-7.26360108824699,-2.8007124088577413,0.1271271555422868,0.1,0.4,0.09,0.26,0.2,-7.2890625,-2.7117074,0.13646299
1753814337.0475166,0.1909788187224811,0.1704518072289157,0.184404069880274,0.162251964774975,0.7596999640460188,1.6359757378470243,0.8867057157942487,0.1042288388809058,0.0073285980749801,-0.0014262075217949,-1.4157034081251605,2.895132966676545,-2.863477272288846,-7.265005163243077,-2.791006685043233,0.1302493668966559,0.1,0.4,0.09,0.26,0.2,-7.2927265,-2.6983473,0.14032528
1753814337.057401,0.1907440527997685,0.1700451807228916,0.1841531676987213,0.161860168448006,0.7617597346184164,1.6361200413330428,0.8866786747113525,0.1043506994405052,0.0070187047217426,-0.0012128055923435,-1.086777291168574,2.249131555960294,-2.2508838301027208,-7.264962369303104,-2.78177130344114,0.1331316728715431,0.1,0.4,0.09,0.26,0.2,-7.294974,-2.684136,0.14500648
1753814337.0660708,0.1905092868770558,0.1696385542168675,0.1839022151212542,0.1614685289799769,0.76382372388042,1.6362611062177514,0.8866459911753227,0.1045918917453164,0.0068992460283286,-0.0016496001436393,-0.8523400175295159,1.7796832557333084,-1.8193537393363532,-7.265156690018214,-2.772336700473533,0.1359853622980565,0.1,0.4,0.09,0.26,0.2,-7.2964077,-2.6707814,0.14958927
1753814337.07486,0.1902745209543432,0.1692319277108434,0.183651367566872,0.1610766332713218,0.7658920188467178,1.6364000975683084,0.8866042040941012,0.1048024669147699,0.0067986269094277,-0.0021167340507713,-0.6660601476578865,1.412053307877545,-1.4867384466024514,-7.266152946196612,-2.763236936567921,0.1389082756006059,0.1,0.4,0.09,0.26,0.2,-7.297522,-2.6583562,0.153923
1753814337.0841289,0.1900397550316305,0.1688253012048193,0.1834006034512031,0.1606847392650231,0.7679545529973668,1.636551141309189,0.8865351936251753,0.1043576076794005,0.0076262657372672,-0.0037726451953509,-0.5286930916441881,1.1392979610089669,-1.2538716914863064,-7.266581724673743,-2.754191097812982,0.1417906023401463,0.1,0.4,0.09,0.26,0.2,-7.2985406,-2.6467426,0.15794143
1753814337.1928782,0.1898049891089179,0.1684186746987952,0.1831499320226936,0.1602928437303055,0.7700204896129103,1.6367001563463308,0.8864579013294837,0.1047176618636114,0.007239616776893,-0.0038137414689418,-0.4223799936429704,0.9281054283858244,-1.0801492133468114,-7.266255394562963,-2.745293891737326,0.1446127989242667,0.1,0.4,0.09,0.26,0.2,-7.2991896,-2.6366363,0.1614815
1753814337.2022753,0.1895702231862052,0.1680120481927711,0.1828993314349883,0.159900820911859,0.7720922457065537,1.6368436155764896,0.886377612428058,0.1049912056342641,0.0069947997274123,-0.0039980380919085,-0.3265267134025423,0.7413452733889883,-0.915369429833417,-7.267522291062106,-2.73640465061505,0.1473701123104698,0.1,0.4,0.09,0.26,0.2,-7.299453,-2.6285012,0.1643849
1753814337.2110734,0.1893354572634926,0.167605421686747,0.182648817793754,0.1595087279427114,0.7741671146754775,1.6369852765080644,0.886288741873416,0.1051130981594125,0.0069507180604507,-0.0045078119903322,-0.2451453847783457,0.5838569358078998,-0.7720220401568388,-7.268275593759151,-2.727150293510897,0.1502264911042593,0.1,0.4,0.09,0.26,0.2,-7.2994967,-2.6222398,0.16665435
1753814337.2199287,0.1891006913407799,0.1671987951807229,0.1823984565211122,0.1591166100825572,0.7762432888775438,1.637127828239522,0.8861873027096769,0.10516186139369,0.00702317003634,-0.005181875860966,-0.1796721585884772,0.4567220593450179,-0.6570632995982262,-7.268647562283885,-2.7178966385646843,0.1530824373093454,0.1,0.4,0.09,0.26,0.2,-7.2995358,-2.6173527,0.16841596
1753814337.228999,0.1888659254180673,0.1667921686746988,0.182148243803418,0.1587244644527669,0.7783198687656263,1.6372727948809898,0.8860711291372556,0.1051735248742857,0.0071608049212703,-0.0059489934500148,-0.1354943810511004,0.3672933912455107,-0.5827738941963377,-7.268872561231067,-2.708700697518489,0.1559152562897349,0.1,0.4,0.09,0.26,0.2,-7.2996216,-2.6133032,0.16984838
1753814337.3362436,0.1886311594953547,0.1663855421686747,0.1818981063920445,0.1583322662970539,0.7803961106525173,1.6374217071783117,0.8859384423136539,0.1051515709617151,0.0073544107198579,-0.0068053245302198,-0.1058694855166881,0.304645975437806,-0.5366821141640425,-7.269147991489054,-2.6997636730697847,0.1586648083990413,0.1,0.4,0.09,0.26,0.2,-7.299778,-2.6095884,0.17112303
1753814337.345322,0.188396393572642,0.1659789156626506,0.1816481520671969,0.1579400239161269,0.7824713047579693,1.637575425439033,0.8857871651910524,0.1050887797756257,0.0076133792115749,-0.007771695457903,-0.0861278353864121,0.2610744938496047,-0.509866101067789,-7.269186559910531,-2.690623657806656,0.1614592878820636,0.1,0.4,0.09,0.26,0.2,-7.2999916,-2.605793,0.17238855
1753814337.3540592,0.1881616276499293,0.1655722891566265,0.1813983799269298,0.1575477204486507,0.784544469793984,1.6377357391985683,0.8856147592788426,0.1049736501475066,0.0079707046261343,-0.0088723031865615,-0.0743127942177545,0.2330564285161884,-0.4988541767321372,-7.2691105888400145,-2.6815171406628604,0.1642322759594813,0.1,0.4,0.09,0.26,0.2,-7.300251,-2.6016214,0.17375529
1753814337.36282,0.1879268617272167,0.1651656626506024,0.1811487688796533,0.1571553341444914,0.7866146721480293,1.6379043604914825,0.885418817985001,0.1048128367472051,0.0084111744962678,-0.0100910417678179,-0.0692248590107186,0.2184186480045523,-0.5014238207944272,-7.26893356439209,-2.672491977327912,0.1669695511532511,0.1,0.4,0.09,0.26,0.2,-7.3005157,-2.596922,0.17528838
1753814337.3718295,0.1876920958045041,0.1647590361445783,0.1808993195728261,0.156762853346634,0.7886811428887371,1.6380825941877328,0.885197377206413,0.1046151803842725,0.0089125200793413,-0.0114035691551605,-0.0694295276377413,0.2143075595722408,-0.5145253394769962,-7.268649315747197,-2.663521192457408,0.1696745913815007,0.1,0.4,0.09,0.26,0.2,-7.300748,-2.5916579,0.17700976
1753814337.4719496,0.1874573298817914,0.1643524096385542,0.1806500569099006,0.1563702817508879,0.7907435845969841,1.6382707850789937,0.8849497307420192,0.1044091135239235,0.0094180781445994,-0.012734159621273,-0.0728459329688069,0.2164870640725499,-0.5332624474066853,-7.268258386110069,-2.654562961109142,0.1723536456229921,0.1,0.4,0.09,0.26,0.2,-7.300917,-2.58586,0.17891496
1753814337.48068,0.1872225639590788,0.1639457831325301,0.1804004540048693,0.1559780671935147,0.7928532798198231,1.6383799772226506,0.8848125302995877,0.1075856229143034,0.0040779944276177,-0.0050272274984315,0.0038675585075083,0.0805456648351371,-0.3356703640285024,-7.268929207821163,-2.6437397572533,0.1753928735870963,0.1,0.4,0.09,0.26,0.2,-7.301004,-2.5795815,0.18098724
1753814337.4893348,0.1869877980363661,0.163539156626506,0.1801498967872142,0.155586667888401,0.7950367136796824,1.6383639257112634,0.8848566514248718,0.1114855709855395,-0.0025711170719381,0.0046077945191342,0.2037296575657815,-0.2692356173694951,0.1924692937862605,-7.275309567182734,-2.631157745757086,0.1783491650095522,0.1,0.4,0.09,0.26,0.2,-7.301086,-2.5725303,0.18328875
1753814337.498005,0.1867530321136535,0.1631325301204819,0.1798988122877441,0.1551958722207971,0.7972589270832892,1.6382829393419924,0.8849892191502121,0.1128567073406434,-0.0048338163679432,0.0075162116913462,0.4100525521845477,-0.6311566034081929,0.7396375251493121,-7.281531952224073,-2.618477680043128,0.1814619575122509,0.1,0.4,0.09,0.26,0.2,-7.3011293,-2.5644042,0.18592036
1753814337.5065093,0.1865182661909408,0.1627259036144578,0.1796476134055851,0.1548052490385248,0.7994917463589879,1.6381863565771309,0.8851352353400107,0.113141128096404,-0.0051889972026367,0.0075191402997917,0.5159459150638579,-0.818566478008504,1.020207038817452,-7.284207506621453,-2.6083835215054463,0.1844524847334808,0.1,0.4,0.09,0.26,0.2,-7.300867,-2.5555978,0.18881899
1753814337.6073058,0.1862835002682282,0.1623192771084337,0.1793965128645741,0.1544146568316396,0.8017285508227426,1.638085493234796,0.8852766327696279,0.1133172248842442,-0.0053632806150437,0.0072141290403712,0.506928851543959,-0.8059166154523315,0.9943730670757864,-7.285246414247294,-2.5988722814627714,0.1875032552080046,0.1,0.4,0.09,0.26,0.2,-7.300157,-2.5469348,0.19175476
1753814337.616166,0.1860487343455155,0.1619126506024096,0.1791455281338743,0.1540240852764134,0.803969741028484,1.6379796894349394,0.8854144588986561,0.1135527960937954,-0.0056363922597385,0.007072254555958,0.4408160090261454,-0.6932389062658981,0.8160843533648092,-7.286149274387629,-2.5893980502469005,0.1905564880714628,0.1,0.4,0.09,0.26,0.2,-7.299188,-2.5388448,0.19454461
1753814337.6248431,0.1858139684228029,0.1615060240963856,0.1788950685551249,0.1536334221595615,0.8062174172064751,1.637865520869167,0.8855479911406651,0.1139089291686309,-0.0061059756717255,0.006833360853906,0.3773199365381046,-0.5841381180235101,0.6347414254789764,-7.287177186132721,-2.5797692576702334,0.1936511041324478,0.1,0.4,0.09,0.26,0.2,-7.2982397,-2.5310266,0.19720769
1753814337.6336646,0.1855792025000902,0.1610993975903614,0.1786447408236414,0.1532427298671943,0.8084691620026874,1.6377472780277498,0.8856788594947095,0.1140686589320289,-0.0062313849134711,0.0067310112468079,0.3262771247294254,-0.4958713994737932,0.4896714537999922,-7.288248740995705,-2.5699818565526296,0.1968082414587938,0.1,0.4,0.09,0.26,0.2,-7.2973676,-2.5227876,0.19993073
1753814337.6419036,0.1853444365773776,0.1606927710843373,0.1783916631471691,0.1528511386601385,0.8107238112731037,1.637644290692266,0.8858008101895587,0.1142118974190494,-0.0051840600162359,0.0061726496593308,0.2815837432650251,-0.3906233963722557,0.3672159564228075,-7.2900937441048335,-2.561905296607329,0.1994489726390407,0.1,0.4,0.09,0.26,0.2,-7.2963653,-2.5135868,0.20291513
1753814337.745551,0.1851096706546649,0.1602861445783132,0.1781403955318218,0.1524601927240345,0.8129348399238696,1.637595835328567,0.8858085566012698,0.1112870776025893,-0.0018996447912766,-0.0012029680018776,0.1683350157692918,-0.2046138781440527,0.091333809125089,-7.290613110836268,-2.555005389876985,0.2018788417355213,0.1,0.4,0.09,0.26,0.2,-7.2949514,-2.5033333,0.20624274
1753814337.7543938,0.1848749047319522,0.1598795180722892,0.1778917205625387,0.1520702064019584,0.8151630150531702,1.637516381130815,0.8858450893845069,0.113310567097418,-0.0049499099938568,0.0029500713517857,0.0832927279480263,-0.095027632645935,-0.1074111174001409,-7.284004426490069,-2.5427671485879184,0.2057730402173393,0.1,0.4,0.09,0.26,0.2,-7.2929506,-2.4923894,0.20983922
1753814337.7637763,0.1846401388092396,0.159472891566265,0.1776420298503918,0.1516798501161709,0.8174169731136176,1.637401920020906,0.885928251465991,0.1143958589171929,-0.0063328737993873,0.0047665062930702,0.0970499940960556,-0.1276289205765232,-0.0765402015161323,-7.288578854752908,-2.5325948690700018,0.2086424331746588,0.1,0.4,0.09,0.26,0.2,-7.290464,-2.4806776,0.21368045
1753814337.77324,0.184405372886527,0.159066265060241,0.1773917338336665,0.1512891785026256,0.8196761793234918,1.6372841234740358,0.8860082280493276,0.1144112334859012,-0.0061311305280778,0.0040031076670888,0.1305454005161102,-0.1808413771113017,-0.0029965377967976,-7.291379612127562,-2.523445450108624,0.2114403052785322,0.1,0.4,0.09,0.26,0.2,-7.2874627,-2.4678934,0.21783543
1753814337.7820249,0.1841706069638143,0.1586596385542169,0.1771414740574584,0.1508983525444746,0.8219300339761678,1.6371784973659338,0.8860592446900155,0.1140528760563134,-0.0053879188643287,0.0023229618983095,0.1467181041888236,-0.189367577755614,0.0232278316113183,-7.291899068331447,-2.5145059309207807,0.2143183406899933,0.1,0.4,0.09,0.26,0.2,-7.2836776,-2.454063,0.22232038
1753814337.8848507,0.1839358410411017,0.1582530120481928,0.1768918793156972,0.1505068075369638,0.824179388354976,1.6370885821961294,0.886066029662061,0.113864863694317,-0.0045764885372289,-8.6011879551956e-05,0.1133538106842829,-0.1170178416140673,-0.096242700783816,-7.29190752901153,-2.5056039675460497,0.2172670126249641,0.1,0.4,0.09,0.26,0.2,-7.278907,-2.439587,0.22704399
1753814337.8990638,0.183701075118389,0.1578463855421687,0.1766426081559155,0.150114967146119,0.8264166082886936,1.6370206800259282,0.8860313305341994,0.1131205687697586,-0.0033682385596884,-0.0020925220852653,0.0576354418405447,-0.0151467828689972,-0.2613577435296682,-7.2920721200557,-2.4968026938060883,0.2202538810618549,0.1,0.4,0.09,0.26,0.2,-7.273215,-2.4248617,0.23187399
1753814337.9080217,0.1834663091956764,0.1574397590361446,0.1763928488195915,0.1497239508950066,0.8286374601922216,1.6369758044468192,0.885963975661424,0.1122661654972913,-0.0022137930573981,-0.0036390942221849,-0.010004528193851,0.0874791327666124,-0.3964154134095144,-7.290399115535481,-2.4881672272449977,0.2228457519496905,0.1,0.4,0.09,0.26,0.2,-7.266771,-2.4100351,0.23672634
1753814337.9166417,0.1832315432729637,0.1570331325301205,0.1761431833271987,0.1493329543565564,0.8308385621028819,1.63696843585156,0.8858275871592854,0.1112265485874656,-0.0001120932691322,-0.0077287681385191,-0.0838321727330788,0.2007193026002928,-0.5480250319201977,-7.288460741913546,-2.479826668741248,0.2253189380486089,0.1,0.4,0.09,0.26,0.2,-7.2596297,-2.3950975,0.24157864
1753814337.9255924,0.1829967773502511,0.1566265060240964,0.1758918576627485,0.1489432285727977,0.8332797395292824,1.6365522669297077,0.8862976973049672,0.1273907506086959,-0.0277539249500963,0.0336067844717367,0.254011683935423,-0.3849616340998784,0.3452091223673201,-7.295723879264773,-2.46717040587654,0.2287083833053404,0.1,0.4,0.09,0.26,0.2,-7.251723,-2.380019,0.24643624
1753814338.0253692,0.1827620114275384,0.1562198795180723,0.1756424721358567,0.1485517676299687,0.835416390808835,1.6366653640987638,0.8859497954528199,0.1023585248344541,0.0156532565558338,-0.0330661164340764,0.1491435562254021,-0.1970087507064221,0.0473865304884938,-7.305904503897477,-2.4519262041278167,0.2317629131022118,0.1,0.4,0.09,0.26,0.2,-7.242786,-2.362494,0.25181258
1753814338.0342703,0.1825272455048258,0.1558132530120482,0.1753927910967948,0.1481614393793829,0.8378306302686994,1.636294393789211,0.8863266048561361,0.1283149205907005,-0.0295781613614014,0.0351702784351566,0.2165736608491483,-0.3186860592492462,0.2183354442932444,-7.285204581871352,-2.455111224348617,0.2343426505523957,0.1,0.4,0.09,0.26,0.2,-7.2314634,-2.3443933,0.25750536
1753814338.042869,0.1822924795821131,0.1554066265060241,0.1750577233318608,0.1478489441706781,0.8493496074511464,1.620252864185795,0.9104948169612332,0.7219442330159997,-1.051783740701516,1.5862188704856797,5.0,-5.0,5.0,-7.63597806755353,-2.267516866323288,0.2637659405765709,0.1,0.4,0.09,0.26,0.2,-7.218237,-2.3249393,0.26353568
1753814338.0516143,0.1820577136594005,0.155,0.1747101409309226,0.1475701671363747,0.8578107418980769,1.6094395327916695,0.9267172287113212,0.3383994231890209,-0.3938370050843767,0.5890309876603237,5.0,-5.0,5.0,-8.261808833964807,-1.9137965465510416,0.2907616751287624,0.1,0.4,0.09,0.26,0.2,-7.1853356,-2.2392783,0.28336328
1753814338.0603108,0.1820577136594005,0.155,0.1745375904952985,0.1473802300096909,0.8599169485911438,1.607388183417341,0.929774247632327,0.0358973509367844,-0.0154973550822563,0.0225504879246727,-2.5090826405427755,3.690523163098331,-5.0,-7.518107944085129,-2.183217314074513,0.2930910823699511,0.1,0.4,0.09,0.26,0.2,-7.0300417,-2.058934,0.32389647
1753814338.1592126,0.1825272455048258,0.155,0.1747187878232554,0.1473344376074802,0.8599436116528492,1.606899861164651,0.928124806584801,-0.0091876374988938,-0.0275279523372242,-0.1157756046962968,-5.0,5.0,-5.0,-6.739539411088098,-2.0655703634537805,0.3332928191885856,0.1,0.4,0.09,0.26,0.2,-6.742578,-1.8932176,0.359186
1753814338.1690774,0.1829967773502511,0.155,0.1752584054609169,0.1472306534572989,0.8514412924510452,1.6205272382628912,0.9033488916326196,-0.5582540696521002,0.9091162785037143,-1.60263502828086,-5.0,5.0,-5.0,-6.180679017976828,-1.9232494172472387,0.4048703033049065,0.1,0.4,0.09,0.26,0.2,-6.5466194,-1.8256449,0.36912853
1753814338.1779091,0.1834663091956764,0.155,0.1758745591166,0.1471180773839823,0.8455833978761549,1.62968163851661,0.8850356095141712,-0.2168382707272995,0.3279120350089368,-0.7210465077073323,-5.0,5.0,-5.0,-5.548494162673001,-2.198812755276056,0.3993418554901539,0.1,0.4,0.09,0.26,0.2,-6.493236,-1.8206049,0.36805153
1753814338.186555,0.1839358410411017,0.155,0.1764077824906501,0.1470687836760041,0.8444795762838505,1.6307228088416137,0.8791664965665977,-0.0068490828400057,-0.0311395753793861,-0.1676949528837362,-0.3879049623172168,-3.205497042008832,3.6730847789321617,-6.107038988497305,-1.9129050239508605,0.3940639965877008,0.1,0.4,0.09,0.26,0.2,-6.4954014,-1.8263669,0.37166607
1753814338.194975,0.184405372886527,0.155,0.1768993245779021,0.1470443673700454,0.8449868927902862,1.6289885493743546,0.8775936481468316,0.0355565252686858,-0.1050476599057627,-0.0525897784584038,5.0,-5.0,5.0,-6.423607928843939,-1.762609977652885,0.3910150296202693,0.1,0.4,0.09,0.26,0.2,-6.512834,-1.8208088,0.37723702
1753814338.297186,0.1848749047319523,0.155,0.1773815901727279,0.1470276776321635,0.8459198764206073,1.6265061535248373,0.8771742170487569,0.0507344395622012,-0.1319475627518617,-0.0114660252926473,5.0,-5.0,5.0,-6.496915809884537,-1.7346117850792486,0.388528176371243,0.1,0.4,0.09,0.26,0.2,-6.526384,-1.806931,0.378336
1753814338.305919,0.1853444365773776,0.155,0.1778658300184489,0.147010465205647,0.8466560834232337,1.6243728769860637,0.8762030415297105,0.0331118624320271,-0.1006546758847335,-0.0604727703912532,5.0,-5.0,5.0,-6.518292920651513,-1.734426807864343,0.3860756330115618,0.1,0.4,0.09,0.26,0.2,-6.530715,-1.8004893,0.37354356
1753814338.3146603,0.1858139684228029,0.155,0.1783538471703476,0.1469909269751693,0.8472424425811799,1.6225058805437378,0.8748169047974536,0.0285922708242055,-0.0926072128311528,-0.0729528509151374,4.130254265074682,-4.212811642120345,4.304467412959111,-6.502419238941423,-1.7558109242299778,0.3830882793188682,0.1,0.4,0.09,0.26,0.2,-6.536532,-1.8085301,0.36550808
1753814338.3232217,0.1862835002682282,0.155,0.1788420285182906,0.1469719042527607,0.847806889424285,1.6206771394692054,0.8733786752637147,0.0285234512454051,-0.0925338542225614,-0.0725901261236215,2.8990395646849656,-2.65054958650329,2.320319582126376,-6.505448526165214,-1.7665486985139196,0.3797391358815279,0.1,0.4,0.09,0.26,0.2,-6.550978,-1.8226475,0.35802925
1753814338.3318512,0.1867530321136535,0.155,0.1793299599525251,0.1469531374331477,0.8483797047350877,1.6188426615698073,0.8719429326386336,0.0290971507118186,-0.0929355146291471,-0.072535753423331,2.010581809955276,-1.5587848533599242,0.9830158292461548,-6.514808931456591,-1.774005005248799,0.3763487035119687,0.1,0.4,0.09,0.26,0.2,-6.567004,-1.8352048,0.35301822
1753814338.4323444,0.1872225639590788,0.155,0.1798182036693023,0.1469338892419237,0.8489561100049613,1.6170125215846212,0.8704907533935077,0.0291594995199863,-0.0925263949772088,-0.0736378274479545,1.5747282309660622,-1.1533386224293427,0.6208647327261891,-6.525738714729143,-1.7814363555792558,0.3732498862639277,0.1,0.4,0.09,0.26,0.2,-6.5775037,-1.8422707,0.35045475
1753814338.4415436,0.187692095804504,0.155,0.1803067191246531,0.1469143854406214,0.8495306750064097,1.615194113714744,0.8690137280098826,0.0290191495573197,-0.0918757581360662,-0.0749432840581935,1.2716016950112077,-0.9010868527412328,0.431343804953931,-6.5356683838093215,-1.789170862210026,0.3700887598335198,0.1,0.4,0.09,0.26,0.2,-6.5827518,-1.844908,0.3494544
1753814338.4497726,0.1881616276499293,0.155,0.1807932123027838,0.1468942162549538,0.8501415290835236,1.6133337566150543,0.8676101154242422,0.0314583184257323,-0.0948476328791821,-0.0696923953508124,1.079149575187858,-0.7637726029791452,0.3983026307842078,-6.547134237078115,-1.7971394419236928,0.3667397266530786,0.1,0.4,0.09,0.26,0.2,-6.586583,-1.8458586,0.3487739
1753814338.4579034,0.1886311594953547,0.155,0.1812794030003661,0.1468739023425793,0.8507430654333303,1.6114926503696316,0.8661665720427537,0.0301054710757116,-0.0927040807464394,-0.0739330561053198,0.9160411896066571,-0.6460356019389826,0.3613423930436903,-6.561860163829306,-1.806203385761431,0.3628744037316221,0.1,0.4,0.09,0.26,0.2,-6.592318,-1.8475537,0.34743345
1753814338.466046,0.1891006913407799,0.155,0.18176762040587,0.1468540860553252,0.8513270043281302,1.609682312426086,0.8646620175543136,0.0293560534848698,-0.0913247575166118,-0.0766714267012872,0.7230002781942805,-0.4700741989976578,0.1810450826237463,-6.567687618708682,-1.813031718035038,0.3600738891090956,0.1,0.4,0.09,0.26,0.2,-6.6015077,-1.8514038,0.34496886
1753814338.5649073,0.1895702231862052,0.155,0.1822589956412948,0.1468354436727834,0.8519069564094484,1.607867001345514,0.8631368655697776,0.0293189739551789,-0.0920599184905691,-0.0771970103493095,0.5473329705929909,-0.3282648320308718,-0.0051244765279681,-6.574457110193789,-1.8189355842438335,0.3573439057143324,0.1,0.4,0.09,0.26,0.2,-6.6143417,-1.85776,0.3414117
1753814338.573758,0.1900397550316306,0.155,0.1827509223555943,0.1468171102130136,0.8524903220692982,1.6060574678213506,0.8616043385764045,0.0295562179837645,-0.0914579737429247,-0.077523244889286,0.4080051797111238,-0.2158046036349178,-0.1474590448679189,-6.581606162301704,-1.8234298753753944,0.3548057342167323,0.1,0.4,0.09,0.26,0.2,-6.630358,-1.866257,0.33701128
1753814338.582532,0.1905092868770558,0.155,0.1832408353540504,0.1467980675881232,0.8530790678558539,1.6042550486699267,0.860067860435164,0.0298395958441606,-0.0911722967398052,-0.0776848250721946,0.3318630776448052,-0.1452094085349102,-0.1790640584274401,-6.593638726744826,-1.833068402527099,0.3509548957240182,0.1,0.4,0.09,0.26,0.2,-6.6487193,-1.8762761,0.3320403
1753814338.591297,0.1909788187224811,0.155,0.1837294738026367,0.1467788342018827,0.8536726614807016,1.6024544708999025,0.8585328028735244,0.0300736082369714,-0.091138369965207,-0.0775417137933858,0.2865572648473267,-0.0994441698692908,-0.1597700953709532,-6.604881598348862,-1.8417239434809591,0.3473178666927575,0.1,0.4,0.09,0.26,0.2,-6.6684175,-1.8871809,0.326751
1753814338.5999494,0.1914483505679065,0.155,0.1842179842511948,0.1467596405664978,0.8542732701032847,1.6006487758203245,0.8569983485273233,0.0304657358256761,-0.0914876236864772,-0.0775450433975901,0.256729317140496,-0.072636476273781,-0.1305367196300717,-6.615284696320698,-1.8494092944436684,0.3438875203108443,0.1,0.4,0.09,0.26,0.2,-6.6884255,-1.8983836,0.32138526
1753814338.698495,0.1919178824133317,0.155,0.1847069592043883,0.1467404699168578,0.8548815830276464,1.598836160722711,0.8554654431348296,0.0308550768851234,-0.0918389854747976,-0.0774410123958034,0.2378610640847124,-0.0748726312766496,-0.1005567889160215,-6.625482975506976,-1.8562172890519413,0.3407605734366538,0.1,0.4,0.09,0.26,0.2,-6.7079096,-1.9093722,0.31615525
1753814338.7074337,0.192387414258757,0.155,0.1851961401375474,0.1467213726902695,0.8554975451760498,1.597016805808256,0.8539363417449735,0.0312416213667846,-0.0921777479133879,-0.0772208227683202,0.2258014078103833,-0.0886523959423267,-0.069778339164097,-6.635738735273905,-1.8631374575823605,0.3375752303283549,0.1,0.4,0.09,0.26,0.2,-6.726299,-1.9197814,0.3112167
1753814338.716152,0.1928569461041824,0.155,0.1856853448216427,0.1467023741380492,0.8561214031133298,1.5951903156016056,0.8524128542096152,0.0316453057951391,-0.0925464904284278,-0.0769165250733555,0.2182948703598087,-0.1045909124790035,-0.0381359112703014,-6.646086611948781,-1.870185283966183,0.3343321942165762,0.1,0.4,0.09,0.26,0.2,-6.743288,-1.9294147,0.30665386
1753814338.7248232,0.1933264779496076,0.155,0.1861745327632192,0.146683480485291,0.8567535186169875,1.5933558416403544,0.8508960971790909,0.0320732276778357,-0.0929975727116943,-0.0765640951855894,0.2133878211665631,-0.1201200753090479,-0.004562771610088,-6.657137989285281,-1.8782041291720923,0.3308057193222994,0.1,0.4,0.09,0.26,0.2,-6.758791,-1.9382153,0.30249006
1753814338.7334602,0.1937960097950329,0.155,0.1866637758193743,0.1466647054661962,0.8573942266131332,1.591512776032865,0.8493870813153921,0.0325103916517367,-0.0934290236993763,-0.076159525845621,0.2109343401443944,-0.1356048157732422,0.028692343039702,-6.667532098429285,-1.885123074067468,0.3275907075258799,0.1,0.4,0.09,0.26,0.2,-6.772877,-1.9462197,0.2987075
1753814338.8334062,0.1942655416404582,0.155,0.1871529710180355,0.1466460316987163,0.85804371501381,1.5896608844134188,0.8478865279179058,0.0329571625415017,-0.0938819897441547,-0.0757232229188372,0.2103222148552853,-0.1501381582287013,0.0600995305593967,-6.678070162812707,-1.8921604575392656,0.3243423752994323,0.1,0.4,0.09,0.26,0.2,-6.7857156,-1.9535195,0.2952633
1753814338.8421764,0.1947350734858835,0.155,0.1876421321791737,0.1466274641006049,0.8587021475526546,1.587799707239556,0.8463949647490083,0.033411815407581,-0.0943587708081723,-0.0752617195245345,0.2108801906676559,-0.1636278608349707,0.0888014340874316,-6.688636992902585,-1.8991678922722015,0.3211045018405642,0.1,0.4,0.09,0.26,0.2,-6.797528,-1.9602351,0.29210007
1753814338.850881,0.1952046053313088,0.155,0.1881313195051066,0.1466090149116614,0.8593696949323507,1.5859285752976893,0.8449128317553204,0.0338760155745743,-0.0948768471168555,-0.0747788274776107,0.2121809287619916,-0.1765488353078733,0.1145707809134449,-6.698897886669795,-1.905651313008022,0.3180196023786064,0.1,0.4,0.09,0.26,0.2,-6.8085504,-1.9664978,0.2891549
1753814338.8594122,0.1956741371767341,0.155,0.1886205086353491,0.1465906831120675,0.8600463314809081,1.5840477117794525,0.8434403436389425,0.0343349311742778,-0.095363311175651,-0.0742882643554552,0.2137428428773186,-0.1884432908437498,0.1371259699364146,-6.709457083142746,-1.912529070004652,0.3148249822000108,0.1,0.4,0.09,0.26,0.2,-6.8190036,-1.9724336,0.28636742
1753814338.8680875,0.1961436690221594,0.155,0.1891096420773194,0.146572456089452,0.8607320527148528,1.5821571207244134,0.8419776574124543,0.0347951744109285,-0.0958591826098142,-0.0737896887345926,0.2151577119715869,-0.1983234573881632,0.1564543131052356,-6.7200996503434975,-1.9194889427683,0.3116121288140364,0.1,0.4,0.09,0.26,0.2,-6.829074,-1.97815,0.2836864
1753814338.967646,0.1966132008675847,0.155,0.1895987409324995,0.146554337462243,0.8614267940656346,1.5802567616683203,0.8405246535079679,0.0352507489484811,-0.0963548618806635,-0.0733014594081492,0.216213091394761,-0.2062984931560793,0.1723978961647018,-6.730748707248929,-1.926421080964012,0.3084125982932644,0.1,0.4,0.09,0.26,0.2,-6.8389015,-1.9837296,0.28107202
1753814338.976625,0.19708273271301,0.155,0.1900878213216865,0.1465363292433934,0.8621304719309876,1.5783466700941515,0.839081181720777,0.0357022256588385,-0.0968482567385265,-0.0728200028505699,0.2167594223923387,-0.2124632079896126,0.1849021024321959,-6.741395461847196,-1.9333286616565757,0.3052266956032614,0.1,0.4,0.09,0.26,0.2,-6.8485856,-1.9892313,0.27849662
1753814338.985556,0.1975522645584353,0.155,0.1905768876802376,0.1465184303641614,0.8628429394420115,1.5764270375635734,0.8376469291478948,0.0361452542943121,-0.0973296897025508,-0.072357165290681,0.2167500944791743,-0.2171339321216834,0.1940626307409384,-6.752048467567708,-1.9402256733554923,0.3020502871447915,0.1,0.4,0.09,0.26,0.2,-6.8581934,-1.9946939,0.2759415
1753814338.9942734,0.1980217964038606,0.155,0.19106594103124,0.1465006385341302,0.8635640692727948,1.5744978879583045,0.8362215512406992,0.0365878139677322,-0.0978479355333627,-0.0719114262436441,0.2162728741216792,-0.2212662601806113,0.2000237031768609,-6.76335289802206,-1.948070555504602,0.2986112003187628,0.1,0.4,0.09,0.26,0.2,-6.8677692,-2.0001438,0.27339423
1753814339.003527,0.1984913282492859,0.155,0.1915550493435541,0.1464829639884473,0.8642936534806385,1.5725596246274265,0.8348046083607011,0.0370115078169251,-0.0982942259880769,-0.0714895117239007,0.2151695076967516,-0.2238559583977984,0.2030770968369429,-6.773948953048879,-1.9548646075610765,0.2954777736171043,0.1,0.4,0.09,0.26,0.2,-6.877344,-2.0055988,0.27084613
1753814339.1047242,0.1989608600947112,0.155,0.1920441110553438,0.1464653823528741,0.8650314089527161,1.570612900974619,0.8333955036128045,0.0374222819828472,-0.0987193411765667,-0.0710998177237909,0.2131849404982436,-0.2235690831194822,0.2032550440305038,-6.784648791403922,-1.961813706391768,0.2923075919905084,0.1,0.4,0.09,0.26,0.2,-6.886938,-2.0110729,0.26829123
