sinayanaik/E2NN/RNN/run_20250729_123018_lr0.001_bs32_seq10_ForwardStrokeOnly/predictions_lr0.001_bs32.csv
original_index,joint1_angle,joint2_angle,joint3_angle,joint1_velocity,joint2_velocity,joint3_velocity,joint1_acceleration,joint2_acceleration,joint3_acceleration,actual_joint1_torque,actual_joint2_torque,actual_joint3_torque,pred_joint1_torque,pred_joint2_torque,pred_joint3_torque,set
10,0.48401206872615316,0.8236587630446369,0.7246339292643669,-1.4355834273826824,1.44164500090373,0.9607132857327298,-0.5512521694349651,0.07489540729780375,0.0886613419666852,-5.50660252743508,-0.770751072049773,0.4875626066359748,-5.271073341369629,-0.9066876173019409,0.5166116952896118,test
11,0.4710842376694067,0.8283067535590255,0.7317916729959435,-1.4160923369285492,1.3933497799518983,1.005062041629845,-0.6655475095305333,0.2897575879007519,-0.27419770541593746,-5.507675869354348,-0.7695990951125238,0.4890753289616311,-5.274907112121582,-0.9124382138252258,0.5147722959518433,train
12,0.4583920238384243,0.8325537880092793,0.739583865732319,-1.3959435313121524,1.3381515469579093,1.055717968354121,-0.5505785523424881,0.17052322048030397,-0.19051247308404506,-5.506550039407482,-0.7692354124908561,0.4904444324056592,-5.280910491943359,-0.9096153378486633,0.5154287815093994,train
13,0.4457332445415886,0.8367096961128273,0.7474531921040977,-1.3983661611299913,1.3388657101987194,1.048101044464946,-0.39888829022240696,-0.0064971110434144655,-0.011356577648213323,-5.494514535906396,-0.777433233496541,0.4908426024727178,-5.280604362487793,-0.9047319889068604,0.5168938636779785,train
14,0.43227222334647075,0.8418853249430879,0.7530239672662782,-1.486584077651224,1.5169495182337887,0.8180068170610427,-0.4931650225112536,0.15285849242892038,-0.2652465191021302,-5.473592696462107,-0.7908719404723694,0.4911233138036914,-5.266829490661621,-0.9154849648475647,0.5145132541656494,train
15,0.4189812485962471,0.846755813415215,0.7591119974931926,-1.4408099829445444,1.4092169728492037,0.9403576673310388,-0.6065284556146445,0.32795657307456255,-0.5266211845806329,-5.478644319941192,-0.7871918428310265,0.4922674095599346,-5.268136978149414,-0.917418360710144,0.5141315460205078,train
16,0.4058340856633429,0.8514147174050721,0.7654145310401269,-1.4388684557014284,1.405364814033974,0.9248069307266575,-0.5626928128013848,0.2940023267645585,-0.5129300772737786,-5.473169278393677,-0.7928601182678986,0.4929724743585734,-5.2703752517700195,-0.9177738428115845,0.5138612985610962,train
17,0.392415905921426,0.8563259099978314,0.7710589578320757,-1.4694773806414958,1.4503896866185475,0.863002219966682,-0.5437585126732317,0.27785603292034683,-0.5210296616965739,-5.457756288322666,-0.7979115398143531,0.4934995711958414,-5.267533779144287,-0.9197694063186646,0.5134996175765991,train
18,0.37887939132682774,0.8613264714869212,0.7763585816521702,-1.473287553010453,1.4523870145778275,0.8469502519824789,-0.526066048376884,0.25221283849264226,-0.5039854175514779,-5.450503426486794,-0.8033055015033203,0.4939919157987935,-5.265802383422852,-0.9201273918151855,0.5137314796447754,train
19,0.3651252438689624,0.866574503981121,0.7809620651441804,-1.4962716730733205,1.4952028459587632,0.7814528716891302,-0.5868009276451008,0.3439568181905163,-0.6440852730248449,-5.435822263570723,-0.8137281388829738,0.4937672445026151,-5.261611461639404,-0.9259811043739319,0.5126011371612549,test
20,0.35076090791036374,0.8725702836126973,0.7838513680821504,-1.5568814940458717,1.6126440693077493,0.62806264275599,-0.7604846284683239,0.588102357818796,-0.9794089532257865,-5.416152836447943,-0.8254546132135908,0.493402603620388,-5.251793384552002,-0.9389284253120422,0.5097612142562866,train
21,0.336220144327141,0.8787228500081751,0.7862412038596941,-1.5579972180009884,1.6040708029278132,0.624257678261581,-0.9055203797522653,0.7910318523062264,-1.2617941071749617,-5.41407114068875,-0.8294306723613213,0.493024481784817,-5.250014305114746,-0.946931779384613,0.5079789161682129,test
22,0.321990941905494,0.8844122860691471,0.7894308670516942,-1.5228810901555083,1.5245043199575183,0.7062978045267664,-0.8462984457492293,0.7131447050535915,-1.1713213614215194,-5.417444395814085,-0.8278279092646837,0.4936289139079515,-5.257410526275635,-0.9452270865440369,0.508231520652771,train
23,0.3079273544747334,0.8898266510033102,0.7930013434590264,-1.5152598020622239,1.5008268371961055,0.7198354563733828,-0.6476897052709403,0.44799398150090697,-0.8333213126377721,-5.410645401871112,-0.8327749897547791,0.4935501557624562,-5.262932777404785,-0.9401470422744751,0.5095113515853882,train
24,0.29352157733006723,0.8956175120510457,0.7956356519773768,-1.5555927234008833,1.573838971746926,0.6210535311448135,-0.5407944656957989,0.3036158648952081,-0.6500757462685501,-5.392220643785263,-0.8442163205256648,0.49274007939551,-5.258640766143799,-0.9402973651885986,0.510100245475769,train
25,0.2786524727788121,0.9019453247300199,0.7969736501766116,-1.5946446581509734,1.6453516279345703,0.5200451289009821,-0.6344899986336272,0.4268108691508703,-0.8177441068532191,-5.428269072010752,-0.8396837699521781,0.4925038636618675,-5.250170707702637,-0.9485664963722229,0.5089601278305054,test
26,0.26830182193496854,0.9023047359873635,0.8107320785751226,-1.0816494011558722,0.5800567383743178,1.8066997701313592,0.3929009678092403,-0.9517518785291118,1.0298341927697088,-5.521137461619474,-0.7788564981228174,0.4977793760482004,-5.30515193939209,-0.8732687830924988,0.527458906173706,train
27,0.25747171230985727,0.9032094383038034,0.8231348056281269,-1.2914456268436794,1.0004342937281836,1.277991005705512,1.3997445871090104,-2.0227331782705043,1.9045173897553247,-5.454991735429137,-0.8146025969273213,0.498245273767848,-5.30241060256958,-0.8685937523841858,0.5279227495193481,train
28,0.2447695612735643,0.9065145266258621,0.8303317544930328,-1.4349730404882481,1.291893366605731,0.9125333008250336,1.1634152689772868,-1.7620161227587279,1.6618233810462857,-5.41963754101621,-0.8438124075602375,0.4969431526397073,-5.2862348556518555,-0.8992029428482056,0.5185368061065674,test
29,0.23147774477198604,0.9105772972252648,0.8357685088380188,-1.4564678551122816,1.334654704193048,0.8458033677763288,0.4697593916209103,-0.8615052387615124,0.5423729592432093,-5.393816868659905,-0.8554371895100897,0.4975512136271234,-5.281861305236816,-0.9411436319351196,0.5099469423294067,test
30,0.2165853315083776,0.9166574830910063,0.836718199108302,-1.6275947340780035,1.6756446865154397,0.41238977616476585,-0.671220065527737,0.6438961927320153,-1.4147247782038872,-5.381243438843685,-0.8770356053519706,0.4954974236953648,-5.251579761505127,-1.0032895803451538,0.4977720081806183,train
31,0.20405063028141324,0.9196217858120452,0.8441331845710414,-1.3137727340423728,1.0260474486543358,1.1981210114315202,-0.6531870978192673,0.6011963651100147,-1.3001368894138645,-5.440428009799796,-0.8411082713198229,0.498042528600096,-5.296472549438477,-0.9749447703361511,0.5024677515029907,train
32,0.19161611158250852,0.9224112975449305,0.8517129600220292,-1.398404548733818,1.1932567767226794,0.9755923365823004,-0.1005298556590022,-0.15402494561843172,-0.24280864740324068,-5.418121779464915,-0.8562814075223206,0.498710746515003,-5.3017168045043945,-0.9532420635223389,0.5069427490234375,train
33,0.1790422095954928,0.9253231527215035,0.8588191933844902,-1.3880419636752026,1.1637438665626112,0.9954612725938243,0.13433834482956794,-0.4858865641364533,0.22810347219558502,-5.4281150411211945,-0.8567272106201229,0.4995473171759209,-5.293130874633789,-0.935109555721283,0.5122145414352417,train
34,0.16751346713412119,0.9268505453374427,0.8686683387601364,-1.275345237726493,0.9309220045090458,1.266783761684778,0.5211890625809892,-1.00893301291098,0.9512419350056026,-5.458331846714467,-0.8450362728246568,0.5014574406107191,-5.296842575073242,-0.9052214026451111,0.5199254751205444,train
35,0.15691637612518436,0.9271534819046703,0.8809125164104054,-1.2064458331687857,0.787791467197799,1.4263848442597384,0.8429218566722771,-1.4325991755059309,1.535719172489545,-5.476562139544419,-0.841511305701111,0.5031583432445564,-5.29825496673584,-0.883871853351593,0.5254004001617432,train
36,0.1468222566093037,0.9267619038837104,0.8944550188359552,-1.171680789857349,0.7098066601927735,1.5090992223459332,1.2122767277021116,-1.920037694421777,1.9045173897553247,-5.481308972042648,-0.8431002675531151,0.5048807652193887,-5.302131652832031,-0.8775417804718018,0.5267252922058105,train
37,0.1366838113626314,0.9263997075569043,0.9077488095818399,-1.187225897483369,0.7388053458634766,1.4587887708279859,1.2969459298039747,-2.0227331782705043,1.9045173897553247,-5.47355342411166,-0.8520960448692074,0.5064268788462805,-5.3053879737854,-0.8895402550697327,0.522993803024292,train
38,0.1262212153902658,0.9264048080485069,0.920081805245931,-1.2184394135400693,0.7942668312481477,1.3769631751520994,1.035126869882417,-1.6791301274719694,1.545897301781161,-5.457855539059343,-0.8649743081850385,0.5073996085541612,-5.305502414703369,-0.9101728200912476,0.5178303718566895,train
39,0.11500155192251656,0.9273768072150222,0.9301564570875845,-1.2928262154222323,0.9461470886977783,1.1735271788413577,0.5254824646030172,-1.0028407019765968,0.7140792201433956,-5.439158987468447,-0.8844290749451169,0.507547346284866,-5.299487113952637,-0.9418763518333435,0.5106055736541748,train
40,0.10336044171336904,0.9288553584069488,0.9390287075021235,-1.3168816564497443,0.9886650315259835,1.1138806234161,-0.005960528642926512,-0.29403471512965274,-0.1701657116584171,-5.431436023631253,-0.8964214349768709,0.5071718613516405,-5.294620513916016,-0.9635065197944641,0.5060787200927734,test
41,0.09156718777336696,0.9304814590347207,0.9474180215383305,-1.3264448083909297,1.0017146677295081,1.0832116225718351,-0.3438217950042879,0.15089770613526432,-0.705778201131539,-5.425950484629051,-0.9053078771696856,0.5074251049431157,-5.290726661682129,-0.9701135158538818,0.504806399345398,train
42,0.07961449060577391,0.9322758824323347,0.9552481051592844,-1.3412107629827867,1.027170474637793,1.036012054561773,-0.5127132529324697,0.3714986436043468,-0.9582799400530823,-5.420110406698032,-0.9123708702617211,0.5082808239188925,-5.2840118408203125,-0.9682777523994446,0.5050405263900757,train
43,0.06767053370436014,0.9340322495307812,0.9629151916673956,-1.3357399514541874,1.0126925132425675,1.0339153626522783,-0.531178630928486,0.39439687193254536,-0.9662662992752088,-5.415696690836776,-0.9190847387807688,0.5089401326930879,-5.2793145179748535,-0.96080482006073,0.5065139532089233,test
44,0.05540737969963039,0.9361577561314444,0.9696206399858218,-1.372789249120622,1.0815376493587021,0.9373262897503499,-0.568616556631895,0.4434314743462621,-1.0188936988503108,-5.398218100680959,-0.9301690620208608,0.5093904384429597,-5.270009994506836,-0.9592482447624207,0.5070699453353882,train
45,0.04256404726833969,0.9389819884173745,0.9746200577495432,-1.4258636785288707,1.1831161864853672,0.7942236893127536,-0.7377857665659046,0.663199349744606,-1.303418955014583,-5.377908570350982,-0.9393248847927096,0.5102311677677877,-5.257003307342529,-0.9668932557106018,0.5057847499847412,train
46,0.029427129166203936,0.9421058078154219,0.9789283738768295,-1.4423373062809717,1.205774046164824,0.7679101183649005,-0.9175463173081535,0.887845484679886,-1.5709410436515938,-5.369091110931692,-0.9464186639497256,0.5098534040614418,-5.250324249267578,-0.9723642468452454,0.5048279762268066,train
47,0.01623553019704292,0.9453100674652718,0.9828198025512107,-1.4434851976188325,1.2136620976336452,0.73377218398653,-0.9875873675919011,0.98200692471405,-1.6671217401404448,-5.363485944456187,-0.9582987597230614,0.5093619036580361,-5.249966621398926,-0.9778589010238647,0.5034523010253906,train
48,0.0024842849731552753,0.9491703430141865,0.985122021141696,-1.5052263790064064,1.325665829148026,0.5834731107078103,-1.0638109963581688,1.0855949391702922,-1.7653170745932973,-5.344728473140423,-0.9719940445157034,0.5083412425385354,-5.24358606338501,-0.9883365035057068,0.5013898611068726,train
49,-0.011391805259339999,0.953154358313128,0.9870022325210823,-1.5002260259103337,1.3130903307578699,0.5865670959392875,-1.1035661378981383,1.1355048794579492,-1.7653170745932973,-5.365938870500047,-0.9699044524402218,0.5083491034771067,-5.244843006134033,-0.9934346675872803,0.5005773305892944,test
50,-0.023030871409347453,0.9542944286683882,0.9946463363042749,-1.2537636632802545,0.8200102920274971,1.1685192592374503,-0.4890018949533655,0.34451003858234375,-0.727130121986619,-5.35480426326011,-0.962164869552352,0.5094374915172994,-5.28762149810791,-0.9631026983261108,0.5063563585281372,train
51,-0.039991635012886544,0.961946677295562,0.9883956901717272,-1.9192100573898359,2.1103671438503047,-0.4138401721279562,-1.1467323156231601,1.1535017420289277,-1.7653170745932973,-5.244663633112745,-1.0355197182982736,0.5044170698434396,-5.187382221221924,-1.026843547821045,0.49677762389183044,train
52,-0.05365823329696837,0.9655405982085538,0.9904912312244352,-1.350742228072493,1.0058472601499466,0.9120596762315949,-1.357431462168922,1.4184415635256382,-1.7653170745932973,-5.428157982145508,-0.960439984159749,0.5076001065091371,-5.250090599060059,-0.9966207146644592,0.5019280910491943,train
53,-0.06144420367963163,0.961884010023421,1.0075643095517555,-0.8720774087502025,0.07515805366047029,2.022961206974757,0.645912380295575,-1.1002637842913712,1.4969675093948058,-5.510707655437527,-0.9342085303718144,0.5079141108612582,-5.3312273025512695,-0.9079275727272034,0.5201518535614014,train
54,-0.0717714632312063,0.9612922962647494,1.0180138229512035,-1.2996799899202538,0.8921868292332328,1.0150380841474158,1.659617149160366,-2.0227331782705043,1.9045173897553247,-5.395240855171887,-0.9831782966396004,0.5092158574678461,-5.323089599609375,-0.9313717484474182,0.5123095512390137,train
55,-0.0835625475882512,0.9624889977938382,1.024528559754029,-1.3318299984307072,0.9581104333915105,0.9239524744952502,1.4924549560274414,-1.8842851963603027,1.8111245137241325,-5.403219835923715,-0.9921846135845956,0.5090329183397293,-5.315240859985352,-0.9601695537567139,0.5047718286514282,train
56,-0.09404039282423736,0.9620648131982691,1.034256459809454,-1.1764099172079323,0.6546371816669628,1.2766373227121388,0.9770990131479887,-1.2805163680543232,1.084304146506969,-5.5055321394708745,-0.9649778687679036,0.511477802924054,-5.329054355621338,-0.9831519722938538,0.5018519163131714,train
57,-0.098392143571721,0.9541700976094653,1.0593103905437145,-0.5443520845857186,-0.5599572377300638,2.7190836549206368,2.1330420187007992,-2.0227331782705043,1.9045173897553247,-5.640733765437777,-0.911394947204226,0.5164939578465955,-5.39215612411499,-0.9481205344200134,0.505215048789978,train
58,-0.10351136661786714,0.9471827344971133,1.0821446860398742,-0.8222815915949575,-0.03211496077999644,2.0556768417444156,2.524543754357709,-2.0227331782705043,1.9045173897553247,-5.423116885771322,-0.9837433633332096,0.517681702626275,-5.397341251373291,-0.97951740026474,0.4928831160068512,train
59,-0.12263827242928398,0.9571867978992088,1.0694831952506199,-2.2909432685862336,2.780535216912076,-1.3322392271620964,-0.6486513819082032,1.6534472544286671,-1.7653170745932973,-5.106009179215675,-1.1539101994593948,0.5060788437784434,-5.1401262283325195,-1.1503323316574097,0.4712007939815521,train
60,-0.1412948741112887,0.9666498090372649,1.0578289732108108,-1.7906900193998492,1.8278123126953552,-0.19866824228512825,-2.877655752103732,2.1499554447722327,-1.7653170745932973,-5.245201658066521,-1.101987090070032,0.5047319438339927,-5.151675701141357,-1.1007074117660522,0.49821653962135315,train
61,-0.15682141140665348,0.9723082989669709,1.0538662305390973,-1.596197567896559,1.4528355892274647,0.23399370572128686,-2.877655752103732,2.1499554447722327,-1.7653170745932973,-5.343116428644724,-1.0664903574858715,0.5062832757503839,-5.23008394241333,-1.0876922607421875,0.4904663860797882,train
62,-0.16669754016729463,0.9710671610421598,1.0640218493854838,-1.0291091212989543,0.3613899279000528,1.530081768706646,-0.9384166485466318,-0.015103937664437595,0.8186410303864282,-5.317420955158652,-1.0585001274914527,0.5056920075134866,-5.338785648345947,-0.9985836148262024,0.5018601417541504,train
63,-0.1901773451575595,0.9862777582830888,1.0395682433325508,-2.710310507469403,3.5707258997943963,-2.364999756550113,-1.6503123712678056,1.0502513718288593,-0.8545765750733592,-4.927507364219099,-1.2586561061675647,0.4911659487356364,-5.0741729736328125,-1.1157007217407227,0.4823695123195648,train
64,-0.2151538163076555,1.0033378306670309,1.0110651928121488,-2.3633718803048236,2.914596957146944,-1.588153666333767,-2.877655752103732,2.1499554447722327,-1.7653170745932973,-5.027563908807903,-1.2237759377716315,0.4857581373548696,-5.057577133178711,-1.1322627067565918,0.4897119700908661,train
65,-0.23701918575219957,1.016650165601237,0.990166223624068,-2.1242992511680203,2.4596515873231675,-1.0556830910221744,-2.877655752103732,2.1499554447722327,-1.7653170745932973,-5.153995667535815,-1.1794054918374983,0.4837449733990681,-5.1450300216674805,-1.1560132503509521,0.48096683621406555,test
66,-0.25116186400991114,1.0205404268422906,0.9887652417394569,-1.3411062186586613,0.9515334163103115,0.7541869850897812,-0.8860379241785666,-0.0758074751593106,0.903797007832203,-5.406132062222582,-1.06936838142061,0.4886927406566275,-5.322234630584717,-1.0685309171676636,0.4911005198955536,test
67,-0.25723169652010724,1.0145697999067755,1.0078316083810395,-0.6849251411309497,-0.3125115450604087,2.2729042796370975,2.524543754357709,-2.0227331782705043,1.9045173897553247,-5.555604416879826,-1.005264508686857,0.4930016622572166,-5.453946590423584,-1.0476328134536743,0.4810994565486908,train
68,-0.26287236372598094,1.008059128865301,1.027820505384095,-0.8375900305791937,-0.021913505258637837,1.903926571072397,2.524543754357709,-2.0227331782705043,1.9045173897553247,-5.483677028154466,-1.04633728812185,0.4928131281934624,-5.450069904327393,-1.0791486501693726,0.4700799882411957,train
69,-0.27245184398982436,1.0063038277122573,1.03766730936885,-1.2276902692279155,0.7205464669454951,0.9905898285956527,2.524543754357709,-2.0227331782705043,1.9045173897553247,-5.396983446231945,-1.0973413928214273,0.4918973226807992,-5.412271022796631,-1.096412181854248,0.4691786468029022,train
70,-0.2822437475625769,1.0048309638970614,1.0466698625502648,-1.1322281228087911,0.5438730708804476,1.1832797092841905,1.2805868350466358,-0.738212097147954,0.2776068620954496,-5.485694544677494,-1.073521685684122,0.4955395779393595,-5.397796154022217,-1.1460168361663818,0.4635043442249298,train
71,-0.2859814718330502,0.9960921457534485,1.0706016962681157,-0.49004819195450045,-0.6723939511201408,2.6344064553215705,1.703370600492189,-1.4420796856529328,1.2644223662630387,-5.516507652084553,-1.0539958184637508,0.4967780026645406,-5.440875053405762,-1.0712904930114746,0.47899338603019714,train
72,-0.30037161063498286,1.0001221188697118,1.0676368947653236,-1.867367703558024,1.9312706807112894,-0.5274710996515242,0.17718222506932654,0.2770560017124568,-0.9745285941240467,-5.1563414423203255,-1.2280998973019424,0.4872858339436685,-5.273519039154053,-1.178855538368225,0.46830031275749207,train
73,-0.3198280049280936,1.0102646058668034,1.0517433419468958,-2.0085283267697043,2.2051335468214672,-0.8723810472333546,-2.877655752103732,2.1499554447722327,-1.7653170745932973,-5.084003202156503,-1.2695600029803944,0.4801482244378766,-5.134122371673584,-1.1795252561569214,0.48541077971458435,test
74,-0.342754072340975,1.0246184073951061,1.0268212501013518,-2.350065167961154,2.8577004579067133,-1.6805638440305886,-2.877655752103732,2.1499554447722327,-1.7653170745932973,-4.951712693659463,-1.3378289800926089,0.4706018672793629,-5.110217571258545,-1.2022699117660522,0.47191473841667175,train
75,-0.3704407158135816,1.044833735268909,0.9891733572297683,-2.773545788837488,3.6832792265299377,-2.721663951857466,-2.877655752103732,2.1499554447722327,-1.7653170745932973,-4.925596944041078,-1.3684186608448397,0.4631132870647371,-5.070046424865723,-1.262353777885437,0.45408883690834045,train
76,-0.3907445223135648,1.0560828001296312,0.9701749122766393,-1.8262932145237,1.865069163745921,-0.5178443159946928,-2.5615600903033955,2.037971023461049,-1.7653170745932973,-5.174686608929336,-1.2566068617991988,0.4618722467372561,-5.234440326690674,-1.2362289428710938,0.4635971486568451,train
77,-0.4061309978791108,1.0613919117042976,0.963441040127563,-1.5699166018249284,1.3806130563627268,0.05123632083686429,0.34064740409017186,-1.3563708386622644,1.9045173897553247,-5.311972009072005,-1.206189041472146,0.4637081460882818,-5.365695476531982,-1.1633554697036743,0.4704589545726776,train
78,-0.41360727297401434,1.0571345185088075,0.9765912493716912,-0.7711567033223214,-0.14365953211406954,1.8889605342509492,2.524543754357709,-2.0227331782705043,1.9045173897553247,-5.500514818037148,-1.125058621172241,0.4673455044697102,-5.4821577072143555,-1.1384025812149048,0.4627275764942169,test
79,-0.4199780494235039,1.051488720721432,0.9925015585550213,-0.8922852830168883,0.07788580027162335,1.6085868908663863,2.524543754357709,-2.0227331782705043,1.9045173897553247,-5.516078559990595,-1.1306406571438044,0.4701014637719488,-5.47241735458374,-1.1537436246871948,0.45751258730888367,train
80,-0.4225882191849936,1.041326703749703,1.0176658940310623,-0.43831904860478554,-0.7790707278505117,2.6298042869837497,2.524543754357709,-2.0227331782705043,1.9045173897553247,-5.59350506823305,-1.1047697868984017,0.473339338886493,-5.480843544006348,-1.124251127243042,0.4610426723957062,test
81,-0.4280118417173903,1.0345957669075072,1.0353366241221333,-0.8888732513903664,0.08186228952246699,1.5611767768165628,2.524543754357709,-2.0227331782705043,1.9045173897553247,-5.448075996162086,-1.1822989290193124,0.4716910604297413,-5.453625679016113,-1.1445534229278564,0.4602750837802887,train
82,-0.43831199232407686,1.0337410113965175,1.0404953102262695,-1.2920173300231175,0.8465707414804474,0.6210741061750947,0.44909997751895847,0.3019393507773916,-1.1234450718158573,-5.361362565331573,-1.235397693467039,0.4695328581286366,-5.366147518157959,-1.2547205686569214,0.4479082524776459,test
83,-0.4485699642180924,1.0328805912474228,1.0454192464737673,-1.1643340730225131,0.612529883588859,0.8836119515454519,-1.2449132826564948,2.1499554447722327,-1.7653170745932973,-5.397527423170278,-1.2311173567257672,0.469451019622154,-5.350780487060547,-1.2415720224380493,0.4532628357410431,test
84,-0.4582938215867992,1.0313876326844065,1.0514488290451862,-1.1440690995607297,0.5732519781148411,0.9155185757766436,-1.964216026986038,2.1499554447722327,-1.7653170745932973,-5.410106168740921,-1.2360143903903065,0.4692357227983512,-5.343333721160889,-1.2118289470672607,0.4613130986690521,train
85,-0.4673439734403518,1.0291095095931087,1.0588838370172942,-1.0755725730185854,0.4480535560025053,1.0479746702025095,-1.550689165872622,1.680554785032824,-1.4418783250994165,-5.446557620701896,-1.2334473011916225,0.469755612389406,-5.363563060760498,-1.182616114616394,0.46118655800819397,test
86,-0.474692901567156,1.0248329868420076,1.070345061493348,-0.9078644354812748,0.13697004046115596,1.4148737372556113,-0.48188743536749346,0.4031476247931185,0.02720206807629198,-5.552236186542265,-1.2045355819372554,0.4733206372614523,-5.394559860229492,-1.1252708435058594,0.4705943763256073,test
87,-0.47616243176137196,1.013613968484917,1.0959929637126602,-0.30712374176277685,-0.9816801056648625,2.737937300426533,1.663840792034069,-2.0227331782705043,1.9045173897553247,-5.722674217233494,-1.1438974215047404,0.4802320786987537,-5.4415788650512695,-1.042391300201416,0.4872916042804718,test
88,-0.47511353895995256,0.9994294941526032,1.1275202499616508,-0.21119390352472583,-1.1593206580420252,2.9297978348333484,2.524543754357709,-2.0227331782705043,1.9045173897553247,-5.808020899917857,-1.1264629537493929,0.4875716871819541,-5.458351135253906,-1.0624163150787354,0.47254040837287903,test
89,-0.46924602271650007,0.9796450006541353,1.1703852381727307,0.29393665466437363,-2.084270553582687,4.017959576088993,2.524543754357709,-2.0227331782705043,1.9045173897553247,-5.593661355014935,-1.1989836768566586,0.4840038214364283,-5.445588111877441,-1.036495566368103,0.47110357880592346,test
90,-0.49486424809242724,0.9970021202867283,1.1357640632106691,-3.3509652004319688,4.6909811506799,-4.150960668154926,-2.877655752103732,2.1499554447722327,-1.7653170745932973,-4.745239915060047,-1.585356254926231,0.461010262351018,-4.8426361083984375,-1.2557172775268555,0.4551844894886017,train
91,-0.522286243552713,1.0165979490551793,1.09644620684713,-2.4394878711300656,3.0169541584045882,-2.1373288488800752,-2.877655752103732,2.1499554447722327,-1.7653170745932973,-5.076731148171617,-1.4695397612705858,0.4567002429286465,-5.016761779785156,-1.2619048357009888,0.46431395411491394,train
92,-0.5372056370479954,1.0214990770985624,1.0874694998106142,-1.331299968126868,0.9585082695285746,0.31815906541370786,-2.877655752103732,2.1499554447722327,-1.7653170745932973,-5.393576001144638,-1.3442821490037729,0.4599487355731989,-5.309744358062744,-1.2857662439346313,0.4545868933200836,test
93,-0.5456362209629336,1.0187302615564016,1.0941765027862778,-0.9497834458479831,0.24487126768469095,1.1564930429711493,0.19933049357379531,-1.3072604578758054,1.9045173897553247,-5.487246653304927,-1.3124910733819064,0.4611622139164276,-5.467901706695557,-1.231378197669983,0.45474371314048767,train
94,-0.5534365493217017,1.0152039801328154,1.1022261275143392,-0.9963007458091666,0.32994210453742767,1.0370101575057153,2.524543754357709,-2.0227331782705043,1.9045173897553247,-5.457645414562809,-1.3341428087203877,0.459914395572862,-5.527317523956299,-1.2552777528762817,0.43603047728538513,test
95,-0.5632027521832516,1.0140239723313957,1.1051417863785598,-1.2000614036035597,0.7141034510933156,0.5541453154336132,2.524543754357709,-2.0227331782705043,1.9045173897553247,-5.409670376049789,-1.3675708721737625,0.4577049051478574,-5.492258548736572,-1.2801300287246704,0.4340456426143646,train
96,-0.5733907583504603,1.0133713892326395,1.1067510299425263,-1.1846552043917433,0.689140281663685,0.5690919339750913,1.6573957342862946,-1.1984340130378417,0.8816342407353819,-5.393997571971943,-1.3858437892861244,0.4547746288215422,-5.463551998138428,-1.3012268543243408,0.4353581368923187,test
97,-0.585543653159373,1.0150775711707736,1.1032674086018845,-1.407188682198557,1.1090311856606943,0.049419725625513077,0.33565852874527674,0.23218232129991984,-0.9456459669509384,-5.354760653212419,-1.4165797929381494,0.451594010309785,-5.410058975219727,-1.3732727766036987,0.4315285384654999,train
98,-0.596748683520349,1.0157138213482013,1.1017801163743146,-1.2342458267146295,0.7941375644578637,0.4096699319761771,-0.3206407204352137,0.9004045206808307,-1.7653170745932973,-5.409141155808281,-1.406004743160369,0.4504821532663369,-5.418233871459961,-1.3886734247207642,0.43019160628318787,train
99,-0.606641738568376,1.014812919509647,1.1032344356641588,-1.1415343687516806,0.6213461785876745,0.5975094258827038,0.015625580468423134,0.38689391001652,-1.0524797368795944,-5.435560739884941,-1.4053180235815617,0.4494321328503251,-5.450464725494385,-1.3800643682479858,0.4298143684864044,train
100,-0.6161099340709241,1.0134506252715014,1.105429376672687,-1.1227142429909331,0.5933471382422371,0.6152406002200841,0.46886380914228926,-0.2487563160982082,-0.1877936172898608,-5.443896396193061,-1.4154460382686422,0.4476934511684637,-5.461395740509033,-1.3522343635559082,0.434177964925766,test
101,-0.6254890476162684,1.0120148963730524,1.1075786468218354,-1.1185808465654785,0.5890463888946521,0.6052464409218924,0.8135017920563784,-0.7345657469208908,0.4793993497026724,-5.4478152647280815,-1.4263487765394969,0.4459223218620691,-5.458063125610352,-1.3221629858016968,0.4398575723171234,train
102,-0.6348075277506023,1.0105424110496795,1.1095923124341711,-1.1131224043531276,0.583937355537673,0.5946010634754725,0.787547641674902,-0.7583355142352306,0.5351533622249028,-5.452414954690366,-1.4372177382036897,0.4442231530143143,-5.448673725128174,-1.3104826211929321,0.4424767792224884,train
103,-0.6440614780560088,1.0090259515109927,1.111475667182815,-1.1076355205224109,0.5778112462333928,0.5846904353412965,0.655676958710268,-0.6406728975463796,0.3988025338816351,-5.458164678482532,-1.4478313960491316,0.4424815954559202,-5.445270538330078,-1.3172260522842407,0.4415270984172821,test
104,-0.6531532012584345,1.00736729165812,1.1134650163234896,-1.0913258160342463,0.5548217002983569,0.598459242437508,0.5610348030729251,-0.5572426322150892,0.30616100840111454,-5.464235684168269,-1.458920346859066,0.4405711609663136,-5.4494242668151855,-1.3273555040359497,0.43950793147087097,train
105,-0.6623383826481326,1.0058487144667085,1.1149109903092433,-1.1066645436617932,0.5863253731375041,0.5393293322760047,0.4523509219128396,-0.45005206353608906,0.17285601183213783,-5.460741014281688,-1.471944254357896,0.4389361005386551,-5.451308250427246,-1.3425182104110718,0.43698111176490784,train
106,-0.6717390675066264,1.0046464721176143,1.1154720350777847,-1.1259001433847888,0.632152747516872,0.4678620672615493,0.2746383005271275,-0.24971544383823058,-0.09011303501673018,-5.457603747288677,-1.4874298578112657,0.4365612247581027,-5.449952602386475,-1.3629047870635986,0.43385860323905945,train
107,-0.6813556401305524,1.003718213211266,1.1152592765749216,-1.1439704393130585,0.6660950774983945,0.41138383873088524,0.06323483976965054,-0.00839571350761845,-0.40387815655234427,-5.455847791465649,-1.50137238372337,0.4339750098274706,-5.447110652923584,-1.3807951211929321,0.4310971200466156,train
108,-0.6909635470305477,1.0028470153819324,1.1146851056539853,-1.1374603540927417,0.6654596999449297,0.39206268311014814,-0.09109213155985113,0.1688830892574367,-0.6375125127439839,-5.464764650159276,-1.5123022971017217,0.4319626322830029,-5.448801040649414,-1.3968757390975952,0.42818179726600647,train
109,-0.7002440070339953,1.0016470229855143,1.1145902189218804,-1.1031363511948573,0.6081282968853422,0.44646109861842037,-0.07145760754089919,0.14574870352359928,-0.6030329032351758,-5.474753186244789,-1.5215942517917869,0.4295629962605957,-5.4589104652404785,-1.4059090614318848,0.4259274899959564,train
110,-0.7095938324497905,1.000564584113156,1.114056098261639,-1.1212983398454648,0.6461592468832331,0.3854841326705066,-0.023508326748373904,0.08326365258628511,-0.5116381607613492,-5.474855282996051,-1.5349781858087204,0.4270040364897653,-5.462976455688477,-1.415461778640747,0.42423322796821594,train
111,-0.7187956509754913,0.9993596037253236,1.113606046996594,-1.0993508991157506,0.6131411253036438,0.4125905553858289,0.01817549302567831,0.030377324239185398,-0.4268051487942611,-5.48740803774684,-1.544048212087817,0.4249473946108274,-5.468488693237305,-1.4223706722259521,0.42307135462760925,test
112,-0.7276434040310792,0.9978063400199623,1.1134801566135895,-1.0667869060141548,0.5623014987526826,0.43716244576057817,0.12363263749111228,-0.09548489516905767,-0.2771647980638607,-5.496141938670649,-1.5525041292117814,0.423631813055954,-5.478553771972656,-1.4305775165557861,0.42118802666664124,train
113,-0.736691143672892,0.9965299200187739,1.1126711793434523,-1.0988962961391837,0.6262068709339011,0.3606111072638384,0.129885841148444,-0.10204416709327482,-0.27677826194655547,-5.492552351818115,-1.5693301460827052,0.4199026754666878,-5.479798316955566,-1.4435909986495972,0.41911742091178894,train
114,-0.7456909299703929,0.9952418140747938,1.1117162403297667,-1.0837861270376599,0.6046822402680506,0.3691845907446397,0.09207413462127674,-0.05874250322418881,-0.3165801022624394,-5.5041227232536025,-1.5780118011132809,0.4177847665112043,-5.48373556137085,-1.4551383256912231,0.41708144545555115,test
115,-0.7542302686507524,0.9934634881403483,1.1115429845468632,-1.0373737217488002,0.525720846953652,0.4456764723308214,0.15759292048616752,-0.14022294702912597,-0.19917877862707742,-5.522899228372808,-1.584026434161489,0.415886737924035,-5.495456695556641,-1.4620567560195923,0.41523435711860657,train
116,-0.762358636796131,0.99125001003494,1.1120460015582396,-1.0059660229400056,0.4737083681350231,0.4908130357849556,0.31487907496799905,-0.33247356657925886,0.06299019033742877,-5.536109308280252,-1.5923205189722327,0.4138959691196878,-5.508218765258789,-1.4666122198104858,0.4137924015522003,train
117,-0.7702974373089729,0.988867380798745,1.1126843595132097,-0.9945293859118024,0.45999006008586946,0.4907827230998303,0.46855156675008525,-0.5174848112186543,0.3019942274648675,-5.127174767319669,-1.763327979923193,0.3988784405978545,-5.516988277435303,-1.4719536304473877,0.4125790297985077,train
118,-0.8189430599486541,1.0356153613907217,1.0100582895030825,-5.508057427389819,9.050553155119596,-9.95922185992759,-2.877655752103732,2.1499554447722327,-1.7653170745932973,-4.224658946971606,-2.220140780399638,0.3614423689688392,-4.9061665534973145,-1.6305431127548218,0.32347622513771057,train
119,-0.8551256279925752,1.0675864529632288,0.9381152983541013,-2.7544136246026407,3.852547897521886,-3.6647400067047387,-2.877655752103732,2.1499554447722327,-1.7653170745932973,-5.043205976596197,-1.859429350619516,0.359238837512024,-5.187816143035889,-1.6209874153137207,0.3617343604564667,train
120,-0.8689689111135791,1.0727054868731971,0.9224049058023752,-1.1161924911217977,0.7417728904089858,0.10371375867289373,0.4860816809823469,-1.6514458732646402,1.9045173897553247,-5.476005708785304,-1.6663606647752935,0.3622796996705303,-5.53803014755249,-1.5410116910934448,0.3943934738636017,train
121,-0.8758435502277332,1.069399409857419,0.9242017223066151,-0.8429250470691115,0.2167737826998216,0.7260339464097401,2.524543754357709,-2.0227331782705043,1.9045173897553247,-5.5361821345024245,-1.6465954725068366,0.3614446089313933,-5.6579742431640625,-1.562073826789856,0.38348814845085144,train
122,-0.8828923538737766,1.0663270153753974,0.9252590788545172,-0.9455678614161871,0.41752066837355645,0.4616547176510419,2.524543754357709,-2.0227331782705043,1.9045173897553247,-5.509707709832868,-1.671947200992732,0.358917917249561,-5.641247749328613,-1.5837308168411255,0.3814946115016937,train
123,-0.8906981142017386,1.0642385788162902,0.9239820174822738,-0.9981767770597156,0.5283408062127644,0.3060931770027934,2.524543754357709,-2.0227331782705043,1.9045173897553247,-5.4997500238981365,-1.6918248226395238,0.3559966907178725,-5.632280349731445,-1.5952808856964111,0.3804837167263031,train
124,-0.8988189894904207,1.0626092542163912,0.921553789427726,-1.0170635060785815,0.574815389953897,0.23707170234126698,1.8414340843472619,-1.385660261610765,1.1283309826765633,-5.500651732648682,-1.7076647545452266,0.3526041746673053,-5.624911785125732,-1.6376224756240845,0.37429800629615784,train
125,-0.9069291100729787,1.0610464295410802,0.9187805232323883,-1.0101080371717623,0.572264673882064,0.2232272942554433,1.1572371849058316,-0.6904887237052343,0.2679519408113177,-5.50816724362466,-1.7193953508502624,0.3496733596315474,-5.6200151443481445,-1.6757029294967651,0.3679393231868744,train
126,-0.9149140513476364,1.0594093911257734,0.9159400528855046,-0.9983762268844567,0.5602422595554812,0.22067914612088918,0.8389153927826319,-0.4143899723431022,-0.044085528867852386,-5.517489165226234,-1.7316919747064867,0.3464082195550416,-5.62488317489624,-1.6953390836715698,0.3640303313732147,train
127,-0.9227681327747272,1.0576907005818084,0.9130545148946246,-0.9874068047849782,0.5493664742383777,0.21692771013664602,0.6942210922555618,-0.330763160846675,-0.11089362399244655,-5.526064151763036,-1.7430324185402437,0.3433925969549494,-5.631027698516846,-1.7072476148605347,0.3616900146007538,test
128,-0.9304961907178653,1.0558968417111658,0.9101157004199069,-0.9767786367902779,0.539530801294863,0.21271219936251265,0.6147709905337064,-0.30932795571843463,-0.10571611894791122,-5.535257217379469,-1.7544754483502607,0.3403236355155121,-5.629694938659668,-1.7052208185195923,0.3621900975704193,train
129,-0.9380613640125907,1.0539885295413205,0.9072014586149201,-0.9619594004026792,0.5225088597017967,0.21651387746981282,0.5630904766611515,-0.3055983823092188,-0.08273620192887132,-5.549369441576132,-1.7628252519427836,0.3377376754749224,-5.625913619995117,-1.6965821981430054,0.3638167679309845,train
130,-0.9450553689749347,1.0514554707677155,0.9053968229870356,-0.9031664421096705,0.4185401436560785,0.3276342906477153,0.6326776211718591,-0.44256619906485317,0.1250188951052148,-5.571612022011665,-1.7676306435818616,0.3351590463297385,-5.635394096374512,-1.6946096420288086,0.3639049828052521,train
131,-0.9516709036000062,1.04853317979901,0.9042122738093689,-0.8791379601999167,0.38218341277156026,0.3565301943036487,0.7672087399011551,-0.6533033386691959,0.4297764817697734,-5.584124915421473,-1.7775558622370589,0.3324430589175524,-5.645589351654053,-1.696845531463623,0.36345580220222473,train
132,-0.9581684443233234,1.0455452292207,0.902962565496682,-0.8733830051124395,0.3817815566438711,0.3411625992138465,0.8203037906242328,-0.7536987729276681,0.5834863468941949,-5.592496263175244,-1.7899136663698048,0.3296486082073621,-5.65120267868042,-1.7029480934143066,0.3622489869594574,train
133,-0.9646018543561938,1.0425692219988831,0.9014726544910029,-0.8680251428273659,0.3839821626721228,0.32157775442432235,0.7718967059886538,-0.7165451966169705,0.5476651315109465,-5.600982679637369,-1.802308280594531,0.3269061677360187,-5.656126499176025,-1.7156579494476318,0.35931071639060974,train
134,-0.9709743075322388,1.0395976722357858,0.899734855943028,-0.8628974271767945,0.3840799705469183,0.30250062997903826,0.6514768783843039,-0.5826199879987447,0.3730014661439128,-5.609001926382677,-1.8140665113515104,0.324140103967293,-5.6621809005737305,-1.7332475185394287,0.35495588183403015,test
135,-0.9772675819403392,1.036607246924987,0.897870927450494,-0.8556813117991788,0.3807420999014687,0.2955832263306968,0.5376951360742591,-0.45510870010901777,0.21177201717920788,-5.616984402299119,-1.826336985474709,0.3208142565006954,-5.669896602630615,-1.7503950595855713,0.3505127727985382,train
136,-0.983518203384816,1.0336011721512166,0.8958989050590105,-0.8531517401499764,0.37901981581811395,0.2867742201154645,0.4422299672032647,-0.3594184899912339,0.10639937214658288,-5.548559606493646,-1.8746572707908864,0.3135949610957813,-5.677494049072266,-1.765032172203064,0.3467338979244232,test
137,-0.9972409598395011,1.0401028026707864,0.8735415075409836,-1.682093717383974,2.041218650618764,-1.7729228996686384,-1.5074028627685438,2.136993652995965,-1.7653170745932973,-5.400620844162715,-1.97489846672965,0.3050779114930088,-5.569044589996338,-1.8504326343536377,0.31770846247673035,train
138,-1.0084669149726497,1.043623646394118,0.8572483015351683,-1.1527235893112286,1.0137819629401752,-0.5313956628165594,-2.8264654754399228,2.1499554447722327,-1.7653170745932973,-5.558234980763921,-1.908393829778233,0.3027345306692141,-5.608902454376221,-1.8370896577835083,0.3236103057861328,train
139,-1.0154023011183073,1.041861894749353,0.8519417628187919,-0.8384619675684576,0.40347349624984113,0.2016123283495448,-1.6680394034537789,1.0190057310371405,-0.5478563109820572,-5.644449765316609,-1.8793209187937567,0.3004676884354986,-5.717310428619385,-1.8388787508010864,0.317806601524353,train
140,-1.02096615939157,1.0384570030037414,0.8499274140581097,-0.7822369743152479,0.30222554263979007,0.3112679893765968,0.06906264064959328,-0.9384137189453939,1.8504916965894007,-5.6634401892545725,-1.8855568228207769,0.2975702541645566,-5.761180877685547,-1.8066514730453491,0.33071884512901306,train
141,-1.0265044602248796,1.03510369698536,0.8476085748150746,-0.7965488352297013,0.34211181692075776,0.24707240587809884,1.4732008166538832,-2.0227331782705043,1.9045173897553247,-5.6666917738556055,-1.900957819932487,0.2943218366072412,-5.759648323059082,-1.798182487487793,0.337498277425766,test
142,-1.0321499377640349,1.0319795605093651,0.8446036549974879,-0.8040603155932704,0.3700008234978229,0.19726032354487308,1.5561289931044173,-2.0227331782705043,1.9045173897553247,-5.673046034767909,-1.9144545203207104,0.2913665933545332,-5.748394966125488,-1.8072983026504517,0.3376290500164032,train
143,-1.0377499109407813,1.0289236706881504,0.8411798017481112,-0.7967285502317877,0.37348534713297044,0.17009809386416752,1.2316833701208052,-1.5551112846020059,1.3594193247239115,-5.683387833181813,-1.9272500791269485,0.2881539394384477,-5.746885299682617,-1.8310452699661255,0.3318001329898834,train
144,-1.0432965307383018,1.0258697803727597,0.8376762100311936,-0.7930466829372737,0.3727614304599558,0.17033135394092894,0.9500626023040454,-1.155160863977273,0.9054540942993228,-5.691753188815015,-1.9401071411338808,0.2839564265868801,-5.754024982452393,-1.8553837537765503,0.324533611536026,train
145,-1.0487396757249132,1.0227752400256265,0.8340755732713326,-0.7826941825722826,0.36586749824731013,0.16046476407633856,0.7682967829544275,-0.8976472886487296,0.6396822257579022,-5.703004966350452,-1.951499957494009,0.2808716908817593,-5.766451835632324,-1.8763073682785034,0.31830108165740967,train
146,-1.0540604039037975,1.0196326612159332,0.830339885006582,-0.7722748861308493,0.3595573440638819,0.14984315204823387,0.6538864384638766,-0.7281586658608941,0.4635938496464903,-5.714638708916098,-1.9629518021570045,0.2777913942252799,-5.780101776123047,-1.8969026803970337,0.312105268239975,train
147,-1.059253748540101,1.0164395610511574,0.826453661068622,-0.7613247094526875,0.3526341155135504,0.13788664593694538,0.5746224215184104,-0.6042336626845307,0.3245330924403583,-5.718005649133384,-1.9786933428492024,0.2741837561394239,-5.7881622314453125,-1.9095784425735474,0.3081052601337433,train
148,-1.065185011639287,1.0143045145807505,0.8201282727272773,-0.846459769386997,0.5397129987789027,-0.10520086038020884,0.30544651172408877,-0.22758490238646423,-0.16926946039765428,-5.712612643480099,-2.000940445169745,0.2698948882616276,-5.785573959350586,-1.9346318244934082,0.30055931210517883,train
149,-1.070670002502541,1.0116987985677899,0.8146214856785606,-0.7710197890891078,0.4003534708633026,0.05174292918967013,0.1282000313644215,0.021668537638013425,-0.481661085538032,-5.749151054009785,-2.0002001928928794,0.2665813438469134,-5.800607204437256,-1.9504910707473755,0.29455557465553284,train
150,-1.074872568611835,1.0075540703840358,0.8122132101892959,-0.6518200255648128,0.1735223489859808,0.3173940794835096,0.4091936854519765,-0.337253207516949,0.03205938340675837,-5.783920327557519,-1.999010121384848,0.2637237736783859,-5.82924222946167,-1.949934482574463,0.2942963242530823,train
151,-1.0789707731345655,1.0033655274908426,0.809695386557479,-0.6766003798851804,0.23503790837987343,0.22536285618661964,0.7105556659848132,-0.729665094338429,0.5868819134463208,-5.785606273385413,-2.015786079240593,0.2604256789615453,-5.841527462005615,-1.952393651008606,0.2948068380355835,train
152,-1.083265611830683,0.999538425456447,0.8062238119101763,-0.6908344166787613,0.2794480707837555,0.15695732425650194,0.769416446700103,-0.8037373291324189,0.7038442389168971,-5.792540911534785,-2.0316369670263668,0.2568010645073871,-5.844945907592773,-1.9603551626205444,0.2931617498397827,train
153,-1.0875471114241408,0.9958086271344995,0.802359024656575,-0.6850066552389596,0.28289299703206333,0.13805727735379827,0.6234325548255135,-0.6038242944830865,0.4477676760854616,-5.8048823392576026,-2.0439729946510146,0.2533512191713516,-5.8505988121032715,-1.977028727531433,0.2879583537578583,train
154,-1.0916639723574717,0.9919777151367508,0.7985067259983792,-0.6685252736966856,0.2641438736487486,0.14511134065420855,0.4602971194605999,-0.38066044240537994,0.15484320577790273,-5.819030290001549,-2.054620205207287,0.2500227266371004,-5.862215995788574,-1.9965709447860718,0.28143489360809326,train
155,-1.0956343543791487,0.9880712475321803,0.7946736039185248,-0.6573029117128002,0.25660425122266145,0.14492725405431942,0.4105308062669695,-0.3063866705273968,0.06942014604142682,-5.833652905896266,-2.0662285395713567,0.2466827343452311,-5.876583576202393,-2.0120556354522705,0.27623239159584045,train
156,-1.0993975458281229,0.9840489755673993,0.7907273029846255,-0.6377605186353128,0.23873652983503418,0.13357472413428137,0.4180034536504333,-0.29966530215825327,0.04700192487387712,-5.848252894496771,-2.0761275724749813,0.2440359953806276,-5.892974853515625,-2.028071641921997,0.27124154567718506,train
157,-1.1030964203560394,0.9799854374901139,0.7868335521317991,-0.6365878777010472,0.23696035335661322,0.14236783087486315,0.4109443940080865,-0.2932516371710627,0.043688008227091624,-5.856939374141631,-2.0883701361577547,0.2393846614347507,-5.905134201049805,-2.0402579307556152,0.26740792393684387,train
158,-1.1066693133934522,0.9758593629351009,0.7829344274030164,-0.6229750610892129,0.22655792005465908,0.1391624204885438,0.38419387282617856,-0.2724125269126237,0.04653237616243019,-5.872301261499931,-2.100048766651537,0.2360384415497372,-5.915745735168457,-2.051057815551758,0.2640630304813385,test
159,-1.1100749949084527,0.9716473345737265,0.7789969694776502,-0.6085814583659545,0.2146816628770242,0.13629375720609985,0.3745080818564687,-0.2608168480313636,0.043845210824312454,-5.887692997148176,-2.111383854051847,0.2327591623967081,-5.927468776702881,-2.062593936920166,0.2603849172592163,train
160,-1.1133235522998368,0.9673507662003953,0.7750373048719587,-0.5955449243234434,0.20350354467408888,0.13495176323243824,0.37363286517771377,-0.2545880774815937,0.041865336617716194,-5.902378775976048,-2.122907819161111,0.2292988292466543,-5.940521717071533,-2.075103998184204,0.25640028715133667,train
161,-1.1164386195387512,0.9630024801014515,0.7710087257782762,-0.5847149534302939,0.1978521036684044,0.12841727537782846,0.3791103435298682,-0.24845919344493028,0.02656837726258299,-5.917636987791067,-2.1359387160134773,0.2253833264377659,-5.9532084465026855,-2.0875322818756104,0.2524542808532715,train
162,-1.1194060415479308,0.9585706437730428,0.7670069661026246,-0.5716083778029629,0.18470153583398033,0.13314682461001576,0.3790138590903778,-0.24246091680370846,0.02260882019322476,-5.932047963151208,-2.1467023131223715,0.2219129180388494,-5.965906620025635,-2.099196434020996,0.248733788728714,train
163,-1.122221949643319,0.9540406305978649,0.7629783066338974,-0.5588010109545422,0.17152539837191244,0.1290115929947558,0.3794530624501574,-0.24552316599442217,0.025208368789810587,-5.946150609444096,-2.156964395976837,0.2187990662380048,-5.979097366333008,-2.1112260818481445,0.24497416615486145,test
164,-1.124911600612513,0.9494635443555292,0.7588951881237387,-0.5487039204588762,0.16729242184420914,0.12479125243421181,0.3753576428364268,-0.24190238414042328,0.01973983781806201,-5.9608765217709365,-2.169681008212885,0.2149314976972703,-5.991842746734619,-2.1231000423431396,0.24119210243225098,test
165,-1.127499149651445,0.9448681550582568,0.7546701159333933,-0.5404553534663414,0.1653586488208791,0.11174139008881602,0.3607170656650448,-0.2216214436071417,-0.00415179426264511,-5.975514972664268,-2.18121604851092,0.211554225344954,-6.004611015319824,-2.135540008544922,0.2372186779975891,test
166,-1.1299201575211741,0.9401880460005771,0.7504073583245237,-0.524499594621191,0.1511090271979231,0.1119394455612481,0.3536501478537423,-0.2053044712034203,-0.03049205626076082,-5.98627716964508,-2.1947534347670867,0.2078427651586446,-6.018682956695557,-2.148287773132324,0.23309943079948425,train
167,-1.1327541399913903,0.9361455644081279,0.7446928469236627,-0.5751338339946763,0.2668906021207411,-0.03497875942753667,0.21759411001042195,-0.019951097958272233,-0.2694945497250411,-5.989879252715707,-2.212317397838398,0.2034463911652508,-6.025677680969238,-2.16593337059021,0.2272116243839264,train
168,-1.1351917711077975,0.9316950202925606,0.7396708165217221,-0.5157462509220608,0.16018919050492458,0.079900310702003,0.1466381620884778,0.07212190729422543,-0.3807140480866021,-6.032190318039602,-2.2086418179131013,0.2011117759140109,-6.043389320373535,-2.1783597469329834,0.22250637412071228,train
169,-1.1357036333338248,0.9248089394032623,0.739617726100368,-0.32036126656866676,-0.2331315518846655,0.5476075653472227,0.6234912418983969,-0.5771392176744906,0.49900106836337876,-6.085017025808337,-2.1977084696076865,0.1991326581786903,-6.078797340393066,-2.1683104038238525,0.22579070925712585,train
170,-1.1361996395554266,0.9180101503718111,0.7392056389877278,-0.37819478269156526,-0.09785854108550875,0.3687242800028717,1.066565135482199,-1.1821716687081556,1.3162735417647649,-6.082245042485549,-2.220702891781334,0.1957335264063235,-6.086786270141602,-2.1620125770568848,0.230055570602417,train
171,-1.1371756428066342,0.911965040214424,0.7370607232409822,-0.413755989897341,-0.0073849890097443084,0.24797259173582054,1.0480705931460235,-1.1562210286771912,1.284795041339262,-6.087687613198113,-2.239030776527492,0.192291995313755,-6.085272789001465,-2.1695213317871094,0.2287103235721588,train
172,-1.1382202644947357,0.9061247875739956,0.7342411107306367,-0.4105050902180108,0.0007951472676547589,0.21655637549020262,0.7802326155875696,-0.7921203677925149,0.7894719745747757,-6.101525977564284,-2.251899845897157,0.1892040616487117,-6.092137813568115,-2.1911208629608154,0.22161847352981567,train
173,-1.1392641967675772,0.9004062466273494,0.7309928709266276,-0.4113784092724749,0.019310358155649552,0.18279870602668788,0.4534516752586291,-0.3459200297310705,0.17946926928812987,-6.117439983106933,-2.264859345938558,0.1856340147211084,-6.1067728996276855,-2.2179830074310303,0.21213379502296448,train
174,-1.1400456111828048,0.8944593081570102,0.7280967228386959,-0.3819997966772942,-0.026308907763996334,0.22873539996568304,0.3577682462626271,-0.2122190174209874,0.003006410429310485,-6.143697316029322,-2.271025987189026,0.1826169907898071,-6.12827205657959,-2.2351391315460205,0.20562589168548584,train
175,-1.1400872552237895,0.8876145727181356,0.7269342362127519,-0.3089405112610962,-0.1694006285857016,0.39014596178628097,0.5148738980694247,-0.43213595513265113,0.3058761350522669,-6.175429132840975,-2.2721200880541157,0.1802881056289745,-6.153787612915039,-2.240656852722168,0.20371517539024353,train
176,-1.139705715402316,0.8803229319379576,0.7265424717073001,-0.2843030607113291,-0.20390005062483138,0.41893484904549677,0.7419753397735885,-0.7487061897578713,0.7388783031182515,-6.210214916692558,-2.2750396076728983,0.178332441580959,-6.170741081237793,-2.242901086807251,0.20379826426506042,train
177,-1.1377859234082444,0.871058638606772,0.7302280868952298,-0.12126916522032015,-0.5383407483921403,0.8226739004485739,1.2026103293858526,-1.3901524608147078,1.615772362758625,-6.256550286969912,-2.2688626561378,0.1765740847712457,-6.193919658660889,-2.225464344024658,0.20852741599082947,train
178,-1.1360331522604659,0.8621239246421474,0.7330065876397777,-0.18951912771402823,-0.37864598886721607,0.6078457421636841,1.458545757363866,-1.7517573099382664,1.9045173897553247,-6.246980374926142,-2.295936443528288,0.1740012496443344,-6.194731712341309,-2.224965810775757,0.2107512652873993,train
179,-1.1355270945660683,0.8549885315431606,0.7317703170153956,-0.3068994774824533,-0.11279795002512377,0.26719275899778916,1.0320932558333558,-1.1648786695317668,1.1456563384074583,-6.231065916257306,-2.3277057018226643,0.1702269918902624,-6.189333915710449,-2.256959915161133,0.20261287689208984,train
180,-1.1358212689604565,0.8490495069902306,0.7278716255947831,-0.35979424340999555,0.015212073930257985,0.10171362750127605,0.3073441408194074,-0.16308214853424835,-0.17335156253130873,-6.232891599371532,-2.3487923317984465,0.166056621211052,-6.195191383361816,-2.29874587059021,0.18734407424926758,train
181,-1.1362882830801853,0.8434588939660871,0.7231080628647135,-0.3628108763298446,0.037026467402204714,0.0646896399830689,-0.3131343533562728,0.6969905321987352,-1.2988323143206968,-6.245090739287106,-2.3635787611175623,0.1619635569417883,-6.2154741287231445,-2.331937074661255,0.17274793982505798,train
182,-1.136880105030932,0.8381772384750042,0.7175555618589532,-0.37571560594419,0.08435660720417473,-0.0038172111028410534,-0.5747247386216153,1.0668300661468373,-1.7613896543434866,-6.262265124752374,-2.376615366857457,0.1581364425161549,-6.238603591918945,-2.353665351867676,0.16291943192481995,train
183,-1.136931647733709,0.8322868011962302,0.7130985621733822,-0.31187442964613776,-0.036581543670846504,0.12793572573651757,-0.4614561356776688,0.9184266335487512,-1.540521114216598,-6.306399265196701,-2.3711751623215087,0.1560957657469761,-6.269491195678711,-2.36415958404541,0.15897032618522644,test
184,-1.1350817252777574,0.823903709799204,0.713733109047964,-0.1205364494170626,-0.43557761293287056,0.6029043787974803,0.20615886297136238,-0.012871552095358842,-0.2809508479637429,-6.366803660610594,-2.355398421737638,0.1547466806557779,-6.31130838394165,-2.3540568351745605,0.1636122763156891,train
185,-1.1324164145256663,0.814505288024481,0.7163579523515798,-0.08849883275080472,-0.49134586555235965,0.6594631224040928,0.9725737564021046,-1.0918990537578084,1.1764936940281105,-6.374628533502264,-2.3725313368622323,0.1516563137353324,-6.325369358062744,-2.3338282108306885,0.1728161871433258,train
186,-1.1313539015954837,0.8074015075797604,0.7140198446085709,-0.27595636018358544,-0.07308699645440189,0.1401269680502805,0.9305321804998977,-1.042605910895668,1.1253827845266986,-6.3473149883420845,-2.4127931929221407,0.1471644978470818,-6.303375244140625,-2.3411107063293457,0.1746932566165924,train
187,-1.1309711313401607,0.8013719289135007,0.7092577948626482,-0.29411490519461114,-0.012981504460202605,0.05326622810127496,0.3247602442270832,-0.1919883847062143,-0.0012935045091472743,-6.367335023089532,-2.4249039328818625,0.1438387665089753,-6.301344871520996,-2.371320962905884,0.16433697938919067,train
188,-1.1297805786365243,0.7943617420386452,0.7063784754699196,-0.19901387213553137,-0.20284924243335162,0.27026418552620035,-0.007442534135401907,0.28237431830738524,-0.6345022822538116,-6.402228966519699,-2.423947127025875,0.141175975141856,-6.330973148345947,-2.3946805000305176,0.15417581796646118,train
189,-1.1283870121187547,0.7871338769049951,0.7038114323925032,-0.20550716419916176,-0.18297700280973475,0.23570188135505316,0.013085389203566911,0.2448910821858628,-0.5826912833218186,-6.411904106622478,-2.4384938242618044,0.1375751885481076,-6.356613636016846,-2.4088428020477295,0.14900052547454834,train
190,-1.1273447520959379,0.7805624692659453,0.6997575972830415,-0.24246346152475695,-0.07428291225615984,0.09584319880350972,0.06321986284568878,0.17760152317569067,-0.4812674552309888,-6.42169080139549,-2.460619413249534,0.1332273312885495,-6.370237827301025,-2.4199471473693848,0.14583420753479004,train
191,-1.126524662234469,0.7744240032640122,0.6945784499786289,-0.25580410334097614,-0.03180745205429613,0.024660603211215736,-0.04680469818028692,0.3447612287858265,-0.7025671900530542,-6.432107501366255,-2.474692750327696,0.1296364436999507,-6.3827009201049805,-2.434666395187378,0.14110741019248962,test
192,-1.1258342673668171,0.7685942013205181,0.688669410075996,-0.26610460904880906,0.009168881626927944,-0.027458776551901078,-0.23065985811516174,0.6137110234731735,-1.054120908963529,-6.4514237723079,-2.4872289884066783,0.125309288168446,-6.395470142364502,-2.450737953186035,0.13511881232261658,train
193,-1.1245425313596829,0.7620315671618163,0.6841492729798622,-0.196287639097091,-0.1315347961762397,0.1289779437352211,-0.16934801431062962,0.5292944405148946,-0.9300100242038554,-6.4797623467058285,-2.489722343646777,0.122167337451463,-6.421385765075684,-2.459766387939453,0.13159248232841492,train
194,-1.1231900543789626,0.7555046886647633,0.6794170445718133,-0.21083969170767716,-0.08235403028407243,0.0598337650355546,-0.006865030594091026,0.2910400905354395,-0.6055253527359448,-6.477957654421461,-2.5144595979870736,0.1171053573077972,-6.438812255859375,-2.4675064086914062,0.13013216853141785,train
195,-1.1235490693419445,0.7515236333414671,0.6691742466557635,-0.39611044065474615,0.3477808571072799,-0.47661304832140533,-0.3597554441913357,0.8042528571100326,-1.2866970487085818,-6.464363191769632,-2.547490287906588,0.1118758188713855,-6.428560733795166,-2.4901387691497803,0.12335905432701111,train
196,-1.1231393141264125,0.7465699922452564,0.6608452479713497,-0.254383872826173,0.04633321395331904,-0.1193349071222006,-0.5824815230633743,1.1258442177622447,-1.7172097796611658,-6.5186697355731065,-2.533042896012344,0.1088529659360597,-6.45622444152832,-2.5032196044921875,0.11639085412025452,train
197,-1.1211791208796296,0.7395710405814566,0.6566455329386198,-0.12571604819350607,-0.21934181586861917,0.18950862462860846,-0.16828392695542618,0.5302621339251572,-0.9215713553707817,-6.560750850565141,-2.5297504532839405,0.1058103646546746,-6.500546455383301,-2.507059097290039,0.11558330059051514,train
198,-1.1191671422997298,0.7326325660693029,0.6521787424235332,-0.15920896015009625,-0.12767633991684904,0.06831814937016852,0.29718552963600686,-0.1356532443063629,-0.03307382729553034,-6.57686022446557,-2.5442239014103976,0.1021636316636685,-6.520181655883789,-2.508211612701416,0.11813881993293762,train
199,-1.1165523575962732,0.72495985017819,0.6491430965396667,-0.08215396582527294,-0.28411413965806526,0.2500932770089008,0.7093018150492059,-0.7297043646181662,0.767931715611774,-6.60889065383557,-2.5467182386633698,0.0989656141463829,-6.5386271476745605,-2.500739336013794,0.12139418721199036,train
200,-1.1138595056947056,0.717282068943654,0.6459896948405633,-0.09699365066300278,-0.23726296714739661,0.1827609773302988,0.8267895613804582,-0.9044595476314685,1.0102163830953528,-6.6215636868659455,-2.5615367617453195,0.0954401523942399,-6.5474443435668945,-2.5046377182006836,0.1221228539943695,train
201,-1.1112929387052344,0.7098944292644737,0.6420907208257471,-0.1064565349211712,-0.2008681204964702,0.12788011623108914,0.6901341648012245,-0.7165729867929713,0.7665373691792282,-6.637229443276442,-2.575295592266832,0.0918151770883358,-6.557466983795166,-2.5194408893585205,0.11859789490699768,train
202,-1.1086857496302924,0.7025751532394195,0.6379212410787091,-0.0990556724985877,-0.20006665146749886,0.11726863132025464,0.5546281201268191,-0.525551462413501,0.5160725378631191,-6.658885700257196,-2.585328658558656,0.0884141211191173,-6.574345588684082,-2.5360047817230225,0.11327770352363586,train
203,-1.105741805296183,0.6948788657006447,0.6343725945088553,-0.06396818286589159,-0.2662888780303212,0.18333854098522603,0.4740171706942961,-0.41529015838041367,0.3653065326485068,-6.685413668442201,-2.590475621586664,0.0854888526878265,-6.599477767944336,-2.551602840423584,0.10792490839958191,test
204,-1.1024136716414454,0.6867564011868375,0.6316331957482585,-0.032070116675772205,-0.32063186523856096,0.24508368888040036,0.5391690779289019,-0.5156160940051472,0.5027720759741723,-6.711447354357355,-2.599694725416186,0.0818675899285995,-6.624626159667969,-2.5615906715393066,0.10424336791038513,train
205,-1.09894858825913,0.6785571403205882,0.6289357243245892,-0.026605727614276937,-0.3175078531273399,0.2305118482036216,0.6022648523655258,-0.609760234472312,0.6383805661381998,-6.729973720589715,-2.611560023134071,0.0785805608886849,-6.643441200256348,-2.5702505111694336,0.10177600383758545,test
206,-1.0955156116264706,0.6705063106215966,0.6258065660503765,-0.03182159184693644,-0.2925417577007351,0.1912957120195355,0.5638919244814898,-0.5592524560679846,0.5785900587539051,-6.746638401704565,-2.6247775688837285,0.0751289192863143,-6.660346031188965,-2.5828938484191895,0.0982600748538971,train
207,-1.0921029342217543,0.6626248361369538,0.6221632804557252,-0.032469326510701446,-0.2705912130507886,0.1512620770889833,0.4447834795857518,-0.38320276553830346,0.3446134020183049,-6.765650220254459,-2.6384429343994915,0.0716429837002364,-6.67907190322876,-2.599947690963745,0.09316962957382202,train
208,-1.088711480394027,0.6548988594288354,0.618069298173342,-0.034612429475878975,-0.25014275578438216,0.11788945142627132,0.30797898651331296,-0.17749272370261646,0.06558256211707372,-6.782400042697421,-2.651537621432852,0.0679310995244446,-6.697446823120117,-2.616696357727051,0.08769205212593079,train
209,-1.0853892040369417,0.6473779264435856,0.6134032302433422,-0.041616610347473555,-0.22057005433883767,0.07020282982967868,0.18089815901157433,0.008591784099508845,-0.1855999822622193,-6.798361587163405,-2.664215541495377,0.0643210843544056,-6.7162017822265625,-2.632899284362793,0.082222580909729,train
210,-1.0820611048641458,0.6399690272383017,0.6083806037362535,-0.038824438494701345,-0.2100482529416326,0.048690165109973454,0.0866085724261633,0.14526528345141512,-0.36900607564432797,-6.817591142245431,-2.676719839929026,0.060381520794423,-6.735662460327148,-2.647219657897949,0.07716882228851318,train
211,-1.0786949508970178,0.6326313260709882,0.6030935773069913,-0.0354458325937857,-0.20085219884150654,0.02851756886536727,0.03283613427389996,0.2232554755214486,-0.46831160881830497,-6.836894289391727,-2.6889822385223834,0.0564332787707414,-6.755043029785156,-2.660001754760742,0.07274967432022095,train
212,-1.0752881516719346,0.6253587127934255,0.597549822741088,-0.031958946378477085,-0.19232018430260941,0.008712528031420039,0.008524959552724887,0.2606876775428584,-0.5135020225545378,-6.856816535400236,-2.7002709144795896,0.0525133456836619,-6.774079322814941,-2.6717700958251953,0.06884847581386566,train
213,-1.0717268788484693,0.6179666763298715,0.5921679888263441,-0.015887060082364148,-0.2158537765075365,0.031149819070068398,0.029903518001866837,0.22669114231175713,-0.4580407016121658,-6.910169129485189,-2.689200988228851,0.0510220267793816,-6.794223785400391,-2.6813912391662598,0.06555292010307312,train
214,-1.0643558926045409,0.6050738407720837,0.5981872976804352,0.4016291261147328,-1.1708723883409156,1.177808276509071,0.9891438431247227,-1.2288269801280411,1.489380970583183,-7.098059663359103,-2.5868748939171216,0.0592766106402946,-6.866366386413574,-2.649044990539551,0.06606185436248779,test
215,-1.0465114271824791,0.5768549837620023,0.6360037399356357,1.4359868180374415,-3.560360037758428,4.044527725848078,2.524543754357709,-2.0227331782705043,1.9045173897553247,-7.316037178177273,-2.45955370114576,0.0694203847367669,-7.0863189697265625,-2.6411426067352295,0.04392606019973755,train
216,-1.02795930044788,0.5476623445945011,0.6756274281283082,1.198274092432637,-3.0000698371543524,3.3539704411508464,2.524543754357709,-2.0227331782705043,1.9045173897553247,-7.234244451310154,-2.550979996294763,0.0680327772619179,-7.160795211791992,-2.686943292617798,0.03795650601387024,train
217,-1.017814535040041,0.5308971945270501,0.6892035640997702,0.3384488456186505,-0.9973270322727288,0.9294887616375405,2.0441618956137337,-1.6401473639417243,1.505082222624365,-7.062429190985896,-2.705973146576801,0.0616273700566463,-7.00191593170166,-2.7103123664855957,0.054245248436927795,train
218,-1.0133706493699377,0.5226616574188955,0.6850318203057421,-0.03099936828507172,-0.11760572477303659,-0.12715109568286562,-1.489627290424945,2.1499554447722327,-1.7653170745932973,-7.008014345833356,-2.776907125727205,0.0550602378719466,-6.877266883850098,-2.781937837600708,0.04666207730770111,train
219,-1.0104077742410655,0.5167238220613064,0.675956419063364,-0.08245212250135864,0.01542618828438097,-0.3010418730117204,-2.877655752103732,2.1499554447722327,-1.7653170745932973,-7.016980716234401,-2.793201086778818,0.0508054513321457,-6.868035316467285,-2.7837421894073486,0.026811078190803528,test
220,-1.0072464303483348,0.5106203742229989,0.6670589398393713,-0.04474697634667461,-0.054228104912140904,-0.22997069813196802,-2.877655752103732,2.1499554447722327,-1.7653170745932973,-7.045261941820022,-2.798249203136806,0.0467245853415184,-6.94295597076416,-2.805833339691162,0.013229817152023315,train
221,-1.0036402624609355,0.5039908811139003,0.6591210679057626,-0.00692092872811955,-0.12500539908918182,-0.1545352158233841,-2.654957053947679,2.1499554447722327,-1.7653170745932973,-7.072317259744466,-2.80466494385718,0.042516342675972,-7.007789134979248,-2.831725597381592,0.006044209003448486,test
222,-0.9997969007005515,0.49713519183998034,0.6515417820832748,0.00784924297798361,-0.14299063418084185,-0.14124708532376923,-1.972319795954975,1.547338071893916,-1.2213092752873609,-7.094387764287107,-2.8146475682191947,0.0381766412314845,-7.022915840148926,-2.82694149017334,0.009567737579345703,train
223,-0.9958439278306698,0.4902392183153129,0.6439402607605563,0.015506911553918283,-0.14458632042282366,-0.14753452971309952,-1.4194840901880856,1.0552137555338847,-0.7636102893859683,-7.115216770447839,-2.825515299123244,0.0338121401812254,-6.996778964996338,-2.8053336143493652,0.020436525344848633,train
224,-0.9917897150307331,0.4833148393134613,0.6362911277290617,0.024405913447536384,-0.14911222551639575,-0.15041818878397276,-1.0498209151245077,0.7690990666515874,-0.5350216092706845,-7.136951062071195,-2.8357917644175017,0.0295002876072116,-6.997989177703857,-2.802323818206787,0.02400493621826172,train
225,-0.9875625828997755,0.47625450180288914,0.6288166184525784,0.04087314626412632,-0.17155667227500257,-0.13185356168257403,-0.7747150570323514,0.5700165321884256,-0.39072860540956006,-7.160546036216183,-2.8452969831654387,0.0252254008659729,-7.027360916137695,-2.8155035972595215,0.020921915769577026,train
226,-0.9831554446381441,0.4690642399538131,0.6215080421798397,0.05581780051835004,-0.18746944151091893,-0.12070941419509378,-0.5378021571628012,0.3887899501875935,-0.2458860615493742,-7.18410302593666,-2.855679388166112,0.0208992762238817,-7.053386688232422,-2.8256874084472656,0.018167436122894287,train
227,-0.9786229207740385,0.4618013477138753,0.6142436545636392,0.06517197253128874,-0.1953600131036471,-0.11962377925609623,-0.3475674622361412,0.24153140803038423,-0.12687243771246554,-7.205590052390337,-2.865540095479695,0.0167773386043028,-7.070016384124756,-2.8315529823303223,0.016856133937835693,train
228,-0.9739587778752112,0.45447302227074066,0.6069807337161001,0.07692171652112155,-0.2044411069774616,-0.11978701224380608,-0.20372929727678554,0.13597806796733553,-0.05252807870786568,-7.085220150928004,-2.979521115422684,0.0040669652786388,-7.08597993850708,-2.8379390239715576,0.015311196446418762,train
229,-0.9882387984368629,0.47630065196895627,0.5387923407045162,-2.0252708830080275,4.896905261290948,-6.286498426547246,-2.877655752103732,2.1499554447722327,-1.7653170745932973,-6.777725447994652,-3.259582800710175,-0.0213262057539432,-6.7479248046875,-2.8687658309936523,0.007229417562484741,train
230,-0.9976626641941481,0.4910028804742745,0.4853417390600291,-0.8482235681557181,2.0939859594032515,-2.9106565622341605,-2.877655752103732,2.1499554447722327,-1.7653170745932973,-7.067928829507974,-3.042118859730865,-0.0257626816214149,-6.8588175773620605,-2.85646390914917,-0.004405796527862549,test
231,-0.9945454478715272,0.48653281631546863,0.47194002921257466,0.18379827922310144,-0.4039865423294781,0.1108839284838071,-0.7670508214083258,-0.605176802395698,1.6733116732197546,-7.309985167297111,-2.863943198136737,-0.0221251103767117,-7.144112586975098,-2.849242925643921,-0.0052451491355896,train
232,-0.9838006029126024,0.47038422072210784,0.4827608030377109,0.7150428782497271,-1.6839708746946556,1.6395273608939316,2.524543754357709,-2.0227331782705043,1.9045173897553247,-7.438790841611486,-2.7871033345967478,-0.0179113571953412,-7.316838264465332,-2.8397998809814453,-0.008278965950012207,train
233,-0.9707378066437502,0.4507031061375258,0.500804063946845,0.80993010283672,-1.9107231735068766,1.904091652283649,2.524543754357709,-2.0227331782705043,1.9045173897553247,-7.500321552529717,-2.7719446035862925,-0.0145301467426747,-7.379197597503662,-2.8551223278045654,-0.00877581536769867,train
234,-0.9552860800940894,0.4274102131318868,0.5261991949591659,1.0459687695929174,-2.473447891542577,2.567156879028304,2.524543754357709,-2.0227331782705043,1.9045173897553247,-7.539164557210717,-2.773657632513692,-0.0134885471051324,-7.446109294891357,-2.8671135902404785,-0.019848480820655823,train
235,-0.9434610279245123,0.40981108378764813,0.5396440873617298,0.5715404297308806,-1.3050393943875105,1.1562127634415158,2.5220742136374112,-2.0227331782705043,1.9045173897553247,-7.466061342868765,-2.8687314732527347,-0.0174905074591074,-7.394940376281738,-2.8883233070373535,-0.01444968581199646,train
236,-0.9347224325162673,0.397032681789939,0.5430425983845406,0.3742297150561737,-0.8190246752751166,0.5699132434487375,0.5817135426215331,0.6697582901886749,-1.5162724783434756,-7.450157271114882,-2.9127748722916023,-0.0208411986438438,-7.344751834869385,-2.9623589515686035,-0.014820665121078491,train
237,-0.9269735088693166,0.38598503158857045,0.5426217918223375,0.3247386921909598,-0.6648866196229792,0.36231416952643064,-1.1416488092876618,2.1499554447722327,-1.7653170745932973,-7.461662051535863,-2.9409867237597656,-0.0241002884404385,-7.346927642822266,-2.9902782440185547,-0.03576156497001648,train
238,-0.9203593193402002,0.3768516653630848,0.5380906417966888,0.21403983140792704,-0.37714980092169065,0.009760739788511554,-2.3358050233854666,2.1499554447722327,-1.7653170745932973,-7.438867857284179,-2.9881128308053246,-0.0303983933801466,-7.352485656738281,-3.002034902572632,-0.04792937636375427,train
239,-0.9172938094044799,0.37337440760450463,0.5217931789535853,-0.14558534367254158,0.5243650377490144,-1.0733077492466678,-2.877655752103732,2.1499554447722327,-1.7653170745932973,-7.4044273132492995,-3.047562241614514,-0.0382301220537492,-7.312359809875488,-3.0206186771392822,-0.04893051087856293,test
240,-0.9137552735228092,0.36929366644986245,0.5066894835918053,0.016519885414290118,0.14319399500077104,-0.6220251903077139,-2.877655752103732,2.1499554447722327,-1.7653170745932973,-7.469748182668107,-3.019703389816963,-0.041798986791738,-7.380145072937012,-3.039699077606201,-0.06176617741584778,train
241,-0.9071966935598678,0.36055808664099953,0.5010790566249728,0.3019361173498968,-0.5547567437408332,0.20086742134042485,-2.0830493223415365,1.4060443598456422,-1.0133253276292333,-7.550478614272795,-2.9762266501391603,-0.042548190803166,-7.489203453063965,-3.0478110313415527,-0.07136625051498413,test
242,-0.8982604661585685,0.34819922877969156,0.502886590881698,0.4785215535079934,-0.9753713490648412,0.7003912026439925,-0.38725966433917475,-0.8980283131658179,1.8347755661953784,-7.564297033746655,-2.9934953807592906,-0.0475268279019316,-7.5586090087890625,-3.0083115100860596,-0.0677344873547554,train
243,-0.894385929332587,0.34396520325079777,0.4877791669681801,-0.1365560006318139,0.5747516021686093,-1.163509201590407,-0.30868630327411306,-0.6610488909677391,1.3759412558321873,-7.491697090532585,-3.091086393463313,-0.0561307596984579,-7.469869613647461,-3.029843330383301,-0.04487036168575287,train
244,-0.8903706737694046,0.33962908323772223,0.4728321947519635,0.0666512589334389,0.08293527948886585,-0.5785875028793291,-1.1782501459199384,1.032869257304547,-0.9666358281899443,-7.534663603735867,-3.0781976960151045,-0.0617154818601394,-7.459217071533203,-3.0568714141845703,-0.05243924260139465,train
245,-0.8870796473499244,0.33661420589040425,0.45498099066028047,-0.07557003038243826,0.464386793032439,-1.0509490512737876,-1.7934639218848514,2.1499554447722327,-1.7653170745932973,-7.563846359359798,-3.0867172278549644,-0.0662163073592723,-7.44440221786499,-3.081501007080078,-0.06032055616378784,train
246,-0.8795723682907608,0.32698180004911825,0.4507957562200498,0.43525806156425445,-0.8101273539941365,0.47600784130613166,-1.0375233408555975,1.1224397133469701,-0.6436174145081716,-7.59685223190577,-3.076920322664224,-0.0726792432977912,-7.581068992614746,-3.0749826431274414,-0.0808199942111969,train
247,-0.88102227160904,0.3319669337196357,0.41609442554884596,-0.7133024416250161,2.1368498936095106,-3.078057817280957,-1.8124223734358862,2.1499554447722327,-1.7653170745932973,-7.525276432725571,-3.1958324535932165,-0.0821639861316671,-7.4215922355651855,-3.1195130348205566,-0.05949999392032623,train
248,-0.8717147023353469,0.3196679906640659,0.41732692117983966,0.8292818135470348,-1.7881011833454155,1.6428389377103996,-0.9042309221788223,0.8760909981097333,-0.30869488034560777,-7.687366041628495,-3.042879634820429,-0.0836145172224509,-7.705996513366699,-3.0853614807128906,-0.1097768247127533,train
249,-0.8733397687531401,0.3253367364794554,0.38090622185407397,-0.8528701429420821,2.555488106096232,-3.6080223472764454,-1.344105622624588,1.8288105821458,-1.7653170745932973,-7.495070249817955,-3.2840767417583447,-0.1002538639324929,-7.518111228942871,-3.1660640239715576,-0.07248988747596741,train
250,-0.8710033803215854,0.3246805595608524,0.35772486142445703,0.09870219081211141,0.12125712165779082,-0.6654261848095804,-2.4616978500703173,2.1499554447722327,-1.7653170745932973,-7.707643284768218,-3.0952967566279805,-0.0983414041238888,-7.606324195861816,-3.147923469543457,-0.10133811831474304,train
251,-0.8591244507516753,0.3084587098540174,0.36694196789806055,0.8670066400265504,-1.8586670980090885,1.7143363830596139,0.8724261793640438,-2.0227331782705043,1.9045173897553247,-7.838975394123558,-2.986458505203476,-0.0947698587192873,-7.771231174468994,-3.054868221282959,-0.1119343712925911,train
252,-0.8467706156694841,0.29154571154905806,0.3774454626481314,0.6850621196696924,-1.3739007166748698,1.118781396976815,2.524543754357709,-2.0227331782705043,1.9045173897553247,-7.8285380060018195,-3.037860106956192,-0.097248386086728,-7.807419300079346,-3.0649240016937256,-0.09340814501047134,train
253,-0.8363502893609537,0.27789718926047696,0.38105391626617946,0.5262281801534858,-0.95100240981002,0.6027861676293873,2.524543754357709,-2.0227331782705043,1.9045173897553247,-7.816048988967042,-3.0876252832920383,-0.1014468268187782,-7.776911735534668,-3.0689423084259033,-0.08785489201545715,train
254,-0.8282840361747674,0.2682436986539352,0.3762965683347056,0.31369653403061865,-0.381304472890521,-0.08629079985348531,1.4276831686119162,-0.5878569566978613,0.1466255950724998,-7.804161783496787,-3.139531063033981,-0.1071174488238104,-7.724025249481201,-3.115128993988037,-0.07976353168487549,train
255,-0.8213948547438542,0.2606682185447747,0.36711425265030256,0.24806488996004078,-0.19199813531418103,-0.3238260685443064,-0.31342558739619536,2.031137976830877,-1.7653170745932973,-7.822192090977666,-3.156733651058369,-0.1114911329368932,-7.70362663269043,-3.1680805683135986,-0.08706514537334442,train
256,-0.8137972100681363,0.2520286810790319,0.3600458494195112,0.34665222363673165,-0.436159811365706,-0.03745127284677115,-0.9395071831419366,2.1499554447722327,-1.7653170745932973,-7.854980591002543,-3.153136145202032,-0.1151879097070143,-7.7444376945495605,-3.177222728729248,-0.10676953196525574,train
257,-0.8063307840589743,0.2436999750518249,0.35225546010469505,0.3020299883885109,-0.3071138704588804,-0.19786258714566066,-0.9406215162492214,2.077726383158521,-1.7653170745932973,-7.876926567724172,-3.165148302228228,-0.1192014331546533,-7.781562805175781,-3.1910176277160645,-0.11375493556261063,train
258,-0.7979041508467989,0.2338839560079739,0.3474871719646917,0.4221273910255608,-0.6069233616447497,0.15687053807624854,-0.5214726747393466,1.3025025654618048,-0.9472783917779347,-7.915926902624998,-3.1590360478778114,-0.1224706932186946,-7.842003345489502,-3.192621946334839,-0.121967613697052,train
259,-0.7894812998526496,0.22420847866093319,0.34232926188737245,0.38506615200322075,-0.49064175663144627,0.00924922467836498,-0.12161452114706946,0.579349137804187,-0.15590716480014305,-7.930814862701054,-3.180877927886771,-0.1269517038214336,-7.891897201538086,-3.202549695968628,-0.1250171661376953,train
260,-0.7817135953847558,0.21572719981360744,0.33466693976823086,0.32374052786690943,-0.3172580986360305,-0.19912252116588194,-0.17544384411242045,0.6400432355563243,-0.35941190693269864,-7.941983440126098,-3.2033000016412174,-0.1319806144192144,-7.912121772766113,-3.2194833755493164,-0.1262504756450653,train
261,-0.7742944716284824,0.207932265414389,0.32548128194891063,0.3038127302887939,-0.2502381536697627,-0.28968387343456964,-0.37480696693438004,0.9520870075777209,-0.8714023046091628,-7.962430689146589,-3.215647334132348,-0.1362428598238817,-7.892560005187988,-3.22469425201416,-0.12473249435424805,train
262,-0.7666509390605941,0.19990715568519313,0.31663733765274915,0.33478357062260294,-0.31106301676329295,-0.22745972380878618,-0.5115645418286432,1.1693339250177242,-1.2528585334248596,-7.990885145858032,-3.2218285323332143,-0.1404836460463355,-7.89990234375,-3.231475591659546,-0.12875638902187347,train
263,-0.7588128527638842,0.19166372620362557,0.30818308741483413,0.3469152670638327,-0.3307015746235967,-0.20700501850355074,-0.4266541491641394,1.0105635093067402,-1.117982482029723,-8.014241809260882,-3.2303867465329863,-0.1450020699438762,-7.916239261627197,-3.234128475189209,-0.13245806097984314,train
264,-0.7508905560411823,0.18338038966159048,0.299754162381585,0.3525587980302619,-0.33171430555264875,-0.2106753249948163,-0.2762050965517878,0.7370306064929102,-0.810091109999431,-8.037008346220203,-3.2402919431158224,-0.1494747376614625,-7.937787055969238,-3.237529754638672,-0.1349858045578003,train
265,-0.7429236074439842,0.17513069460391006,0.2911834772773916,0.35579591831951096,-0.32555393983963465,-0.22389076403514072,-0.16822594333189342,0.5362248155169408,-0.5815647106788773,-8.059860201469686,-3.249890288002129,-0.1538946344820633,-7.962238788604736,-3.2442355155944824,-0.13774394989013672,train
266,-0.7348290574719818,0.16675350351055152,0.2828214483390359,0.36896502789436814,-0.3497938591649938,-0.198740150385635,-0.10330739550772053,0.4040885490148864,-0.432303966753932,-8.084394695021325,-3.256965948955843,-0.1582132104425569,-7.988252639770508,-3.251774549484253,-0.14142072200775146,train
267,-0.726478253009273,0.15805681677273717,0.275071258128525,0.39336802756125194,-0.3983244027825454,-0.14449466769942818,-0.005508027286624729,0.2206155102560978,-0.2087684980616684,-8.112118617280347,-3.264051382526828,-0.1624547840873702,-8.018288612365723,-3.258441209793091,-0.14606162905693054,train
268,-0.7179363340431338,0.14916073572477404,0.26761258352419776,0.40712415411991976,-0.4184236385871264,-0.1315329529277525,0.10617078412372143,0.023137441835767415,0.02762113269204035,-8.135750701971165,-3.2734662060011503,-0.1664651348948685,-8.046278953552246,-3.265216827392578,-0.14992880821228027,train
269,-0.7095091806328246,0.14056248313317515,0.25948139369689205,0.3902068053745466,-0.3601695816839826,-0.20353011750634795,0.12733995370783338,-0.016157606780316865,0.058857940011989955,-8.148210510135073,-3.2949072506029937,-0.1718270824463951,-8.06719970703125,-3.275280475616455,-0.15273919701576233,train
270,-0.7023525884557695,0.1342920330509639,0.24643920038257158,0.2544969388286959,0.02942718443850296,-0.6784940328524318,-0.23603574623197807,0.6297320804407217,-0.8081680555969732,-8.159003942459577,-3.325108944848592,-0.1777869774575112,-8.058404922485352,-3.3010847568511963,-0.1514773964881897,train
271,-0.6946411917714453,0.12718149937624665,0.23509660228674625,0.3574196627641659,-0.23688232892860764,-0.3615854653439616,-0.47199167313043283,1.0498693454701005,-1.3707877734772915,-8.199177281065403,-3.3119261816997336,-0.1817401603047424,-8.08444595336914,-3.3116965293884277,-0.1615796685218811,train
272,-0.6856801269543452,0.11799901131937715,0.22796588881124308,0.46460369986108824,-0.5181171267176334,-0.03208540124396598,-0.15000836182008245,0.4711508755314889,-0.6121587090140861,-8.236815183077866,-3.300567782687176,-0.1847739356272499,-8.134664535522461,-3.3077921867370605,-0.17117583751678467,test
273,-0.6760217260565125,0.10769091545466031,0.2231357587934948,0.5092314657436032,-0.6290982739246915,0.10017838994180922,0.3831769356302162,-0.49035374746559207,0.6544444163453212,-8.272466166906892,-3.2970884441731743,-0.1877141844036841,-8.178701400756836,-3.2968976497650146,-0.1751842200756073,train
274,-0.6651395199388516,0.09533618593289632,0.22245976791222127,0.6313507036742423,-0.9534790450108231,0.4801603264628794,1.0498587854902635,-1.6976997209979887,1.9045173897553247,-8.302582098714709,-3.294563922550425,-0.1902533973586571,-8.222623825073242,-3.27248477935791,-0.18028992414474487,train
275,-0.655375042181652,0.0850353858630811,0.21744756370914795,0.4701021001895083,-0.4945950719364552,-0.07447830525167004,1.073631177793813,-1.7521104392668834,1.9045173897553247,-8.31006884170848,-3.332330995821772,-0.1950035252042611,-8.231382369995117,-3.2890591621398926,-0.1762111485004425,test
276,-0.6456313701703843,0.07488135464083398,0.2120889354712152,0.517034514698441,-0.6094434875245034,0.059662293643388736,0.7104911727566594,-1.1070527146823976,1.134542131619026,-8.342232694942208,-3.3331419014964023,-0.1984609440943199,-8.26534366607666,-3.3213603496551514,-0.18205130100250244,train
277,-0.6353587812728837,0.06388915715841577,0.20841407313832933,0.5613772314332707,-0.721062619823273,0.18911643884588397,0.5656692327954621,-0.85427897138383,0.867145607157645,-8.37150552238087,-3.3350792241392164,-0.2015225680690658,-8.30379581451416,-3.3402109146118164,-0.1916618049144745,train
278,-0.6248491980705718,0.052562665443760793,0.2053617847433091,0.5741323466490295,-0.745452460404716,0.2126289319626502,0.5192867194093951,-0.7831495919253093,0.8269393097667966,-8.39856616401695,-3.341133199386343,-0.2043865843559813,-8.331931114196777,-3.3498430252075195,-0.19750967621803284,train
279,-0.6139698182761142,0.0406754538302536,0.20335928001800863,0.6112633292017486,-0.8362078929397315,0.31168766878978854,0.6579573821646589,-1.0453667504986774,1.205184440557979,-8.402008812988642,-3.3711644480497056,-0.2091640825495546,-8.359208106994629,-3.348846197128296,-0.20300760865211487,train
280,-0.6073630280468825,0.03650738683574293,0.18529979386100412,0.12615505486451575,0.5430182307960574,-1.3433401993742127,-0.3923273494034138,0.8697387125107959,-1.2925525274750653,-8.388913019553598,-3.45315891053028,-0.2179234749066024,-8.284039497375488,-3.412777900695801,-0.18601065874099731,train
281,-0.5989714499666363,0.02932143802473977,0.1734957197367317,0.47204085477957636,-0.4076057761509508,-0.20531846650409055,-1.1066662578957687,2.1499554447722327,-1.7653170745932973,-8.455672574092803,-3.3949493904287955,-0.2204302331792564,-8.352824211120605,-3.4253134727478027,-0.2165382206439972,test
282,-0.58849884968544,0.018447388992227642,0.16924741926621534,0.5973366324529823,-0.7623946164074576,0.2119629159698829,-0.5229805376057526,1.081981892105324,-0.5676801915413161,-8.486549704562075,-3.379671704055164,-0.222382433768841,-8.452919960021973,-3.4259097576141357,-0.23286011815071106,test
283,-0.5778717751829221,0.0073919177472068194,0.16525720235019403,0.5762165507176206,-0.685500060151437,0.11080001865588371,0.15127059203297138,-0.1647088440661533,0.8970863623828913,-8.50912556817779,-3.3961509185876477,-0.2260985603495767,-8.503581047058105,-3.4178268909454346,-0.23490563035011292,train
284,-0.5674482570576609,-0.003190495439394417,0.16025697901207156,0.5600948858522939,-0.6262358050015722,0.03946717511730682,0.6465156251376204,-1.073522350260359,1.9045173897553247,-8.530929009879564,-3.4114556508645792,-0.2302710277144268,-8.519594192504883,-3.4048831462860107,-0.23339179158210754,train
285,-0.5572272418385442,-0.013319301258963518,0.1542370283520639,0.5425668880200304,-0.5650100077673323,-0.04194654325741763,0.4814922019091259,-0.7738397217115167,1.4079520479340983,-8.548806179359536,-3.427926976675965,-0.2343258333112903,-8.548787117004395,-3.4299843311309814,-0.2346506416797638,test
286,-0.5476176610434099,-0.022234828525800294,0.14564810146128365,0.480108873488497,-0.37131556462581805,-0.27704953133447824,0.09139308072803305,-0.04830020711875399,0.37315439242085846,-8.575984586922061,-3.441090083027349,-0.2387100507198756,-8.562308311462402,-3.462655782699585,-0.23848482966423035,train
287,-0.5365019501289479,-0.03378195158487075,0.14252047740349877,0.6662364183353372,-0.8915047286395426,0.3472742964147073,0.18750613522062773,-0.2280118924586538,0.5599497576840842,-8.610708066705557,-3.4265535478217606,-0.2419257446927739,-8.599449157714844,-3.45481014251709,-0.25062695145606995,train
288,-0.5263000737191678,-0.04360209918861699,0.13582004016515142,0.5080468383125084,-0.42972131356152077,-0.20468850537577388,0.22616683990795625,-0.30684336433249787,0.6359357536405696,-8.613691477445354,-3.471322380770104,-0.2473996036325095,-8.585829734802246,-3.459810256958008,-0.2451290488243103,train
289,-0.5174197045875222,-0.05085662598612722,0.12359279517598078,0.40979644518236025,-0.12196734311500534,-0.5955402363874084,-0.2588814934818493,0.6075543389183256,-0.6173221152088009,-8.628403630093944,-3.500127189756803,-0.2524624231030727,-8.556763648986816,-3.483807325363159,-0.2398204207420349,train
290,-0.508804380861134,-0.057498268594423425,0.11001717946911356,0.4103885310053163,-0.10891062858537023,-0.6127241743934391,-0.7169508584325094,1.4836494834885563,-1.7653170745932973,-8.669692001070365,-3.4891777651580744,-0.2565162292870325,-8.555571556091309,-3.499647855758667,-0.2464675009250641,train
291,-0.4965834376353649,-0.07067140759988598,0.10996340794225111,0.8101587419954587,-1.2568373695997763,0.7607205184955054,-0.10880047248581803,0.3409750539469434,-0.3082765744777515,-8.721771797784447,-3.432657265573216,-0.2571750937756349,-8.651646614074707,-3.4718244075775146,-0.27034252882003784,train
292,-0.48468417916772144,-0.08321424761650176,0.1085400949948831,0.6523776584268365,-0.7946839728751921,0.20321100750565319,0.7584682278118828,-1.305747522698099,1.8327394018885086,-8.722335200697387,-3.4810911943208267,-0.2618066667691885,-8.667731285095215,-3.449286937713623,-0.2641233503818512,train
293,-0.47480449463420005,-0.09193092414251412,0.09919535009308939,0.4765701975301026,-0.2661929413366389,-0.428280640364971,0.543666978897773,-0.9149164253873049,1.3153576245819794,-8.73142751887274,-3.527936279425284,-0.2681867292051559,-8.673640251159668,-3.480992555618286,-0.2577676773071289,train
294,-0.4656215874111061,-0.09921667854787403,0.08681066769252622,0.4529724755422508,-0.1775580101555013,-0.5432307596384267,-0.14947180640384577,0.40136120027707134,-0.4275401309889832,-8.753016921568957,-3.543854857456022,-0.2735126244700326,-8.683013916015625,-3.525620698928833,-0.2618076205253601,train
295,-0.45654802633881697,-0.10615989709082263,0.07364908081888635,0.4480491967030694,-0.1447173265136398,-0.5867669762506575,-0.8155304222315617,1.6812454244561477,-1.7653170745932973,-8.77467497933975,-3.554712852590156,-0.2789605414045088,-8.678169250488281,-3.545510768890381,-0.2688251733779907,train
296,-0.44743272099078485,-0.11313302946808912,0.06051247044346716,0.45418764988306765,-0.16006372335792265,-0.5709587087131637,-0.9402151111054485,1.920937714833993,-1.7653170745932973,-8.793467365721831,-3.559948654875832,-0.2838205167871376,-8.687482833862305,-3.5467770099639893,-0.2762085795402527,train
297,-0.43817333131118097,-0.12025699294662202,0.04759956887027671,0.46829283717588494,-0.18175669781746295,-0.5531345858430853,-0.7727244883459489,1.5967169805203827,-1.493556128088292,-8.815982325841912,-3.570747128509241,-0.2892051111630427,-8.699915885925293,-3.5468974113464355,-0.27806875109672546,train
298,-0.42928903507699917,-0.1265557800469979,0.03293971869298496,0.42239224684898713,-0.030567680372395312,-0.7353502728734673,-0.7006644652252473,1.464427317363446,-1.4393985482510991,-8.838997927146117,-3.585162158533465,-0.2950108629489985,-8.71113109588623,-3.5552220344543457,-0.2780800759792328,train
299,-0.41967033211869365,-0.1340925554534383,0.020720186846325227,0.5178505418414419,-0.29375405091775403,-0.43279569104500804,-0.4978009070502488,1.0884966516203858,-1.0496057930351452,-8.870124249758163,-3.5757108186013893,-0.2991636826341356,-8.758917808532715,-3.5579466819763184,-0.287119597196579,train
300,-0.409582493549152,-0.14242144856447198,0.010161035777823279,0.5407506272583337,-0.3518096385356896,-0.35710009952995797,-0.14862087489159034,0.42849352852529315,-0.2554297419844629,-8.888081825770072,-3.5895415315097816,-0.3048487342020493,-8.819499969482422,-3.5617029666900635,-0.29557499289512634,test
301,-0.4007077467150969,-0.14834167204045332,-0.005444297095517701,0.3992295801335916,0.08788467350949704,-0.8908304904255354,-0.23182954665819622,0.5958042333135758,-0.5246289366391909,-8.9016643364098,-3.623659407737172,-0.3113122473825046,-8.815348625183105,-3.5795111656188965,-0.29088565707206726,train
302,-0.39169584427183024,-0.1544224745754756,-0.020826400968318375,0.4576251922665929,-0.07502906196101171,-0.7053732427985314,-0.40721395764496354,0.9363631043512791,-1.0272583462908658,-8.927993859571586,-3.620012497965683,-0.3163006168911281,-8.820444107055664,-3.587162494659424,-0.29482895135879517,train
303,-0.3822680038579247,-0.16109765952003868,-0.0349961086658573,0.4859281369307393,-0.1290985939034708,-0.6392691948799923,-0.3928240382269886,0.925227530866516,-1.0505952412766402,-8.961706115335128,-3.621931888279781,-0.3221559859709209,-8.836692810058594,-3.591287136077881,-0.29922470450401306,train
304,-0.371684990017362,-0.16994954100047563,-0.04465979603954549,0.6054302856364298,-0.4939322409066576,-0.20348062456870608,-0.014585643859456284,0.18646788526664754,-0.10041781972727855,-8.987389860915119,-3.600646851171075,-0.3249746590274167,-8.879462242126465,-3.5795602798461914,-0.3075157701969147,train
305,-0.3603385569700812,-0.18020236782774546,-0.051474172687381,0.6536317929446148,-0.627483038803904,-0.048117780577387206,0.5911290851285478,-1.0267726164530373,1.4832147345943243,-9.011728892693268,-3.603930735994096,-0.3286739060291089,-8.921398162841797,-3.561678886413574,-0.31195688247680664,train
306,-0.34934592599296044,-0.18965907923384875,-0.06004100133525059,0.5996676758833851,-0.44704974144457643,-0.27283127915532157,0.7779514899476284,-1.408268794107965,1.9045173897553247,-9.025615485106131,-3.6345435881055215,-0.3339208294485851,-8.962618827819824,-3.573049545288086,-0.31498318910598755,train
307,-0.3400467574628509,-0.19573175437476564,-0.07568085443124943,0.428322319565855,0.09049433922199496,-0.9200113575385495,0.26382773311272584,-0.39715323661133567,0.5592986814526858,-9.04190123748928,-3.6754880058151063,-0.3411200976000422,-8.992998123168945,-3.628530502319336,-0.3183057904243469,train
308,-0.3304595251491953,-0.20220376703564627,-0.0905215763621477,0.5125536255324779,-0.14421902126663524,-0.6416627037255859,-0.27804904714605483,0.692819799193191,-0.8826544391137998,-9.073337737864062,-3.6657866629542375,-0.3461561683237484,-9.026323318481445,-3.6562559604644775,-0.33069658279418945,test
309,-0.3199805061858411,-0.21032388948831884,-0.10199555530147589,0.5857704625284301,-0.3610338911109203,-0.3859103673624332,-0.25498177462673266,0.6527081867218668,-0.8303131612582533,-9.099273379522538,-3.655529622576749,-0.3499607709575508,-9.044487953186035,-3.6506409645080566,-0.33804085850715637,train
310,-0.30878342628969074,-0.21975785781771612,-0.11079700965495912,0.6430722098785705,-0.5247200591796626,-0.1935068661458871,0.13172785965968364,-0.1274260499322934,0.19949582461721302,-9.124275651120364,-3.6540310757117576,-0.3539066216893295,-9.056707382202148,-3.6330251693725586,-0.3392837345600128,train
311,-0.2975380623870867,-0.2292110266987096,-0.11957510571167693,0.6309325259143119,-0.47786101325089914,-0.24984297413250445,0.4936297470375876,-0.8650989159846321,1.1776932639074065,-9.146119381283672,-3.6662117866297166,-0.3585224010712782,-9.080361366271973,-3.6261343955993652,-0.3406899571418762,train
312,-0.2863269187584075,-0.23849393376819117,-0.12874898012975977,0.6308434185995875,-0.4623753784609512,-0.27270031055621874,0.528911623194959,-0.9506598778596235,1.2969688845857519,-9.169725220153806,-3.676456275091852,-0.3630165774209456,-9.125658988952637,-3.6413989067077637,-0.3468562662601471,train
313,-0.2751121617308985,-0.24769205508417286,-0.1381541751969661,0.6312740365570352,-0.4522635059877421,-0.2891314506417491,0.42545705303856535,-0.7501991158515708,1.0341212599857568,-9.19185192332847,-3.685400794177987,-0.3673483478970384,-9.184346199035645,-3.6662583351135254,-0.35777395963668823,train
314,-0.26388132122831476,-0.25683131964246964,-0.14775140769030787,0.6329279171657386,-0.44503947936012256,-0.3035464396989867,0.29641255830692653,-0.49816686939598087,0.6969824259181341,-9.214430853630583,-3.6941371040005246,-0.3717092208058513,-9.224258422851562,-3.6851401329040527,-0.36598655581474304,test
315,-0.2526073666434198,-0.26595932696740143,-0.15741091042322286,0.6372042815656542,-0.445245284365998,-0.3054473228729647,0.2178149260516856,-0.34433386620620615,0.48923855266893024,-9.236641453250446,-3.705321928396775,-0.3764966368948786,-9.22994613647461,-3.6911349296569824,-0.3679641783237457,train
316,-0.24162706464660164,-0.2743964865149241,-0.16852748541024373,0.6033215746086344,-0.3240736205793481,-0.45230789989250947,0.08161624793555071,-0.0688731075972633,0.1293806781111822,-9.260303331697456,-3.719718562917774,-0.3816903054707675,-9.223301887512207,-3.699028253555298,-0.36710500717163086,train
317,-0.2302547010033938,-0.2835417366380671,-0.17819438420275951,0.6571624269141463,-0.4853376459218898,-0.26081003641612255,0.04816535854906348,-0.007575514772059844,0.05674228437232715,-9.282979032538783,-3.717537002531397,-0.3855466233567866,-9.240774154663086,-3.7010130882263184,-0.37206754088401794,train
318,-0.21884902024359618,-0.2926312607477519,-0.18810902633480794,0.644417754332084,-0.42606653198442285,-0.3442911199613799,0.08444617551344262,-0.08297120220968844,0.1489005419436392,-9.305852870368572,-3.731713410965378,-0.3899940092331721,-9.2640962600708,-3.708016872406006,-0.3760927617549896,train
319,-0.20770238513863698,-0.3010821554266406,-0.19941535922402076,0.6195702887013642,-0.33227928776259724,-0.45964488084479244,0.01642494247591868,0.06576980737268084,-0.06310158916484193,-9.324313336272215,-3.753485081213988,-0.3955668801393527,-9.293108940124512,-3.7224783897399902,-0.3814852237701416,train
320,-0.19765275592698844,-0.30722316091188395,-0.21554409001576866,0.5054740949338831,0.043797095304267106,-0.9124495523826869,-0.3293883295503521,0.786693458059641,-1.0189180521677634,-9.344999644261469,-3.783791738844868,-0.4024305740084368,-9.29499626159668,-3.74687123298645,-0.382403701543808,test
321,-0.18728198402356128,-0.3138945752076629,-0.23061147772210125,0.575912115714341,-0.1645025130718109,-0.6668797128339409,-0.5942476156580754,1.3399035798308332,-1.7470094819044362,-9.370249437249756,-3.77488645673238,-0.4072420414852833,-9.297019958496094,-3.7503204345703125,-0.3878134489059448,test
322,-0.17621257424957038,-0.32188272085512526,-0.24297163162948618,0.6319117497687525,-0.3313181941542101,-0.46785818937334167,-0.43202660809981724,1.0026728168188692,-1.2925958165691225,-9.393143678840412,-3.770254727577361,-0.411723174482998,-9.305954933166504,-3.742661476135254,-0.3910079300403595,test
323,-0.1647894111031961,-0.3305340117950689,-0.25398047058850776,0.6540614688895776,-0.39634609464646364,-0.3918423458163275,-0.11324524053508822,0.32631430295714803,-0.389795241754449,-9.414679881830304,-3.771695231241458,-0.415957960542795,-9.325777053833008,-3.7369189262390137,-0.39260244369506836,train
324,-0.1530444623350635,-0.33972445384782646,-0.26393998042873396,0.6829920531780099,-0.470817577223211,-0.3088449759611629,0.2175468758895106,-0.37125562121743716,0.5327566417572136,-9.439380150208171,-3.775914197821068,-0.4202768757203283,-9.36109447479248,-3.73508620262146,-0.3968696594238281,test
325,-0.1412368397992615,-0.3489499850224413,-0.2738736103554833,0.6811106558649658,-0.45407783470748175,-0.33154656098512636,0.343992100912179,-0.6387060061480326,0.8841323416535026,-9.460988071060637,-3.784659486711649,-0.4247942727838811,-9.40237808227539,-3.7454030513763428,-0.40258878469467163,train
326,-0.12936181202905372,-0.35825347430724314,-0.28365034017428603,0.6891624543199234,-0.4728430234430833,-0.3087470466394768,0.34117881269645167,-0.6447877291789169,0.8969458573490521,-9.481827466762995,-3.791129015733452,-0.4292723664890018,-9.447577476501465,-3.760378360748291,-0.41077327728271484,test
327,-0.11743470965353639,-0.36760049246773185,-0.29332150043593297,0.6924773136713888,-0.4746512439001065,-0.30502348114731254,0.300280303603644,-0.5765720093527705,0.8222885997592896,-9.5047842725849,-3.79963984019969,-0.4338624098314176,-9.478901863098145,-3.772409439086914,-0.4169390797615051,test
328,-0.10543205594332769,-0.37695817040713403,-0.30306596287706744,0.6998429578256053,-0.4758963264876103,-0.31356657191131304,0.248465808080436,-0.46943464585478983,0.6853454577214864,-9.53059626243863,-3.808024868925977,-0.4382318913440757,-9.501708984375,-3.783038377761841,-0.42163845896720886,train
329,-0.09326240005453909,-0.38657760364939137,-0.31230301584826575,0.716123854960807,-0.5213738466708778,-0.259617107486402,0.24109922303627854,-0.4480607347708288,0.6522689341499804,-9.551193620830022,-3.81329643549039,-0.442477448573005,-9.51996898651123,-3.7885901927948,-0.4256417751312256,train
330,-0.08113283965942343,-0.39604751092169055,-0.32184179214465375,0.7066976841615029,-0.481122900190725,-0.30660987794380085,0.21135291660070302,-0.3895766558317671,0.5793641858407925,-9.57265341506033,-3.825391411009233,-0.4470770459215792,-9.542839050292969,-3.7974495887756348,-0.4300713837146759,train
331,-0.06917469819872588,-0.40505205288828877,-0.33248141386668045,0.6905593811345196,-0.4118866891722371,-0.40365958052401046,0.11067506232653213,-0.1773349692931595,0.2887092353993028,-9.595237481108272,-3.8363890855059455,-0.4512922123004469,-9.570757865905762,-3.8122105598449707,-0.43579378724098206,train
332,-0.05707211026136408,-0.4142679603449536,-0.34271767869725,0.7115092361933649,-0.4701193314681955,-0.3332357137931031,0.043054862362991865,-0.03721541803936166,0.09251681499196641,-9.617517943700038,-3.8401279296151647,-0.4558020051459042,-9.601325035095215,-3.8219456672668457,-0.4426428973674774,test
333,-0.04478451471397621,-0.4237929544176402,-0.35232423307640715,0.7256358148850472,-0.5063700408667001,-0.29100117638443923,0.05444403200167211,-0.0669046483342752,0.1316811793655566,-9.639301205588684,-3.8456154681580736,-0.4601130455488234,-9.62773609161377,-3.827514171600342,-0.4479706883430481,train
334,-0.03241865115623859,-0.43340018979548783,-0.3617920282181453,0.7300023078243323,-0.5095947736125751,-0.2898442708426363,0.09431722232377505,-0.15906057531814927,0.25760871753069847,-9.661228434827486,-3.853537794204588,-0.4644392212892458,-9.645794868469238,-3.831420421600342,-0.45139774680137634,train
335,-0.02003033210940221,-0.44296818065420257,-0.3713817449728267,0.7311568865491048,-0.5016584603238142,-0.3025333884283108,0.11248591653282368,-0.20519550201311965,0.32646566229179597,-9.683256075080552,-3.8622737967658978,-0.4688131690502148,-9.664593696594238,-3.837473154067993,-0.45505207777023315,train
336,-0.007632949595514931,-0.45246726206903426,-0.38115594156443,0.7318064332428317,-0.49194597777431986,-0.31732882557335895,0.0856053343568681,-0.15104558806065646,0.256592438756606,-9.705294650912997,-3.871182608082359,-0.4732066061340461,-9.684026718139648,-3.8457999229431152,-0.4590374231338501,train
337,0.00476288551191246,-0.4618667859748804,-0.3911981809902314,0.7314329727595446,-0.47740668342436504,-0.33993567742435254,0.04199307493020148,-0.05652113294361167,0.12807672169773676,-9.727358298392415,-3.880259663507708,-0.4776136964621271,-9.702232360839844,-3.8543307781219482,-0.4630242586135864,train
338,0.017160361448629872,-0.47118483043601594,-0.40144311669221777,0.7317249664581065,-0.4675095932376822,-0.35355016859956356,0.0004299674325278188,0.03359365430118295,0.0064451696800426825,-9.74877658805286,-3.888967121479936,-0.482185229607657,-9.718522071838379,-3.8615787029266357,-0.46672943234443665,train
